; GCode generated by CraftWare

G28 X0 Y0
G28 Z0
G0 F300 Z10


M190 S50 ;set bed temp (wait)
M109 S183 ;set head temp (wait)
; ------------------------------------
; Layer #0
; ------------------------------------
G21 ; mm
G90 ; abs
G92 E0 ; reset extr
M106 S255
G0 F4800 E-1.0000
G0 F300 Z0.100
G0 X120.525 Y109.434 F10800
G0 X122.225 Y107.713
G0 X121.391 Y105.903
G0 X121.874 Y104.020
G0 X127.391 Y97.877
G0 X133.339 Y92.498
G0 X135.407 Y91.391
G0 X137.925 Y91.810
G0 F4800 E0.0000
;segType:Loop
G1 X138.064 Y91.936 E0.0027 F600
G1 X138.816 Y92.765 E0.0190
G1 X139.482 Y93.664 E0.0353
G1 X140.058 Y94.624 E0.0516
G1 X140.536 Y95.636 E0.0679
G1 X140.913 Y96.689 E0.0841
G1 X141.185 Y97.775 E0.1004
G1 X141.349 Y98.882 E0.1167
G1 X141.404 Y100.000 E0.1330
G1 X141.349 Y101.118 E0.1493
G1 X141.185 Y102.225 E0.1656
G1 X140.913 Y103.311 E0.1819
G1 X140.536 Y104.364 E0.1981
G1 X140.058 Y105.376 E0.2144
G1 X139.482 Y106.336 E0.2307
G1 X138.816 Y107.235 E0.2470
G1 X138.064 Y108.064 E0.2633
G1 X137.235 Y108.816 E0.2796
G1 X136.336 Y109.482 E0.2959
G1 X135.376 Y110.058 E0.3121
G1 X134.364 Y110.536 E0.3284
G1 X133.311 Y110.913 E0.3447
G1 X132.225 Y111.185 E0.3610
G1 X131.118 Y111.349 E0.3773
G1 X130.000 Y111.404 E0.3936
G1 X128.882 Y111.349 E0.4099
G1 X127.775 Y111.185 E0.4261
G1 X126.689 Y110.913 E0.4424
G1 X125.636 Y110.536 E0.4587
G1 X124.624 Y110.058 E0.4750
G1 X123.664 Y109.482 E0.4913
G1 X122.765 Y108.816 E0.5076
G1 X121.936 Y108.064 E0.5239
G1 X121.184 Y107.235 E0.5401
G1 X120.518 Y106.336 E0.5564
G1 X119.942 Y105.376 E0.5727
G1 X119.464 Y104.364 E0.5890
G1 X119.087 Y103.311 E0.6053
G1 X118.815 Y102.225 E0.6216
G1 X118.651 Y101.118 E0.6378
G1 X118.596 Y100.000 E0.6541
G1 X118.651 Y98.882 E0.6704
G1 X118.815 Y97.775 E0.6867
G1 X119.087 Y96.689 E0.7030
G1 X119.464 Y95.636 E0.7193
G1 X119.942 Y94.624 E0.7356
G1 X120.518 Y93.664 E0.7518
G1 X121.184 Y92.765 E0.7681
G1 X121.936 Y91.936 E0.7844
G1 X122.765 Y91.184 E0.8007
G1 X123.664 Y90.518 E0.8170
G1 X124.624 Y89.942 E0.8333
G1 X125.636 Y89.464 E0.8496
G1 X126.689 Y89.087 E0.8658
G1 X127.775 Y88.815 E0.8821
G1 X128.882 Y88.651 E0.8984
G1 X130.000 Y88.596 E0.9147
G1 X131.118 Y88.651 E0.9310
G1 X132.225 Y88.815 E0.9473
G1 X133.311 Y89.087 E0.9636
G1 X134.364 Y89.464 E0.9798
G1 X135.376 Y89.942 E0.9961
G1 X136.336 Y90.518 E1.0124
G1 X137.235 Y91.184 E1.0287
G1 X137.798 Y91.695 E1.0397
G0 F4800 E0.0397
G0 X136.879 Y91.025 F10800
G0 F4800 E1.0397
;segType:Perimeter
G1 X137.495 Y90.948 E1.0488 F359
G1 X138.312 Y91.688 E1.0648
G1 X139.086 Y92.543 E1.0816
G1 X139.774 Y93.469 E1.0984
G1 X140.367 Y94.459 E1.1152
G1 X140.860 Y95.502 E1.1320
G1 X141.249 Y96.588 E1.1487
G1 X141.529 Y97.707 E1.1655
G1 X141.698 Y98.848 E1.1823
G1 X141.755 Y100.000 E1.1991
G1 X141.698 Y101.152 E1.2159
G1 X141.529 Y102.293 E1.2327
G1 X141.249 Y103.412 E1.2495
G1 X140.860 Y104.498 E1.2662
G1 X140.367 Y105.541 E1.2830
G1 X139.774 Y106.530 E1.2998
G1 X139.086 Y107.457 E1.3166
G1 X138.312 Y108.312 E1.3334
G1 X137.457 Y109.086 E1.3502
G1 X136.530 Y109.774 E1.3670
G1 X135.541 Y110.367 E1.3837
G1 X134.498 Y110.860 E1.4005
G1 X133.412 Y111.249 E1.4173
G1 X132.293 Y111.529 E1.4341
G1 X131.152 Y111.698 E1.4509
G1 X130.000 Y111.755 E1.4677
G1 X128.848 Y111.698 E1.4845
G1 X127.707 Y111.529 E1.5013
G1 X126.588 Y111.249 E1.5180
G1 X125.502 Y110.860 E1.5348
G1 X124.459 Y110.367 E1.5516
G1 X123.470 Y109.774 E1.5684
G1 X122.543 Y109.086 E1.5852
G1 X121.688 Y108.312 E1.6020
G1 X120.914 Y107.457 E1.6187
G1 X120.226 Y106.530 E1.6355
G1 X119.633 Y105.541 E1.6523
G1 X119.140 Y104.498 E1.6691
G1 X118.751 Y103.412 E1.6859
G1 X118.471 Y102.293 E1.7027
G1 X118.302 Y101.152 E1.7195
G1 X118.245 Y100.000 E1.7363
G1 X118.302 Y98.848 E1.7530
G1 X118.471 Y97.707 E1.7698
G1 X118.751 Y96.588 E1.7866
G1 X119.140 Y95.502 E1.8034
G1 X119.633 Y94.459 E1.8202
G1 X120.226 Y93.469 E1.8370
G1 X120.914 Y92.543 E1.8538
G1 X121.688 Y91.688 E1.8705
G1 X122.543 Y90.914 E1.8873
G1 X123.470 Y90.226 E1.9041
G1 X124.459 Y89.633 E1.9209
G1 X125.502 Y89.140 E1.9377
G1 X126.588 Y88.751 E1.9545
G1 X127.707 Y88.471 E1.9712
G1 X128.848 Y88.302 E1.9880
G1 X130.000 Y88.245 E2.0048
G1 X131.152 Y88.302 E2.0216
G1 X132.293 Y88.471 E2.0384
G1 X133.412 Y88.751 E2.0552
G1 X134.498 Y89.140 E2.0720
G1 X135.541 Y89.633 E2.0888
G1 X136.530 Y90.226 E2.1055
G1 X137.415 Y90.883 E2.1216
G1 X137.461 Y91.502
G0 X135.890 Y91.736 F10800
G0 X134.632 Y91.934
G0 X133.613 Y92.709
G0 X133.086 Y93.856
G0 X133.162 Y95.135
G0 X133.333 Y95.876
;segType:Loop
G1 X133.179 Y95.640 E2.1257 F600
G1 X132.994 Y95.192 E2.1327
G1 X132.920 Y94.912 E2.1369
G1 X132.871 Y94.581 E2.1418
G1 X132.871 Y94.108 E2.1487
G1 X132.911 Y93.822 E2.1529
G1 X132.993 Y93.494 E2.1578
G1 X133.202 Y93.003 E2.1656
G1 X133.472 Y92.600 E2.1726
G1 X133.671 Y92.375 E2.1770
G1 X134.080 Y92.033 E2.1848
G1 X134.561 Y91.770 E2.1927
G1 X135.073 Y91.609 E2.2006
G1 X135.419 Y91.558 E2.2056
G1 X135.907 Y91.558 E2.2127
G1 X136.442 Y91.659 E2.2207
G1 X136.951 Y91.864 E2.2286
G1 X137.410 Y92.164 E2.2366
G1 X137.791 Y92.537 E2.2444
G1 X137.974 Y92.779 E2.2488
G1 X138.230 Y93.247 E2.2566
G1 X138.391 Y93.759 E2.2644
G1 X138.442 Y94.105 E2.2695
G1 X138.442 Y94.593 E2.2766
G1 X138.341 Y95.129 E2.2845
G1 X138.136 Y95.637 E2.2925
G1 X137.843 Y96.086 E2.3003
G1 X137.608 Y96.345 E2.3054
G1 X137.242 Y96.645 E2.3123
G1 X136.996 Y96.796 E2.3165
G1 X136.691 Y96.941 E2.3214
G1 X136.179 Y97.091 E2.3291
G1 X135.696 Y97.138 E2.3362
G1 X135.407 Y97.127 E2.3404
G1 X135.073 Y97.077 E2.3453
G1 X134.561 Y96.917 E2.3531
G1 X134.083 Y96.655 E2.3611
G1 X133.706 Y96.345 E2.3681
G1 X133.471 Y96.086 E2.3732
G1 X133.428 Y96.020 E2.3744
;segType:Perimeter
G0 X134.386 Y96.934 F10800
G1 X134.240 Y96.331 E2.3834 F359
G1 X133.948 Y96.091 E2.3889
G1 X133.749 Y95.872 E2.3932
G1 X133.490 Y95.476 E2.4001
G1 X133.326 Y95.080 E2.4063
G1 X133.264 Y94.842 E2.4099
G1 X133.221 Y94.555 E2.4141
G1 X133.221 Y94.132 E2.4203
G1 X133.255 Y93.889 E2.4239
G1 X133.326 Y93.606 E2.4281
G1 X133.511 Y93.170 E2.4350
G1 X133.749 Y92.815 E2.4412
G1 X133.916 Y92.627 E2.4449
G1 X134.279 Y92.323 E2.4518
G1 X134.699 Y92.093 E2.4587
G1 X135.152 Y91.951 E2.4656
G1 X135.445 Y91.908 E2.4700
G1 X135.874 Y91.908 E2.4762
G1 X136.344 Y91.996 E2.4832
G1 X136.788 Y92.175 E2.4901
G1 X137.189 Y92.438 E2.4971
G1 X137.527 Y92.769 E2.5040
G1 X137.680 Y92.970 E2.5077
G1 X137.907 Y93.385 E2.5145
G1 X138.049 Y93.838 E2.5215
G1 X138.092 Y94.131 E2.5258
G1 X138.092 Y94.560 E2.5320
G1 X138.004 Y95.030 E2.5390
G1 X137.825 Y95.475 E2.5459
G1 X137.565 Y95.872 E2.5528
G1 X137.366 Y96.091 E2.5572
G1 X137.039 Y96.360 E2.5633
G1 X136.829 Y96.488 E2.5669
G1 X136.566 Y96.613 E2.5711
G1 X136.112 Y96.746 E2.5780
G1 X135.686 Y96.788 E2.5842
G1 X135.440 Y96.778 E2.5878
G1 X135.152 Y96.735 E2.5921
G1 X134.699 Y96.593 E2.5990
G1 X134.325 Y96.388 E2.6052
G1 X133.710 Y96.478
G0 X129.382 Y97.046 F10800
G0 X128.346 Y97.475
G0 X127.468 Y98.356
G0 X126.999 Y99.675
G0 X127.006 Y101.104
;segType:Loop
G1 X126.873 Y100.663 E2.6119 F600
G1 X126.817 Y100.285 E2.6174
G1 X126.804 Y99.968 E2.6220
G1 X126.823 Y99.656 E2.6266
G1 X126.874 Y99.334 E2.6313
G1 X127.035 Y98.803 E2.6394
G1 X127.317 Y98.262 E2.6483
G1 X127.518 Y97.985 E2.6533
G1 X127.938 Y97.556 E2.6620
G1 X128.248 Y97.326 E2.6676
G1 X128.531 Y97.161 E2.6724
G1 X129.031 Y96.953 E2.6803
G1 X129.346 Y96.872 E2.6850
G1 X129.670 Y96.820 E2.6898
G1 X130.267 Y96.814 E2.6985
G1 X130.593 Y96.859 E2.7032
G1 X130.898 Y96.932 E2.7078
G1 X131.208 Y97.040 E2.7126
G1 X131.741 Y97.318 E2.7213
G1 X132.059 Y97.555 E2.7271
G1 X132.445 Y97.941 E2.7351
G1 X132.673 Y98.248 E2.7406
G1 X132.833 Y98.522 E2.7452
G1 X132.970 Y98.817 E2.7500
G1 X133.131 Y99.348 E2.7580
G1 X133.197 Y99.954 E2.7669
G1 X133.184 Y100.282 E2.7717
G1 X133.141 Y100.593 E2.7763
G1 X133.068 Y100.898 E2.7808
G1 X132.964 Y101.197 E2.7854
G1 X132.805 Y101.532 E2.7908
G1 X132.634 Y101.812 E2.7956
G1 X132.289 Y102.232 E2.8035
G1 X131.997 Y102.497 E2.8092
G1 X131.532 Y102.807 E2.8174
G1 X130.958 Y103.051 E2.8264
G1 X130.345 Y103.179 E2.8356
G1 X129.718 Y103.186 E2.8447
G1 X129.116 Y103.072 E2.8536
G1 X128.803 Y102.964 E2.8584
G1 X128.468 Y102.805 E2.8638
G1 X128.198 Y102.640 E2.8684
G1 X127.939 Y102.443 E2.8732
G1 X127.546 Y102.051 E2.8812
G1 X127.201 Y101.545 E2.8901
G1 X127.201 Y101.545
;segType:Perimeter
G0 X127.758 Y102.404 F10800
G1 X127.788 Y101.783 E2.8992 F359
G1 X127.506 Y101.370 E2.9065
G1 X127.359 Y101.060 E2.9115
G1 X127.215 Y100.586 E2.9187
G1 X127.165 Y100.252 E2.9236
G1 X127.155 Y99.972 E2.9277
G1 X127.171 Y99.693 E2.9317
G1 X127.215 Y99.413 E2.9359
G1 X127.360 Y98.936 E2.9431
G1 X127.615 Y98.447 E2.9511
G1 X127.786 Y98.211 E2.9554
G1 X128.169 Y97.821 E2.9633
G1 X128.441 Y97.619 E2.9683
G1 X128.687 Y97.475 E2.9724
G1 X129.143 Y97.286 E2.9796
G1 X129.418 Y97.215 E2.9837
G1 X129.699 Y97.170 E2.9879
G1 X130.245 Y97.165 E2.9958
G1 X130.528 Y97.204 E3.0000
G1 X130.799 Y97.269 E3.0040
G1 X131.069 Y97.362 E3.0082
G1 X131.554 Y97.615 E3.0161
G1 X131.830 Y97.820 E3.0211
G1 X132.180 Y98.170 E3.0283
G1 X132.381 Y98.441 E3.0332
G1 X132.523 Y98.683 E3.0373
G1 X132.642 Y98.941 E3.0415
G1 X132.786 Y99.418 E3.0487
G1 X132.846 Y99.966 E3.0567
G1 X132.835 Y100.251 E3.0609
G1 X132.796 Y100.528 E3.0649
G1 X132.731 Y100.799 E3.0690
G1 X132.639 Y101.064 E3.0731
G1 X132.497 Y101.365 E3.0779
G1 X132.348 Y101.608 E3.0821
G1 X132.035 Y101.990 E3.0893
G1 X131.781 Y102.220 E3.0943
G1 X131.365 Y102.498 E3.1015
G1 X130.853 Y102.716 E3.1096
G1 X130.307 Y102.830 E3.1177
G1 X129.749 Y102.835 E3.1259
G1 X129.206 Y102.733 E3.1339
G1 X128.936 Y102.639 E3.1381
G1 X128.635 Y102.497 E3.1429
G1 X128.396 Y102.350 E3.1470
G1 X128.169 Y102.179 E3.1511
G1 X127.853 Y101.863 E3.1576
G1 X127.238 Y101.776
;segType:Loop
G0 X122.023 Y95.881 F10800
G1 X121.890 Y95.686 E3.1611 F600
G1 X121.680 Y95.192 E3.1689
G1 X121.594 Y94.850 E3.1740
G1 X121.547 Y94.319 E3.1818
G1 X121.594 Y93.833 E3.1889
G1 X121.679 Y93.497 E3.1939
G1 X121.861 Y93.058 E3.2008
G1 X122.040 Y92.757 E3.2059
G1 X122.385 Y92.346 E3.2137
G1 X122.810 Y92.004 E3.2217
G1 X123.237 Y91.776 E3.2287
G1 X123.520 Y91.672 E3.2331
G1 X124.042 Y91.562 E3.2409
G1 X124.590 Y91.557 E3.2488
G1 X125.129 Y91.659 E3.2568
G1 X125.624 Y91.858 E3.2646
G1 X125.885 Y92.012 E3.2690
G1 X126.301 Y92.346 E3.2768
G1 X126.653 Y92.767 E3.2847
G1 X126.917 Y93.247 E3.2927
G1 X127.077 Y93.760 E3.3005
G1 X127.129 Y94.105 E3.3056
G1 X127.129 Y94.578 E3.3125
G1 X127.089 Y94.864 E3.3167
G1 X127.007 Y95.192 E3.3216
G1 X126.797 Y95.686 E3.3294
G1 X126.488 Y96.138 E3.3374
G1 X126.096 Y96.522 E3.3454
G1 X125.640 Y96.821 E3.3533
G1 X125.189 Y97.008 E3.3604
G1 X124.853 Y97.092 E3.3655
G1 X124.368 Y97.140 E3.3726
G1 X123.839 Y97.093 E3.3803
G1 X123.556 Y97.025 E3.3845
G1 X123.237 Y96.911 E3.3894
G1 X122.769 Y96.655 E3.3972
G1 X122.395 Y96.347 E3.4043
G1 X122.190 Y96.127 E3.4086
G1 X122.120 Y96.024 E3.4104
;segType:Perimeter
G0 X123.072 Y96.934 F10800
G1 X122.926 Y96.331 E3.4195 F359
G1 X122.635 Y96.092 E3.4250
G1 X122.465 Y95.908 E3.4286
G1 X122.198 Y95.517 E3.4355
G1 X122.012 Y95.080 E3.4424
G1 X121.940 Y94.792 E3.4467
G1 X121.898 Y94.320 E3.4536
G1 X121.940 Y93.893 E3.4599
G1 X122.012 Y93.607 E3.4641
G1 X122.174 Y93.215 E3.4703
G1 X122.327 Y92.961 E3.4746
G1 X122.631 Y92.597 E3.4815
G1 X123.004 Y92.298 E3.4885
G1 X123.381 Y92.096 E3.4947
G1 X123.616 Y92.009 E3.4984
G1 X124.080 Y91.912 E3.5053
G1 X124.559 Y91.908 E3.5122
G1 X125.030 Y91.996 E3.5192
G1 X125.469 Y92.173 E3.5261
G1 X125.686 Y92.300 E3.5298
G1 X126.055 Y92.597 E3.5366
G1 X126.363 Y92.965 E3.5436
G1 X126.593 Y93.385 E3.5506
G1 X126.735 Y93.838 E3.5575
G1 X126.779 Y94.131 E3.5618
G1 X126.779 Y94.554 E3.5680
G1 X126.745 Y94.798 E3.5715
G1 X126.674 Y95.080 E3.5758
G1 X126.488 Y95.517 E3.5827
G1 X126.218 Y95.913 E3.5897
G1 X125.876 Y96.248 E3.5966
G1 X125.476 Y96.510 E3.6036
G1 X125.079 Y96.674 E3.6098
G1 X124.793 Y96.746 E3.6141
G1 X124.366 Y96.788 E3.6204
G1 X123.896 Y96.746 E3.6272
G1 X123.655 Y96.689 E3.6308
G1 X123.381 Y96.591 E3.6351
G1 X123.011 Y96.388 E3.6412
G1 X122.396 Y96.478
G0 X121.783 Y106.201 F10800
G0 X122.369 Y107.619
;segType:Loop
G1 X122.207 Y107.460 E3.6445 F600
G1 X121.999 Y107.180 E3.6496
G1 X121.769 Y106.750 E3.6567
G1 X121.609 Y106.241 E3.6645
G1 X121.557 Y105.892 E3.6696
G1 X121.562 Y105.358 E3.6774
G1 X121.660 Y104.869 E3.6846
G1 X121.858 Y104.376 E3.6923
G1 X122.012 Y104.115 E3.6968
G1 X122.346 Y103.699 E3.7045
G1 X122.757 Y103.354 E3.7123
G1 X123.060 Y103.173 E3.7175
G1 X123.555 Y102.974 E3.7252
G1 X124.045 Y102.876 E3.7325
G1 X124.590 Y102.871 E3.7404
G1 X125.117 Y102.970 E3.7482
G1 X125.449 Y103.089 E3.7534
G1 X125.920 Y103.347 E3.7612
G1 X126.340 Y103.699 E3.7691
G1 X126.684 Y104.126 E3.7771
G1 X126.938 Y104.612 E3.7851
G1 X127.091 Y105.135 E3.7930
G1 X127.140 Y105.635 E3.8004
G1 X127.082 Y106.226 E3.8090
G1 X126.917 Y106.753 E3.8170
G1 X126.655 Y107.231 E3.8250
G1 X126.347 Y107.605 E3.8320
G1 X126.127 Y107.810 E3.8364
G1 X125.686 Y108.110 E3.8442
G1 X125.195 Y108.319 E3.8519
G1 X124.901 Y108.396 E3.8563
G1 X124.371 Y108.453 E3.8641
G1 X123.821 Y108.405 E3.8721
G1 X123.253 Y108.233 E3.8808
G1 X122.823 Y108.003 E3.8879
G1 X122.579 Y107.826 E3.8922
G1 X122.492 Y107.740 E3.8940
;segType:Perimeter
G0 X123.607 Y108.445 F10800
G1 X123.342 Y107.883 E3.9031 F359
G1 X123.009 Y107.705 E3.9086
G1 X122.806 Y107.558 E3.9122
G1 X122.472 Y107.230 E3.9190
G1 X122.295 Y106.992 E3.9233
G1 X122.093 Y106.614 E3.9296
G1 X121.951 Y106.162 E3.9365
G1 X121.908 Y105.868 E3.9408
G1 X121.912 Y105.394 E3.9477
G1 X121.997 Y104.969 E3.9540
G1 X122.173 Y104.531 E3.9609
G1 X122.300 Y104.314 E3.9645
G1 X122.597 Y103.945 E3.9714
G1 X122.961 Y103.640 E3.9783
G1 X123.216 Y103.487 E3.9826
G1 X123.655 Y103.311 E3.9895
G1 X124.081 Y103.226 E3.9958
G1 X124.559 Y103.221 E4.0028
G1 X125.025 Y103.309 E4.0097
G1 X125.305 Y103.409 E4.0140
G1 X125.722 Y103.637 E4.0209
G1 X126.089 Y103.945 E4.0279
G1 X126.390 Y104.318 E4.0349
G1 X126.611 Y104.743 E4.0419
G1 X126.746 Y105.202 E4.0488
G1 X126.788 Y105.635 E4.0552
G1 X126.737 Y106.156 E4.0628
G1 X126.593 Y106.615 E4.0698
G1 X126.363 Y107.034 E4.0767
G1 X126.092 Y107.365 E4.0830
G1 X125.908 Y107.535 E4.0866
G1 X125.517 Y107.802 E4.0935
G1 X125.082 Y107.987 E4.1004
G1 X124.838 Y108.051 E4.1040
G1 X124.367 Y108.102 E4.1109
G1 X123.888 Y108.060 E4.1179
G1 X123.437 Y107.923 E4.1248
G1 X122.852 Y108.132
G0 F4800 E3.1248
G0 X133.375 Y107.267 F10800
G0 F4800 E4.1248
;segType:Loop
G1 X133.356 Y107.245 E4.1252 F600
G1 X133.198 Y106.986 E4.1296
G1 X132.989 Y106.495 E4.1374
G1 X132.879 Y105.973 E4.1452
G1 X132.861 Y105.670 E4.1496
G1 X132.908 Y105.150 E4.1572
G1 X132.993 Y104.808 E4.1623
G1 X133.203 Y104.314 E4.1701
G1 X133.512 Y103.862 E4.1781
G1 X133.904 Y103.477 E4.1861
G1 X134.360 Y103.179 E4.1940
G1 X134.822 Y102.988 E4.2013
G1 X135.341 Y102.879 E4.2090
G1 X135.632 Y102.862 E4.2132
G1 X135.970 Y102.879 E4.2182
G1 X136.492 Y102.988 E4.2259
G1 X136.943 Y103.175 E4.2330
G1 X137.240 Y103.353 E4.2381
G1 X137.605 Y103.653 E4.2449
G1 X137.802 Y103.865 E4.2491
G1 X138.003 Y104.136 E4.2541
G1 X138.250 Y104.609 E4.2618
G1 X138.392 Y105.076 E4.2689
G1 X138.440 Y105.407 E4.2738
G1 X138.452 Y105.696 E4.2780
G1 X138.406 Y106.167 E4.2849
G1 X138.320 Y106.506 E4.2900
G1 X138.112 Y106.997 E4.2977
G1 X137.841 Y107.402 E4.3048
G1 X137.606 Y107.661 E4.3099
G1 X137.190 Y107.996 E4.3177
G1 X136.750 Y108.231 E4.3249
G1 X136.241 Y108.391 E4.3327
G1 X135.895 Y108.442 E4.3378
G1 X135.422 Y108.442 E4.3447
G1 X135.124 Y108.401 E4.3490
G1 X134.612 Y108.251 E4.3568
G1 X134.126 Y107.998 E4.3648
G1 X133.699 Y107.654 E4.3728
G1 X133.486 Y107.399 E4.3776
;segType:Perimeter
G0 X134.435 Y108.272 F10800
G1 X134.278 Y107.671 E4.3866 F359
G1 X133.945 Y107.403 E4.3929
G1 X133.641 Y107.040 E4.3998
G1 X133.510 Y106.825 E4.4034
G1 X133.324 Y106.390 E4.4103
G1 X133.227 Y105.926 E4.4172
G1 X133.212 Y105.675 E4.4209
G1 X133.254 Y105.208 E4.4277
G1 X133.326 Y104.920 E4.4320
G1 X133.512 Y104.483 E4.4389
G1 X133.782 Y104.087 E4.4459
G1 X134.124 Y103.752 E4.4529
G1 X134.524 Y103.490 E4.4598
G1 X134.925 Y103.324 E4.4661
G1 X135.387 Y103.227 E4.4730
G1 X135.634 Y103.212 E4.4766
G1 X135.925 Y103.227 E4.4808
G1 X136.388 Y103.324 E4.4877
G1 X136.785 Y103.488 E4.4940
G1 X137.038 Y103.640 E4.4983
G1 X137.365 Y103.908 E4.5044
G1 X137.532 Y104.089 E4.5080
G1 X137.706 Y104.323 E4.5122
G1 X137.925 Y104.742 E4.5191
G1 X138.049 Y105.153 E4.5254
G1 X138.092 Y105.440 E4.5296
G1 X138.101 Y105.686 E4.5332
G1 X138.060 Y106.107 E4.5393
G1 X137.988 Y106.394 E4.5436
G1 X137.802 Y106.830 E4.5505
G1 X137.564 Y107.186 E4.5568
G1 X137.365 Y107.406 E4.5611
G1 X136.996 Y107.702 E4.5680
G1 X136.614 Y107.907 E4.5743
G1 X136.162 Y108.049 E4.5812
G1 X135.869 Y108.092 E4.5855
G1 X135.446 Y108.092 E4.5916
G1 X135.198 Y108.058 E4.5953
G1 X134.743 Y107.925 E4.6022
G1 X134.364 Y107.727 E4.6084
G1 X133.751 Y107.824
;segType:HShell
G0 X130.904 Y104.476 F10800
G1 X131.375 Y104.377 E4.6154 F600
G1 X131.739 Y104.222 E4.6212
G1 X131.678 Y104.367 E4.6234
G1 X131.539 Y104.920 E4.6317
G1 X131.474 Y105.649 E4.6424
G1 X131.505 Y106.156 E4.6498
G1 X131.663 Y106.912 E4.6610
G1 X131.965 Y107.621 E4.6722
G1 X132.230 Y108.054 E4.6796
G1 X132.725 Y108.646 E4.6909
G1 X133.365 Y109.161 E4.7028
G1 X133.665 Y109.317 E4.7077
G1 X132.909 Y109.588 E4.7194
G1 X131.955 Y109.827 E4.7337
G1 X130.982 Y109.971 E4.7480
G1 X130.000 Y110.020 E4.7623
G1 X129.018 Y109.971 E4.7767
G1 X128.045 Y109.827 E4.7910
G1 X127.091 Y109.588 E4.8053
G1 X126.358 Y109.326 E4.8166
G1 X126.990 Y108.895 E4.8277
G1 X127.356 Y108.557 E4.8350
G1 X127.806 Y108.009 E4.8453
G1 X128.196 Y107.297 E4.8571
G1 X128.445 Y106.504 E4.8692
G1 X128.530 Y105.635 E4.8819
G1 X128.454 Y104.871 E4.8931
G1 X128.270 Y104.242 E4.9026
G1 X128.279 Y104.246 E4.9028
G1 X128.759 Y104.413 E4.9102
G1 X129.595 Y104.570 E4.9225
G1 X130.494 Y104.561 E4.9356
G1 X130.735 Y104.511 E4.9392
G0 X129.892 Y104.222 F10800
G1 X130.457 Y104.217 E4.9474 F600
G1 X131.271 Y104.046 E4.9595
G1 X132.028 Y103.724 E4.9715
G1 X132.618 Y103.330 E4.9818
G1 X132.288 Y103.814 E4.9903
G1 X132.006 Y104.477 E5.0008
G1 X131.881 Y104.977 E5.0083
G1 X131.820 Y105.654 E5.0182
G1 X131.848 Y106.111 E5.0249
G1 X131.994 Y106.808 E5.0352
G1 X132.273 Y107.462 E5.0456
G1 X132.511 Y107.852 E5.0522
G1 X132.968 Y108.398 E5.0626
G1 X133.555 Y108.870 E5.0736
G1 X134.222 Y109.218 E5.0845
G1 X134.531 Y109.309 E5.0892
G1 X133.966 Y109.576 E5.0983
G1 X133.009 Y109.919 E5.1131
G1 X132.022 Y110.166 E5.1279
G1 X131.016 Y110.315 E5.1427
G1 X130.000 Y110.365 E5.1575
G1 X128.984 Y110.315 E5.1723
G1 X127.978 Y110.166 E5.1871
G1 X126.991 Y109.919 E5.2019
G1 X126.034 Y109.576 E5.2167
G1 X125.484 Y109.316 E5.2255
G1 X125.531 Y109.304 E5.2262
G1 X126.186 Y109.025 E5.2366
G1 X126.775 Y108.624 E5.2470
G1 X127.104 Y108.319 E5.2535
G1 X127.519 Y107.815 E5.2630
G1 X127.877 Y107.161 E5.2738
G1 X128.105 Y106.435 E5.2849
G1 X128.183 Y105.635 E5.2966
G1 X128.114 Y104.937 E5.3068
G1 X127.905 Y104.223 E5.3176
G1 X127.557 Y103.555 E5.3286
G1 X127.354 Y103.302 E5.3333
G1 X127.613 Y103.499 E5.3380
G1 X127.973 Y103.719 E5.3442
G1 X128.409 Y103.926 E5.3512
G1 X128.848 Y104.078 E5.3580
G1 X129.626 Y104.225 E5.3695
G1 X129.720 Y104.224 E5.3708
G0 X130.660 Y103.821 F10800
G1 X130.419 Y103.872 E5.3744 F600
G1 X129.656 Y103.879 E5.3855
G1 X128.938 Y103.744 E5.3962
G1 X128.540 Y103.606 E5.4023
G1 X128.138 Y103.415 E5.4088
G1 X127.808 Y103.213 E5.4144
G1 X127.483 Y102.967 E5.4203
G1 X127.010 Y102.495 E5.4301
G1 X126.598 Y101.890 E5.4407
G1 X126.383 Y101.436 E5.4480
G1 X126.195 Y100.815 E5.4575
G1 X126.126 Y100.350 E5.4643
G1 X126.111 Y99.961 E5.4700
G1 X126.133 Y99.581 E5.4755
G1 X126.197 Y99.179 E5.4814
G1 X126.390 Y98.539 E5.4911
G1 X126.726 Y97.896 E5.5017
G1 X126.988 Y97.536 E5.5082
G1 X127.482 Y97.032 E5.5184
G1 X127.865 Y96.748 E5.5254
G1 X128.222 Y96.539 E5.5314
G1 X128.810 Y96.295 E5.5407
G1 X129.205 Y96.193 E5.5466
G1 X129.612 Y96.128 E5.5526
G1 X130.312 Y96.121 E5.5628
G1 X130.721 Y96.178 E5.5688
G1 X131.093 Y96.266 E5.5744
G1 X131.484 Y96.402 E5.5804
G1 X132.110 Y96.729 E5.5907
G1 X132.513 Y97.029 E5.5980
G1 X132.971 Y97.487 E5.6074
G1 X133.252 Y97.865 E5.6143
G1 X133.448 Y98.201 E5.6199
G1 X133.619 Y98.570 E5.6258
G1 X133.813 Y99.209 E5.6356
G1 X133.891 Y99.930 E5.6461
G1 X133.875 Y100.343 E5.6521
G1 X133.823 Y100.721 E5.6577
G1 X133.734 Y101.093 E5.6632
G1 X133.606 Y101.460 E5.6689
G1 X133.415 Y101.862 E5.6754
G1 X133.200 Y102.214 E5.6814
G1 X132.792 Y102.711 E5.6907
G1 X132.424 Y103.044 E5.6979
G1 X131.863 Y103.419 E5.7078
G1 X131.167 Y103.715 E5.7188
G1 X130.829 Y103.786 E5.7238
G0 X131.492 Y103.202 F10800
G1 X131.063 Y103.384 E5.7306 F600
G1 X130.382 Y103.527 E5.7407
G1 X129.687 Y103.534 E5.7508
G1 X129.026 Y103.409 E5.7606
G1 X128.671 Y103.286 E5.7661
G1 X128.303 Y103.111 E5.7720
G1 X128.002 Y102.927 E5.7771
G1 X127.710 Y102.706 E5.7825
G1 X127.277 Y102.274 E5.7914
G1 X126.898 Y101.718 E5.8011
G1 X126.706 Y101.311 E5.8077
G1 X126.533 Y100.740 E5.8164
G1 X126.470 Y100.317 E5.8226
G1 X126.456 Y99.965 E5.8277
G1 X126.477 Y99.618 E5.8328
G1 X126.534 Y99.256 E5.8381
G1 X126.711 Y98.671 E5.8470
G1 X127.020 Y98.079 E5.8567
G1 X127.252 Y97.760 E5.8625
G1 X127.709 Y97.294 E5.8720
G1 X128.056 Y97.036 E5.8783
G1 X128.376 Y96.849 E5.8837
G1 X128.920 Y96.623 E5.8922
G1 X129.275 Y96.531 E5.8976
G1 X129.641 Y96.473 E5.9030
G1 X130.290 Y96.466 E5.9124
G1 X130.657 Y96.517 E5.9178
G1 X130.996 Y96.598 E5.9229
G1 X131.346 Y96.720 E5.9283
G1 X131.926 Y97.023 E5.9378
G1 X132.287 Y97.291 E5.9443
G1 X132.709 Y97.713 E5.9530
G1 X132.964 Y98.056 E5.9592
G1 X133.142 Y98.361 E5.9644
G1 X133.295 Y98.693 E5.9697
G1 X133.473 Y99.278 E5.9786
G1 X133.545 Y99.942 E5.9883
G1 X133.530 Y100.313 E5.9937
G1 X133.483 Y100.657 E5.9987
G1 X133.402 Y100.996 E6.0038
G1 X133.286 Y101.329 E6.0090
G1 X133.111 Y101.697 E6.0149
G1 X132.918 Y102.014 E6.0203
G1 X132.541 Y102.472 E6.0289
G1 X132.211 Y102.772 E6.0354
G1 X131.698 Y103.114 E6.0444
G1 X131.650 Y103.134 E6.0451
G0 X133.362 Y102.560 F10800
G1 X133.482 Y102.415 E6.0479 F600
G1 X133.719 Y102.027 E6.0545
G1 X133.926 Y101.591 E6.0615
G1 X134.065 Y101.190 E6.0677
G1 X134.162 Y100.785 E6.0737
G1 X134.219 Y100.373 E6.0798
G1 X134.237 Y99.918 E6.0864
G1 X134.152 Y99.140 E6.0978
G1 X133.942 Y98.447 E6.1083
G1 X133.755 Y98.041 E6.1148
G1 X133.541 Y97.674 E6.1210
G1 X133.309 Y97.362 E6.1267
G1 X133.499 Y97.519 E6.1303
G1 X134.153 Y97.876 E6.1411
G1 X134.840 Y98.092 E6.1516
G1 X135.311 Y98.162 E6.1585
G1 X135.726 Y98.178 E6.1646
G1 X136.377 Y98.114 E6.1741
G1 X137.061 Y97.914 E6.1844
G1 X137.491 Y97.711 E6.1914
G1 X137.846 Y97.493 E6.1974
G1 X138.325 Y97.099 E6.2065
G1 X138.666 Y96.723 E6.2138
G1 X139.061 Y96.120 E6.2243
G1 X139.317 Y95.485 E6.2343
G1 X139.576 Y96.034 E6.2431
G1 X139.919 Y96.991 E6.2579
G1 X140.166 Y97.978 E6.2727
G1 X140.315 Y98.984 E6.2875
G1 X140.365 Y100.000 E6.3023
G1 X140.315 Y101.016 E6.3171
G1 X140.166 Y102.022 E6.3319
G1 X139.918 Y103.009 E6.3467
G1 X139.576 Y103.967 E6.3615
G1 X139.310 Y104.529 E6.3706
G1 X139.215 Y104.215 E6.3753
G1 X138.886 Y103.584 E6.3857
G1 X138.602 Y103.201 E6.3926
G1 X138.319 Y102.895 E6.3987
G1 X137.839 Y102.502 E6.4077
G1 X137.411 Y102.245 E6.4150
G1 X136.800 Y101.992 E6.4246
G1 X136.103 Y101.846 E6.4350
G1 X135.627 Y101.822 E6.4419
G1 X135.203 Y101.848 E6.4481
G1 X134.514 Y101.992 E6.4583
G1 X133.873 Y102.257 E6.4684
G1 X133.380 Y102.579 E6.4770
G0 X134.271 Y101.649 F10800
G1 X134.397 Y101.287 E6.4826 F600
G1 X134.502 Y100.849 E6.4891
G1 X134.563 Y100.403 E6.4957
G1 X134.583 Y99.906 E6.5029
G1 X134.492 Y99.070 E6.5152
G1 X134.266 Y98.323 E6.5265
G1 X134.239 Y98.265 E6.5275
G1 X134.763 Y98.430 E6.5354
G1 X135.278 Y98.506 E6.5430
G1 X135.736 Y98.524 E6.5497
G1 X136.443 Y98.455 E6.5600
G1 X137.184 Y98.238 E6.5713
G1 X137.656 Y98.015 E6.5789
G1 X138.046 Y97.775 E6.5855
G1 X138.564 Y97.350 E6.5953
G1 X138.940 Y96.935 E6.6034
G1 X139.323 Y96.350 E6.6136
G1 X139.588 Y97.091 E6.6250
G1 X139.827 Y98.045 E6.6393
G1 X139.971 Y99.018 E6.6537
G1 X140.020 Y100.000 E6.6680
G1 X139.971 Y100.982 E6.6823
G1 X139.827 Y101.955 E6.6966
G1 X139.588 Y102.909 E6.7109
G1 X139.318 Y103.665 E6.7226
G1 X139.179 Y103.400 E6.7269
G1 X138.868 Y102.981 E6.7345
G1 X138.556 Y102.643 E6.7412
G1 X138.039 Y102.219 E6.7509
G1 X137.567 Y101.936 E6.7590
G1 X136.902 Y101.660 E6.7694
G1 X136.147 Y101.502 E6.7807
G1 X135.625 Y101.476 E6.7883
G1 X135.157 Y101.505 E6.7951
G1 X134.412 Y101.660 E6.8062
G1 X134.321 Y101.698 E6.8076
G0 X132.310 Y98.057 F10800
G0 X131.137 Y97.204
G0 X128.296 Y95.696
G1 X128.322 Y95.634 E6.8086 F600
G1 X128.449 Y95.128 E6.8162
G1 X128.512 Y94.673 E6.8228
G1 X128.512 Y94.004 E6.8326
G1 X128.430 Y93.449 E6.8407
G1 X128.196 Y92.703 E6.8521
G1 X127.801 Y91.983 E6.8641
G1 X127.275 Y91.354 E6.8760
G1 X126.673 Y90.870 E6.8872
G1 X126.346 Y90.678 E6.8927
G1 X127.091 Y90.412 E6.9043
G1 X128.045 Y90.173 E6.9186
G1 X129.018 Y90.029 E6.9329
G1 X130.000 Y89.980 E6.9472
G1 X130.982 Y90.029 E6.9615
G1 X131.955 Y90.173 E6.9758
G1 X132.909 Y90.412 E6.9901
G1 X133.666 Y90.683 E7.0018
G1 X133.297 Y90.885 E7.0079
G1 X132.705 Y91.380 E7.0192
G1 X132.374 Y91.752 E7.0264
G1 X131.980 Y92.343 E7.0367
G1 X131.678 Y93.052 E7.0480
G1 X131.551 Y93.558 E7.0556
G1 X131.488 Y94.013 E7.0622
G1 X131.488 Y94.682 E7.0720
G1 X131.563 Y95.189 E7.0794
G1 X131.679 Y95.634 E7.0861
G1 X131.730 Y95.757 E7.0881
G1 X131.287 Y95.603 E7.0949
G1 X130.849 Y95.498 E7.1014
G1 X130.356 Y95.430 E7.1087
G1 X129.554 Y95.438 E7.1204
G1 X129.064 Y95.516 E7.1276
G1 X128.590 Y95.639 E7.1347
G1 X128.342 Y95.742 E7.1386
G0 X127.421 Y96.612 F10800
G1 X127.712 Y96.186 E7.1461 F600
G1 X127.994 Y95.523 E7.1566
G1 X128.110 Y95.062 E7.1635
G1 X128.167 Y94.650 E7.1696
G1 X128.167 Y94.029 E7.1786
G1 X128.092 Y93.527 E7.1860
G1 X127.877 Y92.839 E7.1965
G1 X127.515 Y92.178 E7.2074
G1 X127.032 Y91.602 E7.2184
G1 X126.476 Y91.155 E7.2288
G1 X126.082 Y90.924 E7.2354
G1 X125.485 Y90.683 E7.2448
G1 X126.033 Y90.424 E7.2536
G1 X126.991 Y90.082 E7.2684
G1 X127.978 Y89.834 E7.2832
G1 X128.984 Y89.685 E7.2980
G1 X130.000 Y89.635 E7.3128
G1 X131.016 Y89.685 E7.3276
G1 X132.022 Y89.834 E7.3424
G1 X133.009 Y90.082 E7.3572
G1 X133.967 Y90.424 E7.3720
G1 X134.532 Y90.691 E7.3811
G1 X134.153 Y90.810 E7.3869
G1 X133.492 Y91.171 E7.3979
G1 X132.946 Y91.629 E7.4082
G1 X132.648 Y91.964 E7.4147
G1 X132.285 Y92.508 E7.4243
G1 X132.006 Y93.163 E7.4346
G1 X131.890 Y93.624 E7.4415
G1 X131.833 Y94.037 E7.4476
G1 X131.833 Y94.657 E7.4566
G1 X131.902 Y95.120 E7.4634
G1 X132.007 Y95.524 E7.4695
G1 X132.257 Y96.127 E7.4790
G1 X132.616 Y96.676 E7.4886
G1 X132.293 Y96.436 E7.4944
G1 X131.621 Y96.085 E7.5055
G1 X131.190 Y95.935 E7.5121
G1 X130.785 Y95.838 E7.5181
G1 X130.334 Y95.775 E7.5248
G1 X129.583 Y95.783 E7.5357
G1 X129.134 Y95.854 E7.5423
G1 X128.700 Y95.967 E7.5488
G1 X128.068 Y96.229 E7.5588
G1 X127.675 Y96.459 E7.5654
G1 X127.442 Y96.632 E7.5696
G0 X120.604 Y103.447 F10800
G1 X120.412 Y102.909 E7.5780 F600
G1 X120.173 Y101.955 E7.5923
G1 X120.029 Y100.982 E7.6066
G1 X119.980 Y100.000 E7.6209
G1 X120.029 Y99.018 E7.6352
G1 X120.173 Y98.045 E7.6495
G1 X120.412 Y97.091 E7.6638
G1 X120.674 Y96.358 E7.6751
G1 X121.105 Y96.990 E7.6863
G1 X121.443 Y97.356 E7.6935
G1 X121.992 Y97.806 E7.7038
G1 X122.670 Y98.177 E7.7151
G1 X123.160 Y98.352 E7.7227
G1 X123.615 Y98.461 E7.7295
G1 X124.375 Y98.529 E7.7406
G1 X125.090 Y98.458 E7.7510
G1 X125.624 Y98.325 E7.7590
G1 X125.751 Y98.272 E7.7610
G1 X125.748 Y98.277 E7.7611
G1 X125.522 Y99.024 E7.7725
G1 X125.446 Y99.506 E7.7796
G1 X125.420 Y99.954 E7.7861
G1 X125.437 Y100.414 E7.7928
G1 X125.520 Y100.967 E7.8009
G1 X125.737 Y101.685 E7.8119
G1 X125.759 Y101.731 E7.8126
G1 X125.479 Y101.631 E7.8169
G1 X124.712 Y101.487 E7.8283
G1 X123.901 Y101.494 E7.8401
G1 X123.158 Y101.642 E7.8511
G1 X122.443 Y101.930 E7.8623
G1 X121.953 Y102.223 E7.8706
G1 X121.354 Y102.725 E7.8820
G1 X120.870 Y103.327 E7.8932
G1 X120.678 Y103.654 E7.8987
G1 X120.663 Y103.609 E7.8994
G0 X120.646 Y104.437 F10800
G1 X120.424 Y103.966 E7.9070 F600
G1 X120.081 Y103.009 E7.9218
G1 X119.834 Y102.022 E7.9366
G1 X119.685 Y101.016 E7.9514
G1 X119.635 Y100.000 E7.9662
G1 X119.685 Y98.984 E7.9810
G1 X119.834 Y97.978 E7.9958
G1 X120.081 Y96.991 E8.0106
G1 X120.424 Y96.034 E8.0254
G1 X120.683 Y95.486 E8.0342
G1 X120.693 Y95.524 E8.0348
G1 X120.975 Y96.186 E8.0453
G1 X121.376 Y96.775 E8.0557
G1 X121.681 Y97.104 E8.0622
G1 X122.186 Y97.519 E8.0717
G1 X122.811 Y97.861 E8.0821
G1 X123.259 Y98.021 E8.0890
G1 X123.671 Y98.120 E8.0951
G1 X124.373 Y98.182 E8.1054
G1 X125.031 Y98.117 E8.1150
G1 X125.515 Y97.996 E8.1223
G1 X126.127 Y97.743 E8.1319
G1 X126.669 Y97.388 E8.1413
G1 X126.432 Y97.714 E8.1472
G1 X126.069 Y98.408 E8.1586
G1 X125.860 Y99.101 E8.1691
G1 X125.790 Y99.544 E8.1757
G1 X125.765 Y99.958 E8.1817
G1 X125.781 Y100.382 E8.1879
G1 X125.858 Y100.891 E8.1954
G1 X126.060 Y101.560 E8.2055
G1 X126.298 Y102.062 E8.2136
G1 X126.689 Y102.637 E8.2237
G1 X126.508 Y102.485 E8.2272
G1 X125.875 Y102.139 E8.2377
G1 X125.389 Y101.965 E8.2452
G1 X124.682 Y101.832 E8.2557
G1 X123.937 Y101.839 E8.2665
G1 X123.257 Y101.975 E8.2766
G1 X122.597 Y102.241 E8.2869
G1 X122.154 Y102.506 E8.2945
G1 X121.602 Y102.968 E8.3049
G1 X121.155 Y103.524 E8.3153
G1 X120.924 Y103.918 E8.3220
G1 X120.716 Y104.435 E8.3301
G0 X120.823 Y105.498 F10800
G1 X120.554 Y105.049 E8.3377 F600
G1 X120.104 Y104.099 E8.3530
G1 X119.751 Y103.109 E8.3683
G1 X119.495 Y102.090 E8.3836
G1 X119.341 Y101.050 E8.3989
G1 X119.289 Y100.000 E8.4142
G1 X119.341 Y98.950 E8.4295
G1 X119.495 Y97.910 E8.4448
G1 X119.751 Y96.891 E8.4600
G1 X120.104 Y95.901 E8.4753
G1 X120.554 Y94.951 E8.4906
G1 X120.862 Y94.438 E8.4993
G1 X120.908 Y94.966 E8.5070
G1 X121.021 Y95.414 E8.5138
G1 X121.279 Y96.020 E8.5234
G1 X121.647 Y96.559 E8.5329
G1 X121.918 Y96.853 E8.5387
G1 X122.379 Y97.231 E8.5474
G1 X122.953 Y97.545 E8.5569
G1 X123.358 Y97.690 E8.5631
G1 X123.727 Y97.778 E8.5686
G1 X124.371 Y97.836 E8.5781
G1 X124.972 Y97.776 E8.5868
G1 X125.407 Y97.667 E8.5934
G1 X125.965 Y97.436 E8.6022
G1 X126.532 Y97.065 E8.6120
G1 X127.022 Y96.585 E8.6220
G1 X127.407 Y96.020 E8.6320
G1 X127.666 Y95.413 E8.6415
G1 X127.770 Y94.996 E8.6478
G1 X127.821 Y94.626 E8.6532
G1 X127.821 Y94.054 E8.6616
G1 X127.755 Y93.604 E8.6682
G1 X127.557 Y92.974 E8.6778
G1 X127.229 Y92.374 E8.6877
G1 X126.789 Y91.849 E8.6977
G1 X126.280 Y91.440 E8.7072
G1 X125.930 Y91.234 E8.7131
G1 X125.324 Y90.991 E8.7226
G1 X124.652 Y90.864 E8.7326
G1 X124.431 Y90.866 E8.7358
G1 X124.951 Y90.554 E8.7446
G1 X125.901 Y90.104 E8.7599
G1 X126.891 Y89.751 E8.7752
G1 X127.910 Y89.495 E8.7905
G1 X128.950 Y89.341 E8.8058
G1 X130.000 Y89.289 E8.8211
G1 X131.050 Y89.341 E8.8364
G1 X132.090 Y89.495 E8.8517
G1 X133.109 Y89.751 E8.8670
G1 X134.099 Y90.104 E8.8823
G1 X135.049 Y90.554 E8.8976
G1 X135.567 Y90.865 E8.9064
G1 X135.368 Y90.865 E8.9093
G1 X134.918 Y90.932 E8.9159
G1 X134.289 Y91.129 E8.9255
G1 X133.688 Y91.458 E8.9355
G1 X133.187 Y91.877 E8.9450
G1 X132.922 Y92.175 E8.9508
G1 X132.590 Y92.672 E8.9595
G1 X132.334 Y93.273 E8.9690
G1 X132.230 Y93.690 E8.9752
G1 X132.179 Y94.060 E8.9807
G1 X132.179 Y94.632 E8.9890
G1 X132.241 Y95.051 E8.9951
G1 X132.335 Y95.413 E9.0006
G1 X132.564 Y95.965 E9.0093
G1 X132.921 Y96.511 E9.0188
G1 X133.227 Y96.849 E9.0254
G1 X133.693 Y97.231 E9.0342
G1 X134.289 Y97.557 E9.0441
G1 X134.918 Y97.755 E9.0537
G1 X135.343 Y97.818 E9.0599
G1 X135.716 Y97.832 E9.0653
G1 X136.311 Y97.774 E9.0740
G1 X136.938 Y97.591 E9.0835
G1 X137.326 Y97.407 E9.0898
G1 X137.645 Y97.211 E9.0952
G1 X138.087 Y96.849 E9.1036
G1 X138.392 Y96.511 E9.1102
G1 X138.754 Y95.959 E9.1198
G1 X139.009 Y95.324 E9.1297
G1 X139.135 Y94.658 E9.1396
G1 X139.135 Y94.433 E9.1429
G1 X139.446 Y94.951 E9.1517
G1 X139.895 Y95.901 E9.1670
G1 X140.249 Y96.891 E9.1823
G1 X140.505 Y97.910 E9.1976
G1 X140.659 Y98.950 E9.2128
G1 X140.711 Y100.000 E9.2281
G1 X140.659 Y101.050 E9.2434
G1 X140.505 Y102.090 E9.2587
G1 X140.249 Y103.109 E9.2740
G1 X139.896 Y104.099 E9.2893
G1 X139.446 Y105.049 E9.3046
G1 X139.140 Y105.559 E9.3133
G1 X139.131 Y105.343 E9.3164
G1 X139.069 Y104.924 E9.3226
G1 X138.894 Y104.346 E9.3314
G1 X138.592 Y103.767 E9.3409
G1 X138.336 Y103.422 E9.3471
G1 X138.082 Y103.147 E9.3526
G1 X137.640 Y102.785 E9.3609
G1 X137.255 Y102.554 E9.3674
G1 X136.697 Y102.323 E9.3762
G1 X136.059 Y102.189 E9.3857
G1 X135.629 Y102.168 E9.3920
G1 X135.249 Y102.191 E9.3975
G1 X134.616 Y102.323 E9.4069
G1 X134.035 Y102.563 E9.4161
G1 X133.467 Y102.935 E9.4259
G1 X132.978 Y103.415 E9.4359
G1 X132.593 Y103.980 E9.4459
G1 X132.334 Y104.587 E9.4555
G1 X132.222 Y105.034 E9.4622
G1 X132.167 Y105.659 E9.4713
G1 X132.191 Y106.065 E9.4772
G1 X132.324 Y106.704 E9.4867
G1 X132.580 Y107.304 E9.4962
G1 X132.792 Y107.650 E9.5021
G1 X133.211 Y108.151 E9.5116
G1 X133.745 Y108.580 E9.5216
G1 X134.351 Y108.897 E9.5315
G1 X134.979 Y109.081 E9.5411
G1 X135.375 Y109.135 E9.5469
G1 X135.567 Y109.135 E9.5497
G1 X135.049 Y109.446 E9.5585
G1 X134.099 Y109.896 E9.5738
G1 X133.109 Y110.249 E9.5891
G1 X132.090 Y110.505 E9.6043
G1 X131.050 Y110.659 E9.6196
G1 X130.000 Y110.711 E9.6349
G1 X128.950 Y110.659 E9.6502
G1 X127.910 Y110.505 E9.6655
G1 X126.891 Y110.249 E9.6808
G1 X125.901 Y109.896 E9.6961
G1 X124.951 Y109.446 E9.7114
G1 X124.445 Y109.142 E9.7200
G1 X125.027 Y109.079 E9.7285
G1 X125.420 Y108.977 E9.7344
G1 X126.020 Y108.721 E9.7439
G1 X126.559 Y108.353 E9.7534
G1 X126.853 Y108.082 E9.7592
G1 X127.231 Y107.621 E9.7679
G1 X127.557 Y107.026 E9.7778
G1 X127.764 Y106.365 E9.7879
G1 X127.836 Y105.635 E9.7985
G1 X127.774 Y105.003 E9.8078
G1 X127.583 Y104.353 E9.8177
G1 X127.267 Y103.745 E9.8276
G1 X126.837 Y103.211 E9.8376
G1 X126.312 Y102.772 E9.8476
G1 X125.733 Y102.455 E9.8572
G1 X125.299 Y102.300 E9.8639
G1 X124.651 Y102.178 E9.8735
G1 X123.973 Y102.184 E9.8833
G1 X123.356 Y102.307 E9.8925
G1 X122.751 Y102.551 E9.9020
G1 X122.355 Y102.788 E9.9087
G1 X121.849 Y103.211 E9.9183
G1 X121.440 Y103.720 E9.9278
G1 X121.234 Y104.070 E9.9337
G1 X120.993 Y104.670 E9.9431
G1 X120.870 Y105.286 E9.9523
G1 X120.868 Y105.485 E9.9552
G0 X121.598 Y107.167 F10800
G1 X121.607 Y107.183 E9.9554 F600
G1 X121.453 Y107.014 E9.9588
G1 X120.807 Y106.142 E9.9745
G1 X120.249 Y105.212 E9.9903
G1 X119.785 Y104.231 E10.0061
G1 X119.420 Y103.210 E10.0219
G1 X119.156 Y102.157 E10.0377
G1 X118.997 Y101.084 E10.0535
G1 X118.944 Y100.000 E10.0693
G1 X118.997 Y98.916 E10.0851
G1 X119.156 Y97.843 E10.1009
G1 X119.420 Y96.790 E10.1166
G1 X119.785 Y95.769 E10.1324
G1 X120.249 Y94.788 E10.1482
G1 X120.807 Y93.858 E10.1640
G1 X121.453 Y92.986 E10.1798
G1 X121.587 Y92.839 E10.1827
G1 X121.549 Y92.901 E10.1837
G1 X121.348 Y93.388 E10.1914
G1 X121.251 Y93.773 E10.1972
G1 X121.197 Y94.317 E10.2051
G1 X121.250 Y94.908 E10.2138
G1 X121.349 Y95.303 E10.2197
G1 X121.583 Y95.853 E10.2284
G1 X121.918 Y96.344 E10.2370
G1 X122.155 Y96.601 E10.2421
G1 X122.573 Y96.944 E10.2500
G1 X123.095 Y97.229 E10.2586
G1 X123.456 Y97.358 E10.2642
G1 X123.783 Y97.437 E10.2691
G1 X124.369 Y97.489 E10.2777
G1 X124.913 Y97.435 E10.2856
G1 X125.299 Y97.339 E10.2914
G1 X125.803 Y97.130 E10.2994
G1 X126.315 Y96.794 E10.3083
G1 X126.756 Y96.363 E10.3172
G1 X127.103 Y95.853 E10.3262
G1 X127.337 Y95.303 E10.3349
G1 X127.431 Y94.930 E10.3405
G1 X127.476 Y94.602 E10.3453
G1 X127.476 Y94.080 E10.3529
G1 X127.417 Y93.682 E10.3588
G1 X127.238 Y93.110 E10.3675
G1 X126.942 Y92.569 E10.3765
G1 X126.546 Y92.097 E10.3855
G1 X126.083 Y91.725 E10.3941
G1 X125.777 Y91.545 E10.3993
G1 X125.227 Y91.324 E10.4079
G1 X124.621 Y91.210 E10.4169
G1 X124.004 Y91.215 E10.4258
G1 X123.423 Y91.337 E10.4345
G1 X123.095 Y91.458 E10.4396
G1 X122.818 Y91.606 E10.4441
G1 X122.986 Y91.453 E10.4474
G1 X123.858 Y90.807 E10.4632
G1 X124.788 Y90.249 E10.4790
G1 X125.769 Y89.785 E10.4948
G1 X126.790 Y89.420 E10.5106
G1 X127.843 Y89.156 E10.5264
G1 X128.916 Y88.997 E10.5422
G1 X130.000 Y88.944 E10.5580
G1 X131.084 Y88.997 E10.5737
G1 X132.157 Y89.156 E10.5895
G1 X133.210 Y89.420 E10.6053
G1 X134.231 Y89.785 E10.6211
G1 X135.212 Y90.249 E10.6369
G1 X136.142 Y90.807 E10.6527
G1 X137.014 Y91.453 E10.6685
G1 X137.158 Y91.584 E10.6713
G1 X137.112 Y91.554 E10.6721
G1 X136.541 Y91.324 E10.6810
G1 X135.939 Y91.210 E10.6900
G1 X135.394 Y91.210 E10.6979
G1 X134.995 Y91.269 E10.7038
G1 X134.424 Y91.448 E10.7125
G1 X133.883 Y91.744 E10.7214
G1 X133.428 Y92.125 E10.7301
G1 X133.196 Y92.387 E10.7352
G1 X132.895 Y92.837 E10.7430
G1 X132.663 Y93.383 E10.7517
G1 X132.569 Y93.756 E10.7573
G1 X132.524 Y94.084 E10.7621
G1 X132.524 Y94.606 E10.7697
G1 X132.579 Y94.982 E10.7752
G1 X132.663 Y95.303 E10.7800
G1 X132.870 Y95.803 E10.7879
G1 X133.195 Y96.299 E10.7965
G1 X133.466 Y96.598 E10.8024
G1 X133.888 Y96.944 E10.8103
G1 X134.424 Y97.238 E10.8193
G1 X134.995 Y97.417 E10.8280
G1 X135.375 Y97.473 E10.8335
G1 X135.706 Y97.486 E10.8384
G1 X136.245 Y97.433 E10.8462
G1 X136.814 Y97.267 E10.8549
G1 X137.162 Y97.103 E10.8605
G1 X137.444 Y96.929 E10.8653
G1 X137.848 Y96.598 E10.8729
G1 X138.119 Y96.299 E10.8788
G1 X138.446 Y95.799 E10.8875
G1 X138.676 Y95.227 E10.8964
G1 X138.790 Y94.625 E10.9053
G1 X138.790 Y94.080 E10.9133
G1 X138.731 Y93.681 E10.9191
G1 X138.552 Y93.110 E10.9278
G1 X138.388 Y92.811 E10.9328
G1 X138.547 Y92.986 E10.9363
G1 X139.193 Y93.858 E10.9521
G1 X139.751 Y94.788 E10.9678
G1 X140.215 Y95.769 E10.9836
G1 X140.580 Y96.790 E10.9994
G1 X140.844 Y97.843 E11.0152
G1 X141.003 Y98.916 E11.0310
G1 X141.056 Y100.000 E11.0468
G1 X141.003 Y101.084 E11.0626
G1 X140.844 Y102.157 E11.0784
G1 X140.580 Y103.210 E11.0942
G1 X140.215 Y104.231 E11.1099
G1 X139.751 Y105.212 E11.1257
G1 X139.193 Y106.142 E11.1415
G1 X138.547 Y107.014 E11.1573
G1 X138.425 Y107.149 E11.1599
G1 X138.651 Y106.617 E11.1683
G1 X138.749 Y106.227 E11.1742
G1 X138.800 Y105.706 E11.1818
G1 X138.787 Y105.375 E11.1866
G1 X138.732 Y105.000 E11.1922
G1 X138.573 Y104.477 E11.2001
G1 X138.299 Y103.951 E11.2087
G1 X138.070 Y103.643 E11.2143
G1 X137.844 Y103.399 E11.2192
G1 X137.441 Y103.068 E11.2268
G1 X137.099 Y102.863 E11.2325
G1 X136.595 Y102.654 E11.2405
G1 X136.015 Y102.533 E11.2491
G1 X135.631 Y102.514 E11.2547
G1 X135.295 Y102.534 E11.2596
G1 X134.719 Y102.654 E11.2682
G1 X134.197 Y102.870 E11.2764
G1 X133.685 Y103.205 E11.2853
G1 X133.244 Y103.637 E11.2943
G1 X132.897 Y104.147 E11.3032
G1 X132.662 Y104.697 E11.3120
G1 X132.564 Y105.092 E11.3179
G1 X132.513 Y105.664 E11.3262
G1 X132.534 Y106.019 E11.3314
G1 X132.655 Y106.600 E11.3400
G1 X132.888 Y107.145 E11.3487
G1 X133.073 Y107.448 E11.3538
G1 X133.454 Y107.903 E11.3625
G1 X133.935 Y108.290 E11.3714
G1 X134.481 Y108.575 E11.3804
G1 X135.051 Y108.742 E11.3891
G1 X135.398 Y108.790 E11.3942
G1 X135.920 Y108.790 E11.4018
G1 X136.319 Y108.731 E11.4076
G1 X136.885 Y108.553 E11.4162
G1 X137.182 Y108.394 E11.4212
G1 X137.014 Y108.547 E11.4245
G1 X136.142 Y109.193 E11.4403
G1 X135.212 Y109.751 E11.4560
G1 X134.231 Y110.215 E11.4718
G1 X133.210 Y110.580 E11.4876
G1 X132.157 Y110.844 E11.5034
G1 X131.084 Y111.003 E11.5192
G1 X130.000 Y111.056 E11.5350
G1 X128.916 Y111.003 E11.5508
G1 X127.843 Y110.844 E11.5666
G1 X126.790 Y110.580 E11.5824
G1 X125.769 Y110.215 E11.5981
G1 X124.788 Y109.751 E11.6139
G1 X123.858 Y109.193 E11.6297
G1 X122.986 Y108.547 E11.6455
G1 X122.818 Y108.394 E11.6488
G1 X123.119 Y108.555 E11.6538
G1 X123.755 Y108.748 E11.6634
G1 X124.374 Y108.803 E11.6725
G1 X124.964 Y108.739 E11.6811
G1 X125.308 Y108.649 E11.6863
G1 X125.853 Y108.417 E11.6949
G1 X126.344 Y108.082 E11.7036
G1 X126.601 Y107.845 E11.7087
G1 X126.944 Y107.427 E11.7165
G1 X127.238 Y106.890 E11.7254
G1 X127.424 Y106.296 E11.7345
G1 X127.489 Y105.635 E11.7441
G1 X127.433 Y105.069 E11.7524
G1 X127.262 Y104.482 E11.7613
G1 X126.977 Y103.935 E11.7703
G1 X126.590 Y103.454 E11.7793
G1 X126.117 Y103.058 E11.7883
G1 X125.592 Y102.771 E11.7970
G1 X125.208 Y102.634 E11.8029
G1 X124.621 Y102.523 E11.8116
G1 X124.008 Y102.529 E11.8205
G1 X123.455 Y102.639 E11.8287
G1 X122.905 Y102.861 E11.8373
G1 X122.555 Y103.070 E11.8433
G1 X122.097 Y103.454 E11.8520
G1 X121.725 Y103.917 E11.8606
G1 X121.545 Y104.223 E11.8658
G1 X121.326 Y104.769 E11.8743
G1 X121.215 Y105.322 E11.8825
G1 X121.210 Y105.916 E11.8912
G1 X121.269 Y106.319 E11.8971
G1 X121.447 Y106.885 E11.9058
G1 X121.516 Y107.014 E11.9079
; ------------------------------------
; Layer #1
; ------------------------------------
G21 ; mm
G90 ; abs
G92 E0 ; reset extr
M106 S255
G0 F4800 E-1.0000
G0 F300 Z0.200
G0 X121.696 Y104.329 F10800
G0 X128.181 Y97.172
G0 X133.963 Y91.913
G0 X135.897 Y91.391
G0 X137.925 Y91.810
G0 F4800 E0.0000
;segType:Loop
G1 X138.064 Y91.936 E0.0027 F3600
G1 X138.816 Y92.765 E0.0190
G1 X139.482 Y93.664 E0.0353
G1 X140.058 Y94.624 E0.0516
G1 X140.536 Y95.636 E0.0679
G1 X140.913 Y96.689 E0.0841
G1 X141.185 Y97.775 E0.1004
G1 X141.349 Y98.882 E0.1167
G1 X141.404 Y100.000 E0.1330
G1 X141.349 Y101.118 E0.1493
G1 X141.185 Y102.225 E0.1656
G1 X140.913 Y103.311 E0.1819
G1 X140.536 Y104.364 E0.1981
G1 X140.058 Y105.376 E0.2144
G1 X139.482 Y106.336 E0.2307
G1 X138.816 Y107.235 E0.2470
G1 X138.064 Y108.064 E0.2633
G1 X137.235 Y108.816 E0.2796
G1 X136.336 Y109.482 E0.2959
G1 X135.376 Y110.058 E0.3121
G1 X134.364 Y110.536 E0.3284
G1 X133.311 Y110.913 E0.3447
G1 X132.225 Y111.185 E0.3610
G1 X131.118 Y111.349 E0.3773
G1 X130.000 Y111.404 E0.3936
G1 X128.882 Y111.349 E0.4099
G1 X127.775 Y111.185 E0.4261
G1 X126.689 Y110.913 E0.4424
G1 X125.636 Y110.536 E0.4587
G1 X124.624 Y110.058 E0.4750
G1 X123.664 Y109.482 E0.4913
G1 X122.765 Y108.816 E0.5076
G1 X121.936 Y108.064 E0.5239
G1 X121.184 Y107.235 E0.5401
G1 X120.518 Y106.336 E0.5564
G1 X119.942 Y105.376 E0.5727
G1 X119.464 Y104.364 E0.5890
G1 X119.087 Y103.311 E0.6053
G1 X118.815 Y102.225 E0.6216
G1 X118.651 Y101.118 E0.6378
G1 X118.596 Y100.000 E0.6541
G1 X118.651 Y98.882 E0.6704
G1 X118.815 Y97.775 E0.6867
G1 X119.087 Y96.689 E0.7030
G1 X119.464 Y95.636 E0.7193
G1 X119.942 Y94.624 E0.7356
G1 X120.518 Y93.664 E0.7518
G1 X121.184 Y92.765 E0.7681
G1 X121.936 Y91.936 E0.7844
G1 X122.765 Y91.184 E0.8007
G1 X123.664 Y90.518 E0.8170
G1 X124.624 Y89.942 E0.8333
G1 X125.636 Y89.464 E0.8496
G1 X126.689 Y89.087 E0.8658
G1 X127.775 Y88.815 E0.8821
G1 X128.882 Y88.651 E0.8984
G1 X130.000 Y88.596 E0.9147
G1 X131.118 Y88.651 E0.9310
G1 X132.225 Y88.815 E0.9473
G1 X133.311 Y89.087 E0.9636
G1 X134.364 Y89.464 E0.9798
G1 X135.376 Y89.942 E0.9961
G1 X136.336 Y90.518 E1.0124
G1 X137.235 Y91.184 E1.0287
G1 X137.798 Y91.695 E1.0397
G0 F4800 E0.0397
G0 X136.879 Y91.025 F10800
G0 F4800 E1.0397
;segType:Perimeter
G1 X137.495 Y90.948 E1.0488 F2159
G1 X138.312 Y91.688 E1.0648
G1 X139.086 Y92.543 E1.0816
G1 X139.774 Y93.469 E1.0984
G1 X140.367 Y94.459 E1.1152
G1 X140.860 Y95.502 E1.1320
G1 X141.249 Y96.588 E1.1487
G1 X141.529 Y97.707 E1.1655
G1 X141.698 Y98.848 E1.1823
G1 X141.755 Y100.000 E1.1991
G1 X141.698 Y101.152 E1.2159
G1 X141.529 Y102.293 E1.2327
G1 X141.249 Y103.412 E1.2495
G1 X140.860 Y104.498 E1.2662
G1 X140.367 Y105.541 E1.2830
G1 X139.774 Y106.530 E1.2998
G1 X139.086 Y107.457 E1.3166
G1 X138.312 Y108.312 E1.3334
G1 X137.457 Y109.086 E1.3502
G1 X136.530 Y109.774 E1.3670
G1 X135.541 Y110.367 E1.3837
G1 X134.498 Y110.860 E1.4005
G1 X133.412 Y111.249 E1.4173
G1 X132.293 Y111.529 E1.4341
G1 X131.152 Y111.698 E1.4509
G1 X130.000 Y111.755 E1.4677
G1 X128.848 Y111.698 E1.4845
G1 X127.707 Y111.529 E1.5013
G1 X126.588 Y111.249 E1.5180
G1 X125.502 Y110.860 E1.5348
G1 X124.459 Y110.367 E1.5516
G1 X123.470 Y109.774 E1.5684
G1 X122.543 Y109.086 E1.5852
G1 X121.688 Y108.312 E1.6020
G1 X120.914 Y107.457 E1.6187
G1 X120.226 Y106.530 E1.6355
G1 X119.633 Y105.541 E1.6523
G1 X119.140 Y104.498 E1.6691
G1 X118.751 Y103.412 E1.6859
G1 X118.471 Y102.293 E1.7027
G1 X118.302 Y101.152 E1.7195
G1 X118.245 Y100.000 E1.7363
G1 X118.302 Y98.848 E1.7530
G1 X118.471 Y97.707 E1.7698
G1 X118.751 Y96.588 E1.7866
G1 X119.140 Y95.502 E1.8034
G1 X119.633 Y94.459 E1.8202
G1 X120.226 Y93.469 E1.8370
G1 X120.914 Y92.543 E1.8538
G1 X121.688 Y91.688 E1.8705
G1 X122.543 Y90.914 E1.8873
G1 X123.470 Y90.226 E1.9041
G1 X124.459 Y89.633 E1.9209
G1 X125.502 Y89.140 E1.9377
G1 X126.588 Y88.751 E1.9545
G1 X127.707 Y88.471 E1.9712
G1 X128.848 Y88.302 E1.9880
G1 X130.000 Y88.245 E2.0048
G1 X131.152 Y88.302 E2.0216
G1 X132.293 Y88.471 E2.0384
G1 X133.412 Y88.751 E2.0552
G1 X134.498 Y89.140 E2.0720
G1 X135.541 Y89.633 E2.0888
G1 X136.530 Y90.226 E2.1055
G1 X137.415 Y90.883 E2.1216
G1 X137.461 Y91.502
G0 X135.866 Y91.735 F10800
G0 X134.608 Y91.945
G0 X133.598 Y92.728
G0 X133.082 Y93.879
G0 X133.170 Y95.158
G0 X133.320 Y95.854
;segType:Loop
G1 X133.169 Y95.618 E2.1256 F3600
G1 X133.002 Y95.215 E2.1320
G1 X132.926 Y94.936 E2.1362
G1 X132.870 Y94.559 E2.1417
G1 X132.870 Y94.133 E2.1479
G1 X132.907 Y93.846 E2.1521
G1 X133.001 Y93.471 E2.1578
G1 X133.215 Y92.982 E2.1655
G1 X133.457 Y92.620 E2.1719
G1 X133.652 Y92.396 E2.1762
G1 X134.058 Y92.049 E2.1840
G1 X134.537 Y91.781 E2.1920
G1 X135.050 Y91.615 E2.1998
G1 X135.441 Y91.557 E2.2056
G1 X135.882 Y91.557 E2.2120
G1 X136.416 Y91.652 E2.2199
G1 X136.926 Y91.852 E2.2278
G1 X137.388 Y92.147 E2.2358
G1 X137.772 Y92.517 E2.2436
G1 X137.958 Y92.757 E2.2480
G1 X138.219 Y93.223 E2.2558
G1 X138.385 Y93.736 E2.2636
G1 X138.443 Y94.127 E2.2694
G1 X138.443 Y94.568 E2.2758
G1 X138.348 Y95.102 E2.2837
G1 X138.148 Y95.613 E2.2917
G1 X137.858 Y96.067 E2.2995
G1 X137.592 Y96.360 E2.3053
G1 X137.262 Y96.631 E2.3115
G1 X137.017 Y96.784 E2.3157
G1 X136.668 Y96.949 E2.3213
G1 X136.154 Y97.094 E2.3291
G1 X135.720 Y97.137 E2.3354
G1 X135.432 Y97.128 E2.3396
G1 X135.049 Y97.072 E2.3452
G1 X134.536 Y96.905 E2.3531
G1 X134.063 Y96.640 E2.3610
G1 X133.722 Y96.360 E2.3674
G1 X133.456 Y96.067 E2.3732
G1 X133.413 Y95.999 E2.3743
;segType:Perimeter
G0 X134.364 Y96.922 F10800
G1 X134.221 Y96.317 E2.3834 F2159
G1 X133.964 Y96.106 E2.3882
G1 X133.735 Y95.853 E2.3932
G1 X133.480 Y95.455 E2.4001
G1 X133.334 Y95.102 E2.4056
G1 X133.269 Y94.865 E2.4092
G1 X133.220 Y94.534 E2.4141
G1 X133.220 Y94.155 E2.4196
G1 X133.252 Y93.911 E2.4232
G1 X133.333 Y93.584 E2.4281
G1 X133.523 Y93.151 E2.4349
G1 X133.736 Y92.833 E2.4405
G1 X133.899 Y92.645 E2.4441
G1 X134.259 Y92.338 E2.4510
G1 X134.677 Y92.103 E2.4580
G1 X135.130 Y91.957 E2.4649
G1 X135.466 Y91.907 E2.4699
G1 X135.851 Y91.907 E2.4755
G1 X136.321 Y91.991 E2.4824
G1 X136.767 Y92.165 E2.4894
G1 X137.170 Y92.424 E2.4963
G1 X137.511 Y92.751 E2.5032
G1 X137.665 Y92.951 E2.5069
G1 X137.897 Y93.364 E2.5138
G1 X138.044 Y93.816 E2.5207
G1 X138.093 Y94.153 E2.5257
G1 X138.093 Y94.537 E2.5313
G1 X138.009 Y95.007 E2.5382
G1 X137.835 Y95.453 E2.5452
G1 X137.579 Y95.853 E2.5521
G1 X137.350 Y96.106 E2.5570
G1 X137.057 Y96.346 E2.5626
G1 X136.849 Y96.477 E2.5661
G1 X136.544 Y96.620 E2.5710
G1 X136.089 Y96.749 E2.5779
G1 X135.708 Y96.786 E2.5835
G1 X135.463 Y96.779 E2.5871
G1 X135.129 Y96.730 E2.5920
G1 X134.677 Y96.583 E2.5989
G1 X134.307 Y96.375 E2.6051
G1 X133.692 Y96.464
G0 X129.353 Y97.053 F10800
G0 X128.370 Y97.461
G0 X127.453 Y98.382
G0 X127.003 Y99.645
G0 X127.033 Y101.184
;segType:Loop
G1 X127.023 Y101.162 E2.6054 F3600
G1 X126.879 Y100.687 E2.6126
G1 X126.815 Y100.257 E2.6190
G1 X126.806 Y99.938 E2.6236
G1 X126.827 Y99.624 E2.6282
G1 X126.880 Y99.307 E2.6329
G1 X127.025 Y98.830 E2.6401
G1 X127.300 Y98.289 E2.6489
G1 X127.500 Y98.010 E2.6539
G1 X127.918 Y97.575 E2.6627
G1 X128.272 Y97.312 E2.6691
G1 X128.557 Y97.149 E2.6739
G1 X129.004 Y96.964 E2.6810
G1 X129.315 Y96.879 E2.6856
G1 X129.639 Y96.825 E2.6904
G1 X130.236 Y96.813 E2.6991
G1 X130.562 Y96.854 E2.7039
G1 X130.867 Y96.925 E2.7085
G1 X131.179 Y97.029 E2.7132
G1 X131.716 Y97.303 E2.7220
G1 X132.078 Y97.571 E2.7286
G1 X132.429 Y97.922 E2.7358
G1 X132.688 Y98.273 E2.7421
G1 X132.847 Y98.549 E2.7468
G1 X132.979 Y98.843 E2.7515
G1 X133.124 Y99.321 E2.7587
G1 X133.195 Y99.923 E2.7675
G1 X133.185 Y100.251 E2.7723
G1 X133.146 Y100.562 E2.7769
G1 X133.075 Y100.867 E2.7814
G1 X132.974 Y101.170 E2.7861
G1 X132.791 Y101.556 E2.7923
G1 X132.617 Y101.834 E2.7971
G1 X132.306 Y102.213 E2.8042
G1 X131.976 Y102.512 E2.8107
G1 X131.557 Y102.792 E2.8180
G1 X130.988 Y103.041 E2.8271
G1 X130.376 Y103.175 E2.8362
G1 X129.749 Y103.188 E2.8453
G1 X129.147 Y103.080 E2.8542
G1 X128.830 Y102.974 E2.8591
G1 X128.444 Y102.791 E2.8653
G1 X128.173 Y102.621 E2.8699
G1 X127.918 Y102.424 E2.8746
G1 X127.565 Y102.072 E2.8819
G1 X127.215 Y101.570 E2.8908
G1 X127.107 Y101.340 E2.8945
;segType:Perimeter
G0 X127.778 Y102.424 F10800
G1 X127.805 Y101.804 E2.9035 F2159
G1 X127.519 Y101.393 E2.9108
G1 X127.350 Y101.036 E2.9166
G1 X127.221 Y100.611 E2.9230
G1 X127.164 Y100.226 E2.9287
G1 X127.156 Y99.944 E2.9328
G1 X127.175 Y99.665 E2.9368
G1 X127.222 Y99.387 E2.9410
G1 X127.351 Y98.961 E2.9474
G1 X127.601 Y98.471 E2.9554
G1 X127.770 Y98.234 E2.9597
G1 X128.149 Y97.839 E2.9677
G1 X128.464 Y97.605 E2.9734
G1 X128.712 Y97.464 E2.9775
G1 X129.117 Y97.295 E2.9839
G1 X129.390 Y97.221 E2.9880
G1 X129.672 Y97.174 E2.9922
G1 X130.217 Y97.163 E3.0001
G1 X130.500 Y97.199 E3.0042
G1 X130.772 Y97.262 E3.0083
G1 X131.043 Y97.353 E3.0125
G1 X131.531 Y97.602 E3.0204
G1 X131.849 Y97.837 E3.0262
G1 X132.163 Y98.151 E3.0327
G1 X132.395 Y98.464 E3.0383
G1 X132.535 Y98.709 E3.0424
G1 X132.651 Y98.966 E3.0465
G1 X132.780 Y99.393 E3.0530
G1 X132.844 Y99.938 E3.0610
G1 X132.836 Y100.223 E3.0652
G1 X132.801 Y100.500 E3.0692
G1 X132.738 Y100.772 E3.0733
G1 X132.648 Y101.039 E3.0774
G1 X132.483 Y101.388 E3.0830
G1 X132.332 Y101.630 E3.0871
G1 X132.052 Y101.971 E3.0936
G1 X131.760 Y102.235 E3.0993
G1 X131.388 Y102.484 E3.1058
G1 X130.879 Y102.706 E3.1139
G1 X130.335 Y102.826 E3.1220
G1 X129.777 Y102.837 E3.1301
G1 X129.233 Y102.740 E3.1382
G1 X128.961 Y102.648 E3.1423
G1 X128.612 Y102.483 E3.1480
G1 X128.373 Y102.334 E3.1521
G1 X128.150 Y102.161 E3.1562
G1 X127.871 Y101.883 E3.1619
G1 X127.255 Y101.801
;segType:Loop
G0 X122.012 Y95.866 F10800
G1 X121.903 Y95.709 E3.1647 F3600
G1 X121.688 Y95.215 E3.1725
G1 X121.590 Y94.826 E3.1784
G1 X121.548 Y94.294 E3.1861
G1 X121.591 Y93.855 E3.1925
G1 X121.686 Y93.477 E3.1982
G1 X121.852 Y93.077 E3.2045
G1 X122.055 Y92.738 E3.2103
G1 X122.405 Y92.328 E3.2181
G1 X122.831 Y91.992 E3.2260
G1 X123.215 Y91.786 E3.2323
G1 X123.494 Y91.681 E3.2367
G1 X124.014 Y91.566 E3.2444
G1 X124.563 Y91.556 E3.2524
G1 X125.102 Y91.652 E3.2604
G1 X125.599 Y91.846 E3.2682
G1 X125.862 Y91.997 E3.2726
G1 X126.281 Y92.328 E3.2803
G1 X126.637 Y92.744 E3.2883
G1 X126.905 Y93.222 E3.2963
G1 X127.072 Y93.735 E3.3041
G1 X127.130 Y94.127 E3.3099
G1 X127.130 Y94.554 E3.3161
G1 X127.093 Y94.840 E3.3203
G1 X126.999 Y95.215 E3.3259
G1 X126.783 Y95.709 E3.3338
G1 X126.469 Y96.159 E3.3418
G1 X126.074 Y96.539 E3.3497
G1 X125.618 Y96.831 E3.3576
G1 X125.210 Y97.000 E3.3641
G1 X124.832 Y97.095 E3.3697
G1 X124.392 Y97.138 E3.3761
G1 X123.866 Y97.097 E3.3838
G1 X123.579 Y97.031 E3.3881
G1 X123.215 Y96.901 E3.3937
G1 X122.750 Y96.640 E3.4015
G1 X122.413 Y96.364 E3.4078
G1 X122.209 Y96.147 E3.4122
G1 X122.111 Y96.007 E3.4147
;segType:Perimeter
G0 X123.050 Y96.922 F10800
G1 X122.908 Y96.317 E3.4237 F2159
G1 X122.652 Y96.107 E3.4285
G1 X122.481 Y95.926 E3.4321
G1 X122.210 Y95.538 E3.4390
G1 X122.020 Y95.102 E3.4459
G1 X121.936 Y94.769 E3.4509
G1 X121.899 Y94.298 E3.4578
G1 X121.937 Y93.915 E3.4634
G1 X122.019 Y93.587 E3.4683
G1 X122.165 Y93.235 E3.4739
G1 X122.340 Y92.943 E3.4788
G1 X122.649 Y92.581 E3.4858
G1 X123.023 Y92.286 E3.4927
G1 X123.360 Y92.106 E3.4983
G1 X123.594 Y92.017 E3.5019
G1 X124.056 Y91.916 E3.5088
G1 X124.535 Y91.906 E3.5157
G1 X125.007 Y91.991 E3.5227
G1 X125.447 Y92.163 E3.5296
G1 X125.666 Y92.288 E3.5333
G1 X126.037 Y92.581 E3.5402
G1 X126.349 Y92.946 E3.5471
G1 X126.583 Y93.363 E3.5541
G1 X126.730 Y93.816 E3.5610
G1 X126.780 Y94.153 E3.5660
G1 X126.780 Y94.531 E3.5715
G1 X126.748 Y94.775 E3.5751
G1 X126.667 Y95.102 E3.5800
G1 X126.476 Y95.538 E3.5869
G1 X126.202 Y95.931 E3.5939
G1 X125.856 Y96.263 E3.6008
G1 X125.455 Y96.520 E3.6078
G1 X125.100 Y96.667 E3.6134
G1 X124.772 Y96.749 E3.6183
G1 X124.389 Y96.787 E3.6239
G1 X123.919 Y96.750 E3.6307
G1 X123.677 Y96.694 E3.6343
G1 X123.360 Y96.581 E3.6392
G1 X122.993 Y96.375 E3.6454
G1 X122.378 Y96.463
G0 X121.788 Y106.224 F10800
G0 X122.351 Y107.602
;segType:Loop
G1 X122.223 Y107.479 E3.6480 F3600
G1 X121.988 Y107.162 E3.6537
G1 X121.779 Y106.772 E3.6601
G1 X121.615 Y106.265 E3.6679
G1 X121.556 Y105.867 E3.6737
G1 X121.566 Y105.334 E3.6815
G1 X121.654 Y104.892 E3.6881
G1 X121.846 Y104.401 E3.6957
G1 X121.997 Y104.138 E3.7002
G1 X122.328 Y103.719 E3.7079
G1 X122.738 Y103.369 E3.7158
G1 X123.082 Y103.162 E3.7216
G1 X123.579 Y102.968 E3.7294
G1 X124.020 Y102.880 E3.7359
G1 X124.563 Y102.869 E3.7438
G1 X125.094 Y102.964 E3.7517
G1 X125.471 Y103.099 E3.7575
G1 X125.942 Y103.363 E3.7653
G1 X126.359 Y103.719 E3.7733
G1 X126.698 Y104.149 E3.7813
G1 X126.947 Y104.638 E3.7893
G1 X127.094 Y105.160 E3.7972
G1 X127.139 Y105.614 E3.8038
G1 X127.076 Y106.250 E3.8131
G1 X126.905 Y106.777 E3.8212
G1 X126.640 Y107.250 E3.8291
G1 X126.364 Y107.587 E3.8354
G1 X126.147 Y107.791 E3.8397
G1 X125.710 Y108.097 E3.8475
G1 X125.221 Y108.310 E3.8553
G1 X124.928 Y108.390 E3.8597
G1 X124.398 Y108.452 E3.8674
G1 X123.866 Y108.411 E3.8752
G1 X123.579 Y108.344 E3.8795
G1 X123.221 Y108.216 E3.8850
G1 X122.844 Y108.015 E3.8912
G1 X122.601 Y107.842 E3.8956
G1 X122.476 Y107.722 E3.8981
;segType:Perimeter
G0 X123.562 Y108.442 F10800
G1 X123.317 Y107.871 E3.9072 F2159
G1 X123.029 Y107.717 E3.9119
G1 X122.825 Y107.572 E3.9155
G1 X122.487 Y107.247 E3.9224
G1 X122.284 Y106.974 E3.9273
G1 X122.103 Y106.634 E3.9329
G1 X121.956 Y106.184 E3.9398
G1 X121.906 Y105.845 E3.9448
G1 X121.916 Y105.372 E3.9517
G1 X121.992 Y104.991 E3.9573
G1 X122.163 Y104.553 E3.9642
G1 X122.288 Y104.334 E3.9679
G1 X122.581 Y103.963 E3.9747
G1 X122.943 Y103.654 E3.9817
G1 X123.237 Y103.477 E3.9866
G1 X123.677 Y103.305 E3.9935
G1 X124.058 Y103.229 E3.9992
G1 X124.535 Y103.220 E4.0061
G1 X125.003 Y103.304 E4.0130
G1 X125.326 Y103.419 E4.0180
G1 X125.741 Y103.651 E4.0250
G1 X126.105 Y103.963 E4.0319
G1 X126.402 Y104.339 E4.0389
G1 X126.620 Y104.766 E4.0459
G1 X126.749 Y105.225 E4.0528
G1 X126.787 Y105.614 E4.0585
G1 X126.732 Y106.178 E4.0668
G1 X126.583 Y106.636 E4.0738
G1 X126.350 Y107.052 E4.0807
G1 X126.107 Y107.348 E4.0863
G1 X125.926 Y107.519 E4.0899
G1 X125.538 Y107.790 E4.0968
G1 X125.104 Y107.979 E4.1037
G1 X124.861 Y108.045 E4.1073
G1 X124.391 Y108.101 E4.1142
G1 X123.919 Y108.064 E4.1211
G1 X123.677 Y108.008 E4.1247
G1 X123.411 Y107.913 E4.1288
G1 X122.824 Y108.115
G0 F4800 E3.1288
G0 X133.391 Y107.289 F10800
G0 F4800 E4.1288
;segType:Loop
G1 X133.372 Y107.267 E4.1292 F3600
G1 X133.211 Y107.010 E4.1337
G1 X132.997 Y106.521 E4.1414
G1 X132.883 Y106.000 E4.1492
G1 X132.862 Y105.697 E4.1536
G1 X132.903 Y105.174 E4.1612
G1 X133.001 Y104.785 E4.1671
G1 X133.217 Y104.291 E4.1749
G1 X133.531 Y103.841 E4.1829
G1 X133.926 Y103.461 E4.1909
G1 X134.382 Y103.169 E4.1988
G1 X134.799 Y102.996 E4.2053
G1 X135.314 Y102.883 E4.2130
G1 X135.608 Y102.863 E4.2173
G1 X135.994 Y102.882 E4.2229
G1 X136.515 Y102.996 E4.2307
G1 X136.923 Y103.165 E4.2371
G1 X137.257 Y103.365 E4.2428
G1 X137.587 Y103.636 E4.2490
G1 X137.785 Y103.846 E4.2532
G1 X138.016 Y104.157 E4.2588
G1 X138.258 Y104.633 E4.2666
G1 X138.386 Y105.055 E4.2730
G1 X138.442 Y105.432 E4.2785
G1 X138.451 Y105.720 E4.2827
G1 X138.409 Y106.145 E4.2890
G1 X138.312 Y106.529 E4.2947
G1 X138.099 Y107.018 E4.3025
G1 X137.854 Y107.385 E4.3089
G1 X137.588 Y107.678 E4.3147
G1 X137.169 Y108.008 E4.3224
G1 X136.772 Y108.221 E4.3290
G1 X136.264 Y108.385 E4.3367
G1 X135.873 Y108.443 E4.3425
G1 X135.446 Y108.443 E4.3487
G1 X135.151 Y108.406 E4.3530
G1 X134.638 Y108.261 E4.3608
G1 X134.149 Y108.012 E4.3688
G1 X133.719 Y107.672 E4.3767
G1 X133.503 Y107.420 E4.3816
;segType:Perimeter
G0 X134.461 Y108.283 F10800
G1 X134.298 Y107.683 E4.3906 F2159
G1 X133.963 Y107.419 E4.3968
G1 X133.655 Y107.059 E4.4037
G1 X133.522 Y106.846 E4.4074
G1 X133.332 Y106.412 E4.4143
G1 X133.231 Y105.950 E4.4212
G1 X133.213 Y105.699 E4.4248
G1 X133.250 Y105.231 E4.4317
G1 X133.333 Y104.898 E4.4366
G1 X133.524 Y104.462 E4.4436
G1 X133.798 Y104.069 E4.4505
G1 X134.144 Y103.737 E4.4575
G1 X134.545 Y103.480 E4.4644
G1 X134.904 Y103.331 E4.4701
G1 X135.364 Y103.231 E4.4769
G1 X135.611 Y103.214 E4.4806
G1 X135.948 Y103.230 E4.4855
G1 X136.410 Y103.331 E4.4923
G1 X136.765 Y103.479 E4.4979
G1 X137.055 Y103.652 E4.5029
G1 X137.348 Y103.893 E4.5084
G1 X137.517 Y104.071 E4.5120
G1 X137.717 Y104.342 E4.5169
G1 X137.932 Y104.764 E4.5237
G1 X138.044 Y105.132 E4.5293
G1 X138.093 Y105.463 E4.5342
G1 X138.100 Y105.708 E4.5378
G1 X138.063 Y106.085 E4.5433
G1 X137.980 Y106.416 E4.5482
G1 X137.791 Y106.849 E4.5551
G1 X137.577 Y107.169 E4.5607
G1 X137.348 Y107.421 E4.5657
G1 X136.977 Y107.714 E4.5726
G1 X136.634 Y107.897 E4.5782
G1 X136.184 Y108.044 E4.5851
G1 X135.847 Y108.093 E4.5901
G1 X135.469 Y108.093 E4.5956
G1 X135.221 Y108.062 E4.5992
G1 X134.766 Y107.933 E4.6061
G1 X134.385 Y107.739 E4.6123
G1 X133.772 Y107.842
;segType:HShell
G0 X130.878 Y104.481 F10800
G1 X131.418 Y104.363 E4.6204 F3600
G1 X131.737 Y104.223 E4.6254
G1 X131.688 Y104.336 E4.6272
G1 X131.533 Y104.950 E4.6364
G1 X131.475 Y105.691 E4.6472
G1 X131.510 Y106.197 E4.6546
G1 X131.676 Y106.950 E4.6658
G1 X131.985 Y107.658 E4.6771
G1 X132.254 Y108.087 E4.6845
G1 X132.756 Y108.675 E4.6957
G1 X133.399 Y109.182 E4.7076
G1 X133.665 Y109.318 E4.7120
G1 X132.909 Y109.588 E4.7237
G1 X131.955 Y109.827 E4.7380
G1 X130.982 Y109.971 E4.7523
G1 X130.000 Y110.020 E4.7666
G1 X129.018 Y109.971 E4.7809
G1 X128.045 Y109.827 E4.7952
G1 X127.091 Y109.588 E4.8095
G1 X126.354 Y109.324 E4.8209
G1 X126.389 Y109.309 E4.8214
G1 X127.022 Y108.867 E4.8327
G1 X127.377 Y108.533 E4.8398
G1 X127.787 Y108.033 E4.8492
G1 X128.179 Y107.334 E4.8608
G1 X128.438 Y106.535 E4.8731
G1 X128.528 Y105.614 E4.8865
G1 X128.459 Y104.902 E4.8969
G1 X128.272 Y104.240 E4.9069
G1 X128.313 Y104.259 E4.9076
G1 X128.803 Y104.424 E4.9151
G1 X129.640 Y104.573 E4.9275
G1 X130.539 Y104.556 E4.9406
G1 X130.709 Y104.518 E4.9431
G0 X129.862 Y104.224 F10800
G1 X130.498 Y104.211 E4.9524 F3600
G1 X131.311 Y104.033 E4.9645
G1 X132.058 Y103.706 E4.9763
G1 X132.617 Y103.332 E4.9861
G1 X132.625 Y103.325 E4.9863
G1 X132.307 Y103.781 E4.9944
G1 X132.016 Y104.448 E5.0050
G1 X131.875 Y105.006 E5.0133
G1 X131.821 Y105.692 E5.0234
G1 X131.853 Y106.147 E5.0300
G1 X132.005 Y106.843 E5.0404
G1 X132.291 Y107.496 E5.0507
G1 X132.533 Y107.883 E5.0574
G1 X132.996 Y108.425 E5.0677
G1 X133.587 Y108.890 E5.0787
G1 X134.257 Y109.232 E5.0896
G1 X134.531 Y109.309 E5.0938
G1 X133.966 Y109.576 E5.1028
G1 X133.009 Y109.919 E5.1176
G1 X132.022 Y110.166 E5.1324
G1 X131.016 Y110.315 E5.1472
G1 X130.000 Y110.365 E5.1621
G1 X128.984 Y110.315 E5.1769
G1 X127.978 Y110.166 E5.1917
G1 X126.991 Y109.919 E5.2065
G1 X126.034 Y109.576 E5.2213
G1 X125.481 Y109.315 E5.2301
G1 X125.567 Y109.292 E5.2314
G1 X126.220 Y109.007 E5.2418
G1 X126.803 Y108.599 E5.2522
G1 X127.124 Y108.297 E5.2586
G1 X127.501 Y107.838 E5.2672
G1 X127.861 Y107.195 E5.2779
G1 X128.098 Y106.464 E5.2891
G1 X128.182 Y105.614 E5.3015
G1 X128.119 Y104.967 E5.3110
G1 X127.918 Y104.257 E5.3217
G1 X127.577 Y103.587 E5.3327
G1 X127.345 Y103.294 E5.3381
G1 X127.578 Y103.473 E5.3424
G1 X127.944 Y103.703 E5.3487
G1 X128.442 Y103.939 E5.3567
G1 X128.889 Y104.088 E5.3636
G1 X129.667 Y104.227 E5.3751
G1 X129.689 Y104.227 E5.3754
G0 X130.628 Y103.829 F10800
G1 X130.458 Y103.867 E5.3779 F3600
G1 X129.694 Y103.882 E5.3890
G1 X128.975 Y103.753 E5.3997
G1 X128.571 Y103.618 E5.4058
G1 X128.110 Y103.400 E5.4133
G1 X127.776 Y103.190 E5.4190
G1 X127.459 Y102.946 E5.4248
G1 X127.032 Y102.518 E5.4336
G1 X126.614 Y101.918 E5.4443
G1 X126.375 Y101.412 E5.4524
G1 X126.201 Y100.840 E5.4611
G1 X126.124 Y100.318 E5.4688
G1 X126.112 Y99.924 E5.4745
G1 X126.138 Y99.543 E5.4801
G1 X126.205 Y99.148 E5.4859
G1 X126.380 Y98.570 E5.4947
G1 X126.706 Y97.929 E5.5052
G1 X126.965 Y97.566 E5.5117
G1 X127.458 Y97.053 E5.5220
G1 X127.892 Y96.731 E5.5299
G1 X128.251 Y96.526 E5.5359
G1 X128.780 Y96.307 E5.5442
G1 X129.167 Y96.202 E5.5500
G1 X129.574 Y96.133 E5.5561
G1 X130.273 Y96.119 E5.5662
G1 X130.683 Y96.171 E5.5723
G1 X131.056 Y96.257 E5.5778
G1 X131.448 Y96.388 E5.5838
G1 X132.082 Y96.712 E5.5942
G1 X132.532 Y97.045 E5.6023
G1 X132.955 Y97.469 E5.6110
G1 X133.269 Y97.893 E5.6187
G1 X133.465 Y98.234 E5.6245
G1 X133.629 Y98.600 E5.6303
G1 X133.805 Y99.178 E5.6391
G1 X133.889 Y99.892 E5.6495
G1 X133.877 Y100.305 E5.6555
G1 X133.829 Y100.683 E5.6611
G1 X133.743 Y101.056 E5.6667
G1 X133.618 Y101.429 E5.6724
G1 X133.400 Y101.890 E5.6798
G1 X133.180 Y102.240 E5.6858
G1 X132.809 Y102.692 E5.6943
G1 X132.404 Y103.059 E5.7023
G1 X131.891 Y103.402 E5.7113
G1 X131.203 Y103.703 E5.7222
G1 X130.796 Y103.792 E5.7283
G0 X131.457 Y103.215 F10800
G1 X131.096 Y103.373 E5.7340 F3600
G1 X130.417 Y103.522 E5.7441
G1 X129.722 Y103.536 E5.7542
G1 X129.060 Y103.417 E5.7640
G1 X128.700 Y103.297 E5.7695
G1 X128.276 Y103.097 E5.7764
G1 X127.974 Y102.907 E5.7815
G1 X127.688 Y102.686 E5.7868
G1 X127.298 Y102.296 E5.7948
G1 X126.914 Y101.745 E5.8046
G1 X126.698 Y101.288 E5.8120
G1 X126.539 Y100.764 E5.8199
G1 X126.468 Y100.287 E5.8269
G1 X126.457 Y99.931 E5.8321
G1 X126.481 Y99.583 E5.8372
G1 X126.541 Y99.227 E5.8425
G1 X126.701 Y98.699 E5.8505
G1 X127.002 Y98.108 E5.8601
G1 X127.231 Y97.787 E5.8659
G1 X127.687 Y97.313 E5.8754
G1 X128.082 Y97.021 E5.8826
G1 X128.403 Y96.836 E5.8880
G1 X128.892 Y96.634 E5.8957
G1 X129.241 Y96.539 E5.9009
G1 X129.606 Y96.478 E5.9063
G1 X130.255 Y96.465 E5.9158
G1 X130.623 Y96.512 E5.9212
G1 X130.962 Y96.590 E5.9262
G1 X131.313 Y96.708 E5.9316
G1 X131.900 Y97.006 E5.9412
G1 X132.305 Y97.307 E5.9485
G1 X132.693 Y97.695 E5.9565
G1 X132.980 Y98.082 E5.9635
G1 X133.157 Y98.391 E5.9687
G1 X133.305 Y98.721 E5.9740
G1 X133.465 Y99.249 E5.9820
G1 X133.543 Y99.907 E5.9917
G1 X133.532 Y100.278 E5.9970
G1 X133.488 Y100.623 E6.0021
G1 X133.410 Y100.962 E6.0072
G1 X133.297 Y101.300 E6.0124
G1 X133.097 Y101.724 E6.0192
G1 X132.899 Y102.038 E6.0246
G1 X132.558 Y102.454 E6.0324
G1 X132.191 Y102.786 E6.0396
G1 X131.725 Y103.098 E6.0478
G1 X131.615 Y103.146 E6.0495
G0 X133.370 Y102.553 F10800
G1 X133.461 Y102.442 E6.0516 F3600
G1 X133.703 Y102.056 E6.0582
G1 X133.938 Y101.558 E6.0662
G1 X134.075 Y101.150 E6.0725
G1 X134.169 Y100.744 E6.0786
G1 X134.221 Y100.332 E6.0846
G1 X134.235 Y99.877 E6.0912
G1 X134.144 Y99.108 E6.1025
G1 X133.953 Y98.479 E6.1121
G1 X133.773 Y98.077 E6.1185
G1 X133.559 Y97.704 E6.1248
G1 X133.304 Y97.360 E6.1310
G1 X133.476 Y97.501 E6.1342
G1 X134.118 Y97.861 E6.1449
G1 X134.811 Y98.086 E6.1555
G1 X135.340 Y98.164 E6.1633
G1 X135.755 Y98.177 E6.1693
G1 X136.347 Y98.119 E6.1780
G1 X137.033 Y97.925 E6.1884
G1 X137.517 Y97.696 E6.1962
G1 X137.869 Y97.475 E6.2022
G1 X138.310 Y97.114 E6.2105
G1 X138.685 Y96.699 E6.2186
G1 X139.077 Y96.087 E6.2292
G1 X139.315 Y95.481 E6.2387
G1 X139.576 Y96.034 E6.2476
G1 X139.919 Y96.991 E6.2624
G1 X140.166 Y97.978 E6.2772
G1 X140.315 Y98.984 E6.2920
G1 X140.365 Y100.000 E6.3068
G1 X140.315 Y101.016 E6.3216
G1 X140.166 Y102.022 E6.3364
G1 X139.918 Y103.009 E6.3512
G1 X139.576 Y103.967 E6.3660
G1 X139.311 Y104.527 E6.3750
G1 X139.225 Y104.243 E6.3793
G1 X138.902 Y103.608 E6.3897
G1 X138.582 Y103.179 E6.3975
G1 X138.297 Y102.876 E6.4035
G1 X137.857 Y102.514 E6.4118
G1 X137.391 Y102.236 E6.4197
G1 X136.828 Y102.002 E6.4286
G1 X136.132 Y101.850 E6.4390
G1 X135.598 Y101.823 E6.4467
G1 X135.166 Y101.853 E6.4530
G1 X134.486 Y102.002 E6.4632
G1 X133.900 Y102.245 E6.4724
G1 X133.388 Y102.573 E6.4813
G0 X134.271 Y101.651 F10800
G1 X134.408 Y101.243 E6.4875 F3600
G1 X134.510 Y100.805 E6.4941
G1 X134.566 Y100.359 E6.5006
G1 X134.581 Y99.862 E6.5078
G1 X134.483 Y99.037 E6.5199
G1 X134.277 Y98.357 E6.5303
G1 X134.234 Y98.261 E6.5318
G1 X134.732 Y98.423 E6.5394
G1 X135.310 Y98.509 E6.5479
G1 X135.767 Y98.522 E6.5546
G1 X136.411 Y98.459 E6.5640
G1 X137.154 Y98.249 E6.5752
G1 X137.683 Y98.000 E6.5837
G1 X138.071 Y97.755 E6.5904
G1 X138.548 Y97.365 E6.5994
G1 X138.960 Y96.910 E6.6083
G1 X139.321 Y96.346 E6.6181
G1 X139.588 Y97.091 E6.6296
G1 X139.827 Y98.045 E6.6439
G1 X139.971 Y99.018 E6.6582
G1 X140.020 Y100.000 E6.6725
G1 X139.971 Y100.982 E6.6868
G1 X139.827 Y101.955 E6.7011
G1 X139.588 Y102.909 E6.7154
G1 X139.318 Y103.665 E6.7271
G1 X139.196 Y103.426 E6.7310
G1 X138.847 Y102.956 E6.7395
G1 X138.533 Y102.623 E6.7462
G1 X138.056 Y102.231 E6.7552
G1 X137.547 Y101.926 E6.7638
G1 X136.932 Y101.671 E6.7735
G1 X136.178 Y101.506 E6.7847
G1 X135.594 Y101.477 E6.7932
G1 X135.117 Y101.510 E6.8002
G1 X134.382 Y101.671 E6.8111
G1 X134.319 Y101.698 E6.8121
G0 X132.294 Y98.039 F10800
G0 X131.110 Y97.194
G0 X128.299 Y95.694
G1 X128.312 Y95.664 E6.8126 F3600
G1 X128.455 Y95.098 E6.8211
G1 X128.513 Y94.642 E6.8278
G1 X128.513 Y94.025 E6.8368
G1 X128.423 Y93.417 E6.8457
G1 X128.178 Y92.665 E6.8572
G1 X127.778 Y91.950 E6.8691
G1 X127.245 Y91.325 E6.8811
G1 X126.639 Y90.848 E6.8923
G1 X126.345 Y90.679 E6.8972
G1 X127.091 Y90.412 E6.9088
G1 X128.045 Y90.173 E6.9231
G1 X129.018 Y90.029 E6.9374
G1 X130.000 Y89.980 E6.9517
G1 X130.982 Y90.029 E6.9660
G1 X131.955 Y90.173 E6.9803
G1 X132.909 Y90.412 E6.9946
G1 X133.666 Y90.683 E7.0063
G1 X133.263 Y90.908 E7.0131
G1 X132.676 Y91.410 E7.0243
G1 X132.356 Y91.778 E7.0314
G1 X131.997 Y92.316 E7.0408
G1 X131.688 Y93.022 E7.0520
G1 X131.545 Y93.589 E7.0605
G1 X131.487 Y94.045 E7.0672
G1 X131.487 Y94.661 E7.0762
G1 X131.569 Y95.219 E7.0844
G1 X131.690 Y95.663 E7.0911
G1 X131.729 Y95.757 E7.0926
G1 X131.716 Y95.750 E7.0928
G1 X131.243 Y95.592 E7.1000
G1 X130.804 Y95.490 E7.1066
G1 X130.310 Y95.427 E7.1138
G1 X129.509 Y95.444 E7.1255
G1 X129.018 Y95.526 E7.1327
G1 X128.556 Y95.652 E7.1397
G1 X128.345 Y95.740 E7.1430
G0 X127.410 Y96.625 F10800
G1 X127.693 Y96.219 E7.1502 F3600
G1 X127.984 Y95.552 E7.1608
G1 X128.115 Y95.033 E7.1686
G1 X128.168 Y94.620 E7.1747
G1 X128.168 Y94.051 E7.1830
G1 X128.086 Y93.497 E7.1911
G1 X127.860 Y92.804 E7.2017
G1 X127.493 Y92.148 E7.2126
G1 X127.004 Y91.575 E7.2236
G1 X126.445 Y91.135 E7.2340
G1 X126.049 Y90.907 E7.2406
G1 X125.480 Y90.685 E7.2495
G1 X126.033 Y90.424 E7.2584
G1 X126.991 Y90.082 E7.2732
G1 X127.978 Y89.834 E7.2880
G1 X128.984 Y89.685 E7.3028
G1 X130.000 Y89.635 E7.3176
G1 X131.016 Y89.685 E7.3324
G1 X132.022 Y89.834 E7.3472
G1 X133.009 Y90.082 E7.3620
G1 X133.967 Y90.424 E7.3768
G1 X134.532 Y90.691 E7.3859
G1 X134.119 Y90.825 E7.3922
G1 X133.462 Y91.193 E7.4032
G1 X132.920 Y91.656 E7.4136
G1 X132.631 Y91.988 E7.4200
G1 X132.301 Y92.482 E7.4286
G1 X132.016 Y93.134 E7.4390
G1 X131.885 Y93.653 E7.4468
G1 X131.832 Y94.067 E7.4528
G1 X131.832 Y94.635 E7.4611
G1 X131.908 Y95.149 E7.4687
G1 X132.018 Y95.552 E7.4747
G1 X132.245 Y96.100 E7.4834
G1 X132.614 Y96.677 E7.4933
G1 X132.265 Y96.418 E7.4997
G1 X131.582 Y96.069 E7.5108
G1 X131.150 Y95.924 E7.5174
G1 X130.744 Y95.831 E7.5235
G1 X130.291 Y95.773 E7.5301
G1 X129.542 Y95.788 E7.5411
G1 X129.092 Y95.864 E7.5477
G1 X128.668 Y95.979 E7.5541
G1 X128.099 Y96.215 E7.5631
G1 X127.703 Y96.442 E7.5697
G1 X127.430 Y96.644 E7.5746
G0 X120.606 Y103.452 F10800
G1 X120.412 Y102.909 E7.5830 F3600
G1 X120.173 Y101.955 E7.5973
G1 X120.029 Y100.982 E7.6116
G1 X119.980 Y100.000 E7.6259
G1 X120.029 Y99.018 E7.6403
G1 X120.173 Y98.045 E7.6546
G1 X120.412 Y97.091 E7.6689
G1 X120.676 Y96.354 E7.6803
G1 X120.691 Y96.389 E7.6808
G1 X121.133 Y97.022 E7.6920
G1 X121.467 Y97.377 E7.6991
G1 X121.967 Y97.787 E7.7086
G1 X122.640 Y98.164 E7.7198
G1 X123.188 Y98.360 E7.7283
G1 X123.656 Y98.468 E7.7352
G1 X124.406 Y98.526 E7.7462
G1 X125.068 Y98.462 E7.7559
G1 X125.645 Y98.317 E7.7645
G1 X125.757 Y98.271 E7.7663
G1 X125.737 Y98.311 E7.7670
G1 X125.531 Y98.990 E7.7773
G1 X125.451 Y99.461 E7.7842
G1 X125.421 Y99.911 E7.7908
G1 X125.435 Y100.379 E7.7976
G1 X125.526 Y100.991 E7.8066
G1 X125.729 Y101.662 E7.8168
G1 X125.763 Y101.735 E7.8180
G1 X125.451 Y101.623 E7.8228
G1 X124.671 Y101.484 E7.8343
G1 X123.870 Y101.499 E7.8460
G1 X123.188 Y101.635 E7.8561
G1 X122.470 Y101.916 E7.8673
G1 X121.927 Y102.241 E7.8765
G1 X121.326 Y102.755 E7.8880
G1 X120.848 Y103.361 E7.8993
G1 X120.679 Y103.655 E7.9042
G1 X120.664 Y103.614 E7.9048
G0 X120.649 Y104.442 F10800
G1 X120.424 Y103.966 E7.9125 F3600
G1 X120.081 Y103.009 E7.9273
G1 X119.834 Y102.022 E7.9421
G1 X119.685 Y101.016 E7.9569
G1 X119.635 Y100.000 E7.9717
G1 X119.685 Y98.984 E7.9865
G1 X119.834 Y97.978 E8.0013
G1 X120.081 Y96.991 E8.0161
G1 X120.424 Y96.034 E8.0309
G1 X120.684 Y95.483 E8.0398
G1 X120.702 Y95.552 E8.0408
G1 X120.993 Y96.219 E8.0514
G1 X121.401 Y96.803 E8.0618
G1 X121.703 Y97.124 E8.0682
G1 X122.162 Y97.501 E8.0768
G1 X122.784 Y97.849 E8.0872
G1 X123.286 Y98.028 E8.0950
G1 X123.708 Y98.126 E8.1013
G1 X124.403 Y98.180 E8.1114
G1 X125.009 Y98.121 E8.1203
G1 X125.536 Y97.989 E8.1282
G1 X126.100 Y97.755 E8.1370
G1 X126.664 Y97.394 E8.1468
G1 X126.411 Y97.749 E8.1532
G1 X126.058 Y98.441 E8.1644
G1 X125.868 Y99.069 E8.1740
G1 X125.795 Y99.502 E8.1804
G1 X125.766 Y99.917 E8.1865
G1 X125.779 Y100.348 E8.1927
G1 X125.863 Y100.916 E8.2011
G1 X126.052 Y101.537 E8.2105
G1 X126.314 Y102.092 E8.2195
G1 X126.698 Y102.643 E8.2292
G1 X126.538 Y102.507 E8.2323
G1 X125.902 Y102.151 E8.2429
G1 X125.362 Y101.958 E8.2512
G1 X124.644 Y101.829 E8.2619
G1 X123.908 Y101.844 E8.2726
G1 X123.286 Y101.968 E8.2818
G1 X122.623 Y102.227 E8.2922
G1 X122.130 Y102.523 E8.3005
G1 X121.576 Y102.996 E8.3111
G1 X121.135 Y103.555 E8.3215
G1 X120.907 Y103.951 E8.3281
G1 X120.717 Y104.439 E8.3358
G0 X120.824 Y105.499 F10800
G1 X120.554 Y105.049 E8.3434 F3600
G1 X120.104 Y104.099 E8.3587
G1 X119.751 Y103.109 E8.3740
G1 X119.495 Y102.090 E8.3893
G1 X119.341 Y101.050 E8.4046
G1 X119.289 Y100.000 E8.4199
G1 X119.341 Y98.950 E8.4352
G1 X119.495 Y97.910 E8.4505
G1 X119.751 Y96.891 E8.4658
G1 X120.104 Y95.901 E8.4811
G1 X120.554 Y94.951 E8.4963
G1 X120.864 Y94.434 E8.5051
G1 X120.903 Y94.938 E8.5125
G1 X121.030 Y95.440 E8.5200
G1 X121.296 Y96.050 E8.5297
G1 X121.670 Y96.585 E8.5392
G1 X121.939 Y96.871 E8.5449
G1 X122.358 Y97.215 E8.5528
G1 X122.927 Y97.533 E8.5623
G1 X123.383 Y97.697 E8.5693
G1 X123.761 Y97.784 E8.5750
G1 X124.399 Y97.834 E8.5843
G1 X124.950 Y97.780 E8.5924
G1 X125.428 Y97.660 E8.5995
G1 X125.939 Y97.448 E8.6076
G1 X126.505 Y97.086 E8.6174
G1 X126.999 Y96.612 E8.6273
G1 X127.390 Y96.050 E8.6373
G1 X127.657 Y95.440 E8.6470
G1 X127.775 Y94.969 E8.6540
G1 X127.823 Y94.598 E8.6595
G1 X127.823 Y94.076 E8.6671
G1 X127.748 Y93.576 E8.6744
G1 X127.542 Y92.943 E8.6841
G1 X127.209 Y92.346 E8.6941
G1 X126.764 Y91.826 E8.7040
G1 X126.251 Y91.421 E8.7135
G1 X125.899 Y91.220 E8.7194
G1 X125.291 Y90.982 E8.7289
G1 X124.618 Y90.861 E8.7389
G1 X124.432 Y90.865 E8.7416
G1 X124.951 Y90.554 E8.7504
G1 X125.901 Y90.104 E8.7657
G1 X126.891 Y89.751 E8.7810
G1 X127.910 Y89.495 E8.7963
G1 X128.950 Y89.341 E8.8116
G1 X130.000 Y89.289 E8.8269
G1 X131.050 Y89.341 E8.8422
G1 X132.090 Y89.495 E8.8575
G1 X133.109 Y89.751 E8.8727
G1 X134.099 Y90.104 E8.8880
G1 X135.049 Y90.554 E8.9033
G1 X135.566 Y90.864 E8.9121
G1 X135.390 Y90.864 E8.9147
G1 X134.891 Y90.938 E8.9220
G1 X134.258 Y91.143 E8.9317
G1 X133.660 Y91.478 E8.9417
G1 X133.163 Y91.902 E8.9512
G1 X132.906 Y92.198 E8.9569
G1 X132.605 Y92.648 E8.9647
G1 X132.343 Y93.246 E8.9742
G1 X132.225 Y93.717 E8.9813
G1 X132.177 Y94.089 E8.9868
G1 X132.177 Y94.610 E8.9943
G1 X132.247 Y95.078 E9.0012
G1 X132.345 Y95.440 E9.0067
G1 X132.552 Y95.939 E9.0146
G1 X132.904 Y96.489 E9.0241
G1 X133.243 Y96.863 E9.0314
G1 X133.671 Y97.215 E9.0395
G1 X134.257 Y97.543 E9.0492
G1 X134.890 Y97.748 E9.0589
G1 X135.371 Y97.820 E9.0660
G1 X135.744 Y97.831 E9.0714
G1 X136.283 Y97.778 E9.0793
G1 X136.911 Y97.600 E9.0888
G1 X137.351 Y97.393 E9.0959
G1 X137.667 Y97.194 E9.1013
G1 X138.071 Y96.863 E9.1089
G1 X138.410 Y96.489 E9.1163
G1 X138.769 Y95.929 E9.1259
G1 X139.018 Y95.291 E9.1359
G1 X139.136 Y94.630 E9.1457
G1 X139.136 Y94.435 E9.1485
G1 X139.446 Y94.951 E9.1573
G1 X139.895 Y95.901 E9.1726
G1 X140.249 Y96.891 E9.1879
G1 X140.505 Y97.910 E9.2032
G1 X140.659 Y98.950 E9.2185
G1 X140.711 Y100.000 E9.2338
G1 X140.659 Y101.050 E9.2490
G1 X140.505 Y102.090 E9.2643
G1 X140.249 Y103.109 E9.2796
G1 X139.896 Y104.099 E9.2949
G1 X139.446 Y105.049 E9.3102
G1 X139.139 Y105.561 E9.3189
G1 X139.134 Y105.371 E9.3217
G1 X139.064 Y104.903 E9.3286
G1 X138.903 Y104.373 E9.3366
G1 X138.607 Y103.791 E9.3461
G1 X138.317 Y103.401 E9.3532
G1 X138.061 Y103.129 E9.3586
G1 X137.657 Y102.797 E9.3662
G1 X137.235 Y102.545 E9.3734
G1 X136.724 Y102.333 E9.3814
G1 X136.086 Y102.193 E9.3909
G1 X135.601 Y102.169 E9.3980
G1 X135.215 Y102.196 E9.4036
G1 X134.590 Y102.333 E9.4130
G1 X134.061 Y102.552 E9.4213
G1 X133.495 Y102.914 E9.4311
G1 X133.001 Y103.388 E9.4410
G1 X132.610 Y103.950 E9.4510
G1 X132.343 Y104.560 E9.4607
G1 X132.217 Y105.062 E9.4682
G1 X132.168 Y105.694 E9.4774
G1 X132.196 Y106.098 E9.4833
G1 X132.335 Y106.736 E9.4928
G1 X132.597 Y107.334 E9.5023
G1 X132.812 Y107.678 E9.5082
G1 X133.236 Y108.174 E9.5177
G1 X133.774 Y108.598 E9.5277
G1 X134.383 Y108.909 E9.5376
G1 X135.012 Y109.086 E9.5472
G1 X135.402 Y109.136 E9.5529
G1 X135.565 Y109.136 E9.5552
G1 X135.049 Y109.446 E9.5640
G1 X134.099 Y109.896 E9.5793
G1 X133.109 Y110.249 E9.5946
G1 X132.090 Y110.505 E9.6099
G1 X131.050 Y110.659 E9.6252
G1 X130.000 Y110.711 E9.6405
G1 X128.950 Y110.659 E9.6558
G1 X127.910 Y110.505 E9.6711
G1 X126.891 Y110.249 E9.6864
G1 X125.901 Y109.896 E9.7017
G1 X124.951 Y109.446 E9.7170
G1 X124.448 Y109.144 E9.7255
G1 X125.060 Y109.072 E9.7345
G1 X125.452 Y108.965 E9.7404
G1 X126.050 Y108.704 E9.7499
G1 X126.585 Y108.330 E9.7594
G1 X126.871 Y108.061 E9.7651
G1 X127.215 Y107.642 E9.7730
G1 X127.543 Y107.057 E9.7827
G1 X127.758 Y106.393 E9.7929
G1 X127.835 Y105.614 E9.8043
G1 X127.778 Y105.031 E9.8128
G1 X127.595 Y104.384 E9.8226
G1 X127.284 Y103.774 E9.8326
G1 X126.861 Y103.236 E9.8425
G1 X126.340 Y102.791 E9.8525
G1 X125.759 Y102.466 E9.8622
G1 X125.272 Y102.292 E9.8697
G1 X124.617 Y102.175 E9.8794
G1 X123.945 Y102.188 E9.8892
G1 X123.383 Y102.300 E9.8975
G1 X122.776 Y102.538 E9.9070
G1 X122.332 Y102.804 E9.9145
G1 X121.826 Y103.236 E9.9242
G1 X121.421 Y103.749 E9.9337
G1 X121.220 Y104.101 E9.9396
G1 X120.987 Y104.697 E9.9489
G1 X120.875 Y105.259 E9.9573
G1 X120.870 Y105.487 E9.9606
G0 X121.585 Y107.146 F10800
G1 X121.603 Y107.179 E9.9611 F3600
G1 X121.453 Y107.014 E9.9644
G1 X120.807 Y106.142 E9.9802
G1 X120.249 Y105.212 E9.9960
G1 X119.785 Y104.231 E10.0117
G1 X119.420 Y103.210 E10.0275
G1 X119.156 Y102.157 E10.0433
G1 X118.997 Y101.084 E10.0591
G1 X118.944 Y100.000 E10.0749
G1 X118.997 Y98.916 E10.0907
G1 X119.156 Y97.843 E10.1065
G1 X119.420 Y96.790 E10.1223
G1 X119.785 Y95.769 E10.1380
G1 X120.249 Y94.788 E10.1538
G1 X120.807 Y93.858 E10.1696
G1 X121.453 Y92.986 E10.1854
G1 X121.593 Y92.831 E10.1884
G1 X121.540 Y92.920 E10.1900
G1 X121.355 Y93.367 E10.1970
G1 X121.248 Y93.795 E10.2034
G1 X121.199 Y94.291 E10.2107
G1 X121.245 Y94.882 E10.2193
G1 X121.357 Y95.328 E10.2260
G1 X121.599 Y95.880 E10.2347
G1 X121.938 Y96.367 E10.2434
G1 X122.175 Y96.618 E10.2484
G1 X122.553 Y96.928 E10.2555
G1 X123.071 Y97.218 E10.2642
G1 X123.481 Y97.365 E10.2705
G1 X123.813 Y97.442 E10.2755
G1 X124.396 Y97.487 E10.2840
G1 X124.891 Y97.439 E10.2912
G1 X125.319 Y97.331 E10.2976
G1 X125.779 Y97.141 E10.3049
G1 X126.290 Y96.813 E10.3137
G1 X126.735 Y96.386 E10.3227
G1 X127.088 Y95.880 E10.3317
G1 X127.329 Y95.328 E10.3404
G1 X127.435 Y94.905 E10.3468
G1 X127.477 Y94.576 E10.3516
G1 X127.477 Y94.101 E10.3585
G1 X127.411 Y93.655 E10.3651
G1 X127.225 Y93.082 E10.3738
G1 X126.924 Y92.545 E10.3828
G1 X126.523 Y92.076 E10.3918
G1 X126.058 Y91.708 E10.4004
G1 X125.750 Y91.532 E10.4056
G1 X125.197 Y91.316 E10.4142
G1 X124.590 Y91.207 E10.4232
G1 X123.973 Y91.219 E10.4322
G1 X123.394 Y91.346 E10.4408
G1 X123.071 Y91.469 E10.4458
G1 X122.821 Y91.603 E10.4499
G1 X122.986 Y91.453 E10.4532
G1 X123.858 Y90.807 E10.4690
G1 X124.788 Y90.249 E10.4847
G1 X125.769 Y89.785 E10.5005
G1 X126.790 Y89.420 E10.5163
G1 X127.843 Y89.156 E10.5321
G1 X128.916 Y88.997 E10.5479
G1 X130.000 Y88.944 E10.5637
G1 X131.084 Y88.997 E10.5795
G1 X132.157 Y89.156 E10.5953
G1 X133.210 Y89.420 E10.6111
G1 X134.231 Y89.785 E10.6268
G1 X135.212 Y90.249 E10.6426
G1 X136.142 Y90.807 E10.6584
G1 X137.014 Y91.453 E10.6742
G1 X137.171 Y91.595 E10.6773
G1 X137.085 Y91.540 E10.6788
G1 X136.511 Y91.316 E10.6877
G1 X135.913 Y91.209 E10.6966
G1 X135.415 Y91.209 E10.7038
G1 X134.970 Y91.275 E10.7104
G1 X134.397 Y91.461 E10.7191
G1 X133.858 Y91.762 E10.7281
G1 X133.407 Y92.148 E10.7367
G1 X133.180 Y92.408 E10.7418
G1 X132.909 Y92.815 E10.7489
G1 X132.671 Y93.358 E10.7575
G1 X132.565 Y93.781 E10.7639
G1 X132.523 Y94.111 E10.7687
G1 X132.523 Y94.585 E10.7756
G1 X132.585 Y95.007 E10.7818
G1 X132.672 Y95.328 E10.7866
G1 X132.859 Y95.779 E10.7937
G1 X133.179 Y96.279 E10.8024
G1 X133.481 Y96.612 E10.8089
G1 X133.867 Y96.928 E10.8162
G1 X134.396 Y97.225 E10.8250
G1 X134.969 Y97.411 E10.8338
G1 X135.401 Y97.475 E10.8401
G1 X135.732 Y97.485 E10.8449
G1 X136.219 Y97.437 E10.8521
G1 X136.790 Y97.276 E10.8607
G1 X137.184 Y97.090 E10.8670
G1 X137.465 Y96.913 E10.8719
G1 X137.832 Y96.612 E10.8788
G1 X138.135 Y96.279 E10.8853
G1 X138.460 Y95.771 E10.8941
G1 X138.684 Y95.197 E10.9031
G1 X138.791 Y94.599 E10.9119
G1 X138.791 Y94.101 E10.9192
G1 X138.725 Y93.656 E10.9257
G1 X138.539 Y93.083 E10.9345
G1 X138.385 Y92.808 E10.9391
G1 X138.547 Y92.986 E10.9426
G1 X139.193 Y93.858 E10.9583
G1 X139.751 Y94.788 E10.9741
G1 X140.215 Y95.769 E10.9899
G1 X140.580 Y96.790 E11.0057
G1 X140.844 Y97.843 E11.0215
G1 X141.003 Y98.916 E11.0373
G1 X141.056 Y100.000 E11.0531
G1 X141.003 Y101.084 E11.0689
G1 X140.844 Y102.157 E11.0847
G1 X140.580 Y103.210 E11.1004
G1 X140.215 Y104.231 E11.1162
G1 X139.751 Y105.212 E11.1320
G1 X139.193 Y106.142 E11.1478
G1 X138.547 Y107.014 E11.1636
G1 X138.418 Y107.156 E11.1664
G1 X138.643 Y106.642 E11.1746
G1 X138.752 Y106.205 E11.1811
G1 X138.799 Y105.733 E11.1880
G1 X138.789 Y105.401 E11.1928
G1 X138.727 Y104.979 E11.1991
G1 X138.582 Y104.502 E11.2063
G1 X138.312 Y103.973 E11.2149
G1 X138.052 Y103.623 E11.2213
G1 X137.825 Y103.382 E11.2261
G1 X137.458 Y103.080 E11.2330
G1 X137.080 Y102.854 E11.2394
G1 X136.620 Y102.663 E11.2467
G1 X136.040 Y102.536 E11.2553
G1 X135.604 Y102.515 E11.2617
G1 X135.264 Y102.538 E11.2666
G1 X134.694 Y102.663 E11.2751
G1 X134.221 Y102.859 E11.2826
G1 X133.710 Y103.187 E11.2914
G1 X133.265 Y103.614 E11.3004
G1 X132.912 Y104.120 E11.3094
G1 X132.671 Y104.672 E11.3181
G1 X132.559 Y105.118 E11.3248
G1 X132.514 Y105.695 E11.3332
G1 X132.538 Y106.049 E11.3384
G1 X132.665 Y106.629 E11.3470
G1 X132.903 Y107.172 E11.3557
G1 X133.091 Y107.473 E11.3608
G1 X133.477 Y107.924 E11.3695
G1 X133.961 Y108.306 E11.3784
G1 X134.510 Y108.586 E11.3874
G1 X135.082 Y108.747 E11.3960
G1 X135.424 Y108.791 E11.4011
G1 X135.899 Y108.791 E11.4080
G1 X136.344 Y108.725 E11.4145
G1 X136.909 Y108.542 E11.4232
G1 X137.179 Y108.397 E11.4276
G1 X137.014 Y108.547 E11.4309
G1 X136.142 Y109.193 E11.4466
G1 X135.212 Y109.751 E11.4624
G1 X134.231 Y110.215 E11.4782
G1 X133.210 Y110.580 E11.4940
G1 X132.157 Y110.844 E11.5098
G1 X131.084 Y111.003 E11.5256
G1 X130.000 Y111.056 E11.5414
G1 X128.916 Y111.003 E11.5572
G1 X127.843 Y110.844 E11.5730
G1 X126.790 Y110.580 E11.5887
G1 X125.769 Y110.215 E11.6045
G1 X124.788 Y109.751 E11.6203
G1 X123.858 Y109.193 E11.6361
G1 X122.986 Y108.547 E11.6519
G1 X122.821 Y108.397 E11.6551
G1 X123.079 Y108.535 E11.6594
G1 X123.481 Y108.678 E11.6656
G1 X123.813 Y108.755 E11.6706
G1 X124.405 Y108.801 E11.6792
G1 X124.994 Y108.732 E11.6878
G1 X125.337 Y108.639 E11.6930
G1 X125.880 Y108.401 E11.7016
G1 X126.367 Y108.062 E11.7103
G1 X126.618 Y107.825 E11.7153
G1 X126.928 Y107.447 E11.7224
G1 X127.225 Y106.918 E11.7312
G1 X127.418 Y106.322 E11.7404
G1 X127.488 Y105.614 E11.7507
G1 X127.437 Y105.095 E11.7583
G1 X127.272 Y104.510 E11.7671
G1 X126.992 Y103.961 E11.7761
G1 X126.611 Y103.477 E11.7851
G1 X126.142 Y103.076 E11.7941
G1 X125.616 Y102.782 E11.8028
G1 X125.183 Y102.627 E11.8095
G1 X124.590 Y102.521 E11.8183
G1 X123.983 Y102.533 E11.8271
G1 X123.481 Y102.633 E11.8346
G1 X122.928 Y102.849 E11.8432
G1 X122.534 Y103.085 E11.8499
G1 X122.076 Y103.477 E11.8587
G1 X121.708 Y103.942 E11.8673
G1 X121.532 Y104.250 E11.8724
G1 X121.319 Y104.794 E11.8809
G1 X121.219 Y105.296 E11.8884
G1 X121.207 Y105.889 E11.8970
G1 X121.275 Y106.344 E11.9037
G1 X121.458 Y106.909 E11.9124
G1 X121.504 Y106.994 E11.9138
; ------------------------------------
; Layer #2
; ------------------------------------
G21 ; mm
G90 ; abs
G92 E0 ; reset extr
M106 S255
;segType:Loop
G0 F4800 E-1.0000
G0 F300 Z0.300
G0 X126.871 Y110.959 F10800
G0 F4800 E0.0000
G1 X126.689 Y110.913 E0.0027 F3600
G1 X125.636 Y110.536 E0.0190
G1 X124.624 Y110.058 E0.0353
G1 X123.664 Y109.482 E0.0516
G1 X122.765 Y108.816 E0.0679
G1 X121.936 Y108.064 E0.0841
G1 X121.184 Y107.235 E0.1004
G1 X120.518 Y106.336 E0.1167
G1 X119.942 Y105.376 E0.1330
G1 X119.464 Y104.364 E0.1493
G1 X119.087 Y103.311 E0.1656
G1 X118.815 Y102.225 E0.1819
G1 X118.651 Y101.118 E0.1981
G1 X118.596 Y100.000 E0.2144
G1 X118.651 Y98.882 E0.2307
G1 X118.815 Y97.775 E0.2470
G1 X119.087 Y96.689 E0.2633
G1 X119.464 Y95.636 E0.2796
G1 X119.942 Y94.624 E0.2959
G1 X120.518 Y93.664 E0.3121
G1 X121.184 Y92.765 E0.3284
G1 X121.936 Y91.936 E0.3447
G1 X122.765 Y91.184 E0.3610
G1 X123.664 Y90.518 E0.3773
G1 X124.624 Y89.942 E0.3936
G1 X125.636 Y89.464 E0.4099
G1 X126.689 Y89.087 E0.4261
G1 X127.775 Y88.815 E0.4424
G1 X128.882 Y88.651 E0.4587
G1 X130.000 Y88.596 E0.4750
G1 X131.118 Y88.651 E0.4913
G1 X132.225 Y88.815 E0.5076
G1 X133.311 Y89.087 E0.5239
G1 X134.364 Y89.464 E0.5401
G1 X135.376 Y89.942 E0.5564
G1 X136.336 Y90.518 E0.5727
G1 X137.235 Y91.184 E0.5890
G1 X138.064 Y91.936 E0.6053
G1 X138.816 Y92.765 E0.6216
G1 X139.482 Y93.664 E0.6378
G1 X140.058 Y94.624 E0.6541
G1 X140.536 Y95.636 E0.6704
G1 X140.913 Y96.689 E0.6867
G1 X141.185 Y97.775 E0.7030
G1 X141.349 Y98.882 E0.7193
G1 X141.404 Y100.000 E0.7356
G1 X141.349 Y101.118 E0.7518
G1 X141.185 Y102.225 E0.7681
G1 X140.913 Y103.311 E0.7844
G1 X140.536 Y104.364 E0.8007
G1 X140.058 Y105.376 E0.8170
G1 X139.482 Y106.336 E0.8333
G1 X138.816 Y107.235 E0.8496
G1 X138.064 Y108.064 E0.8658
G1 X137.235 Y108.816 E0.8821
G1 X136.336 Y109.482 E0.8984
G1 X135.376 Y110.058 E0.9147
G1 X134.364 Y110.536 E0.9310
G1 X133.311 Y110.913 E0.9473
G1 X132.225 Y111.185 E0.9636
G1 X131.118 Y111.349 E0.9798
G1 X130.000 Y111.404 E0.9961
G1 X128.882 Y111.349 E1.0124
G1 X127.775 Y111.185 E1.0287
G1 X127.038 Y111.001 E1.0397
G0 F4800 E0.0397
G0 X128.164 Y111.158 F10800
G0 F4800 E1.0397
;segType:Perimeter
G1 X127.656 Y111.516 E1.0488 F2159
G1 X126.588 Y111.249 E1.0648
G1 X125.502 Y110.860 E1.0816
G1 X124.459 Y110.367 E1.0984
G1 X123.470 Y109.774 E1.1152
G1 X122.543 Y109.086 E1.1320
G1 X121.688 Y108.312 E1.1487
G1 X120.914 Y107.457 E1.1655
G1 X120.226 Y106.530 E1.1823
G1 X119.633 Y105.541 E1.1991
G1 X119.140 Y104.498 E1.2159
G1 X118.751 Y103.412 E1.2327
G1 X118.471 Y102.293 E1.2495
G1 X118.302 Y101.152 E1.2662
G1 X118.245 Y100.000 E1.2830
G1 X118.302 Y98.848 E1.2998
G1 X118.471 Y97.707 E1.3166
G1 X118.751 Y96.588 E1.3334
G1 X119.140 Y95.502 E1.3502
G1 X119.633 Y94.459 E1.3670
G1 X120.226 Y93.469 E1.3838
G1 X120.914 Y92.543 E1.4005
G1 X121.688 Y91.688 E1.4173
G1 X122.543 Y90.914 E1.4341
G1 X123.470 Y90.226 E1.4509
G1 X124.459 Y89.633 E1.4677
G1 X125.502 Y89.140 E1.4845
G1 X126.588 Y88.751 E1.5012
G1 X127.707 Y88.471 E1.5180
G1 X128.848 Y88.302 E1.5348
G1 X130.000 Y88.245 E1.5516
G1 X131.152 Y88.302 E1.5684
G1 X132.293 Y88.471 E1.5852
G1 X133.412 Y88.751 E1.6020
G1 X134.498 Y89.140 E1.6187
G1 X135.541 Y89.633 E1.6355
G1 X136.530 Y90.226 E1.6523
G1 X137.457 Y90.914 E1.6691
G1 X138.312 Y91.688 E1.6859
G1 X139.086 Y92.543 E1.7027
G1 X139.774 Y93.469 E1.7195
G1 X140.367 Y94.459 E1.7362
G1 X140.860 Y95.502 E1.7530
G1 X141.249 Y96.588 E1.7698
G1 X141.529 Y97.707 E1.7866
G1 X141.698 Y98.848 E1.8034
G1 X141.755 Y100.000 E1.8202
G1 X141.698 Y101.152 E1.8370
G1 X141.529 Y102.293 E1.8537
G1 X141.249 Y103.412 E1.8705
G1 X140.860 Y104.498 E1.8873
G1 X140.367 Y105.541 E1.9041
G1 X139.774 Y106.530 E1.9209
G1 X139.086 Y107.457 E1.9377
G1 X138.312 Y108.312 E1.9545
G1 X137.457 Y109.086 E1.9712
G1 X136.530 Y109.774 E1.9880
G1 X135.541 Y110.367 E2.0048
G1 X134.498 Y110.860 E2.0216
G1 X133.412 Y111.249 E2.0384
G1 X132.293 Y111.529 E2.0552
G1 X131.152 Y111.698 E2.0720
G1 X130.000 Y111.755 E2.0887
G1 X128.848 Y111.698 E2.1055
G1 X127.758 Y111.536 E2.1216
G1 X127.425 Y111.012
G0 X126.923 Y105.222 F10800
G0 X126.561 Y104.268
G0 X119.703 Y95.538
;segType:Infill
G1 X123.861 Y102.739 E2.2426 F5400
G0 X126.922 Y94.784 F10800
G0 X126.892 Y93.753
G0 X126.475 Y92.826
G0 X125.547 Y91.825
;segType:Loop
G1 X125.574 Y91.835 E2.2430 F3600
G1 X125.839 Y91.983 E2.2474
G1 X126.261 Y92.309 E2.2552
G1 X126.621 Y92.722 E2.2631
G1 X126.893 Y93.198 E2.2711
G1 X127.066 Y93.711 E2.2790
G1 X127.131 Y94.148 E2.2854
G1 X127.131 Y94.529 E2.2910
G1 X127.097 Y94.816 E2.2952
G1 X126.991 Y95.239 E2.3015
G1 X126.769 Y95.733 E2.3094
G1 X126.451 Y96.180 E2.3174
G1 X126.052 Y96.556 E2.3253
G1 X125.595 Y96.842 E2.3332
G1 X125.230 Y96.993 E2.3389
G1 X124.810 Y97.098 E2.3452
G1 X124.417 Y97.137 E2.3510
G1 X123.894 Y97.101 E2.3586
G1 X123.603 Y97.037 E2.3630
G1 X123.192 Y96.890 E2.3693
G1 X122.730 Y96.625 E2.3771
G1 X122.431 Y96.380 E2.3827
G1 X122.227 Y96.167 E2.3870
G1 X121.918 Y95.733 E2.3947
G1 X121.696 Y95.239 E2.4026
G1 X121.586 Y94.802 E2.4092
G1 X121.549 Y94.270 E2.4169
G1 X121.588 Y93.876 E2.4227
G1 X121.693 Y93.456 E2.4290
G1 X121.842 Y93.096 E2.4347
G1 X122.069 Y92.718 E2.4411
G1 X122.425 Y92.309 E2.4490
G1 X122.852 Y91.979 E2.4568
G1 X123.193 Y91.797 E2.4624
G1 X123.468 Y91.690 E2.4667
G1 X123.987 Y91.570 E2.4745
G1 X124.535 Y91.554 E2.4825
G1 X125.076 Y91.645 E2.4904
G1 X125.386 Y91.763 E2.4953
;segType:Perimeter
G0 X124.131 Y91.466 F10800
G1 X124.562 Y91.913 E2.5043 F2159
G1 X124.983 Y91.985 E2.5105
G1 X125.426 Y92.153 E2.5174
G1 X125.645 Y92.276 E2.5211
G1 X126.020 Y92.565 E2.5280
G1 X126.334 Y92.926 E2.5349
G1 X126.572 Y93.342 E2.5419
G1 X126.724 Y93.794 E2.5488
G1 X126.781 Y94.174 E2.5544
G1 X126.781 Y94.508 E2.5593
G1 X126.752 Y94.753 E2.5629
G1 X126.659 Y95.123 E2.5684
G1 X126.464 Y95.558 E2.5754
G1 X126.186 Y95.949 E2.5823
G1 X125.837 Y96.277 E2.5893
G1 X125.434 Y96.530 E2.5962
G1 X125.120 Y96.660 E2.6012
G1 X124.750 Y96.753 E2.6067
G1 X124.411 Y96.786 E2.6117
G1 X123.943 Y96.754 E2.6185
G1 X123.699 Y96.700 E2.6221
G1 X123.340 Y96.571 E2.6277
G1 X122.929 Y96.336 E2.6346
G1 X122.669 Y96.123 E2.6395
G1 X122.497 Y95.944 E2.6431
G1 X122.223 Y95.558 E2.6500
G1 X122.027 Y95.123 E2.6569
G1 X121.933 Y94.747 E2.6626
G1 X121.900 Y94.275 E2.6695
G1 X121.934 Y93.936 E2.6744
G1 X122.027 Y93.567 E2.6800
G1 X122.156 Y93.254 E2.6849
G1 X122.354 Y92.924 E2.6905
G1 X122.667 Y92.565 E2.6974
G1 X123.043 Y92.274 E2.7043
G1 X123.340 Y92.115 E2.7092
G1 X123.571 Y92.025 E2.7128
G1 X124.032 Y91.919 E2.7197
G1 X124.459 Y91.906 E2.7259
G1 X124.947 Y91.522
;segType:Loop
G0 X131.226 Y97.057 F10800
G1 X131.692 Y97.288 E2.7335 F3600
G1 X132.097 Y97.589 E2.7408
G1 X132.411 Y97.903 E2.7473
G1 X132.703 Y98.297 E2.7544
G1 X132.860 Y98.578 E2.7591
G1 X132.989 Y98.870 E2.7638
G1 X133.117 Y99.293 E2.7702
G1 X133.194 Y99.891 E2.7790
G1 X133.187 Y100.220 E2.7838
G1 X133.150 Y100.531 E2.7883
G1 X133.083 Y100.837 E2.7929
G1 X132.983 Y101.143 E2.7976
G1 X132.776 Y101.581 E2.8046
G1 X132.600 Y101.857 E2.8094
G1 X132.323 Y102.194 E2.8157
G1 X131.956 Y102.527 E2.8229
G1 X131.581 Y102.777 E2.8295
G1 X131.018 Y103.030 E2.8385
G1 X130.407 Y103.171 E2.8476
G1 X129.781 Y103.189 E2.8567
G1 X129.177 Y103.088 E2.8656
G1 X128.856 Y102.983 E2.8705
G1 X128.419 Y102.776 E2.8776
G1 X128.148 Y102.603 E2.8823
G1 X127.897 Y102.405 E2.8869
G1 X127.585 Y102.093 E2.8933
G1 X127.230 Y101.594 E2.9022
G1 X127.014 Y101.138 E2.9096
G1 X126.885 Y100.712 E2.9161
G1 X126.813 Y100.228 E2.9232
G1 X126.807 Y99.906 E2.9279
G1 X126.831 Y99.593 E2.9324
G1 X126.888 Y99.279 E2.9371
G1 X127.016 Y98.856 E2.9435
G1 X127.284 Y98.316 E2.9523
G1 X127.480 Y98.035 E2.9573
G1 X127.896 Y97.594 E2.9661
G1 X128.296 Y97.297 E2.9733
G1 X128.583 Y97.136 E2.9781
G1 X128.978 Y96.973 E2.9843
G1 X129.285 Y96.887 E2.9890
G1 X129.608 Y96.829 E2.9938
G1 X130.205 Y96.811 E3.0024
G1 X130.531 Y96.850 E3.0072
G1 X130.837 Y96.917 E3.0118
G1 X130.837 Y96.917
;segType:Perimeter
G0 X129.805 Y96.725 F10800
G1 X130.241 Y97.168 E3.0208 F2159
G1 X130.472 Y97.195 E3.0242
G1 X130.745 Y97.255 E3.0283
G1 X131.016 Y97.343 E3.0324
G1 X131.508 Y97.588 E3.0404
G1 X131.868 Y97.854 E3.0469
G1 X132.146 Y98.132 E3.0527
G1 X132.409 Y98.487 E3.0591
G1 X132.547 Y98.734 E3.0632
G1 X132.660 Y98.992 E3.0673
G1 X132.773 Y99.367 E3.0730
G1 X132.843 Y99.910 E3.0810
G1 X132.838 Y100.195 E3.0851
G1 X132.805 Y100.472 E3.0892
G1 X132.745 Y100.745 E3.0932
G1 X132.657 Y101.014 E3.0974
G1 X132.470 Y101.411 E3.1037
G1 X132.316 Y101.651 E3.1079
G1 X132.069 Y101.952 E3.1136
G1 X131.740 Y102.250 E3.1200
G1 X131.411 Y102.470 E3.1258
G1 X130.906 Y102.697 E3.1338
G1 X130.362 Y102.822 E3.1419
G1 X129.805 Y102.838 E3.1501
G1 X129.260 Y102.747 E3.1581
G1 X128.986 Y102.657 E3.1623
G1 X128.589 Y102.470 E3.1687
G1 X128.351 Y102.317 E3.1728
G1 X128.130 Y102.143 E3.1769
G1 X127.853 Y101.866 E3.1826
G1 X127.533 Y101.417 E3.1906
G1 X127.341 Y101.012 E3.1971
G1 X127.227 Y100.636 E3.2029
G1 X127.162 Y100.199 E3.2093
G1 X127.157 Y99.916 E3.2134
G1 X127.179 Y99.638 E3.2175
G1 X127.229 Y99.361 E3.2216
G1 X127.342 Y98.986 E3.2273
G1 X127.586 Y98.495 E3.2352
G1 X127.753 Y98.256 E3.2395
G1 X128.130 Y97.856 E3.2475
G1 X128.487 Y97.591 E3.2539
G1 X128.736 Y97.452 E3.2581
G1 X129.092 Y97.304 E3.2637
G1 X129.363 Y97.228 E3.2678
G1 X129.644 Y97.178 E3.2719
G1 X130.138 Y97.163 E3.2791
G1 X130.611 Y96.761
;segType:Infill
G0 X135.523 Y90.234 F10800
G1 X136.217 Y91.435 E3.2993 F5400
;segType:Loop
G0 X137.329 Y92.108 F10800
G1 X137.366 Y92.131 E3.2999 F3600
G1 X137.754 Y92.497 E3.3077
G1 X137.942 Y92.735 E3.3121
G1 X138.207 Y93.198 E3.3199
G1 X138.380 Y93.712 E3.3278
G1 X138.445 Y94.148 E3.3342
G1 X138.445 Y94.544 E3.3399
G1 X138.355 Y95.075 E3.3478
G1 X138.160 Y95.588 E3.3558
G1 X137.872 Y96.047 E3.3637
G1 X137.576 Y96.374 E3.3701
G1 X137.282 Y96.616 E3.3756
G1 X137.039 Y96.772 E3.3798
G1 X136.645 Y96.958 E3.3862
G1 X136.130 Y97.098 E3.3939
G1 X135.745 Y97.135 E3.3996
G1 X135.456 Y97.130 E3.4038
G1 X135.025 Y97.066 E3.4101
G1 X134.512 Y96.893 E3.4180
G1 X134.044 Y96.625 E3.4258
G1 X133.738 Y96.374 E3.4316
G1 X133.441 Y96.047 E3.4380
G1 X133.158 Y95.595 E3.4458
G1 X133.010 Y95.238 E3.4514
G1 X132.932 Y94.960 E3.4556
G1 X132.869 Y94.538 E3.4618
G1 X132.869 Y94.157 E3.4673
G1 X132.903 Y93.870 E3.4716
G1 X133.009 Y93.448 E3.4779
G1 X133.228 Y92.961 E3.4857
G1 X133.443 Y92.640 E3.4913
G1 X133.634 Y92.416 E3.4956
G1 X134.036 Y92.066 E3.5033
G1 X134.512 Y91.793 E3.5113
G1 X135.025 Y91.620 E3.5192
G1 X135.462 Y91.556 E3.5256
G1 X135.857 Y91.556 E3.5314
G1 X136.389 Y91.645 E3.5392
G1 X136.902 Y91.840 E3.5472
G1 X137.183 Y92.016 E3.5520
;segType:Perimeter
G0 X136.011 Y91.480 F10800
G1 X136.346 Y92.003 E3.5611 F2159
G1 X136.745 Y92.155 E3.5673
G1 X137.151 Y92.409 E3.5743
G1 X137.495 Y92.734 E3.5811
G1 X137.651 Y92.931 E3.5848
G1 X137.886 Y93.342 E3.5917
G1 X138.038 Y93.794 E3.5986
G1 X138.094 Y94.174 E3.6042
G1 X138.094 Y94.514 E3.6092
G1 X138.015 Y94.983 E3.6161
G1 X137.845 Y95.431 E3.6231
G1 X137.592 Y95.835 E3.6300
G1 X137.334 Y96.120 E3.6356
G1 X137.076 Y96.332 E3.6405
G1 X136.869 Y96.465 E3.6440
G1 X136.523 Y96.628 E3.6496
G1 X136.066 Y96.752 E3.6565
G1 X135.731 Y96.785 E3.6614
G1 X135.486 Y96.781 E3.6650
G1 X135.107 Y96.724 E3.6705
G1 X134.656 Y96.572 E3.6775
G1 X134.243 Y96.336 E3.6844
G1 X133.980 Y96.120 E3.6893
G1 X133.722 Y95.835 E3.6949
G1 X133.470 Y95.434 E3.7018
G1 X133.342 Y95.123 E3.7067
G1 X133.275 Y94.887 E3.7103
G1 X133.219 Y94.512 E3.7158
G1 X133.219 Y94.178 E3.7207
G1 X133.248 Y93.934 E3.7242
G1 X133.341 Y93.563 E3.7298
G1 X133.535 Y93.131 E3.7367
G1 X133.722 Y92.851 E3.7416
G1 X133.883 Y92.663 E3.7452
G1 X134.240 Y92.352 E3.7521
G1 X134.656 Y92.114 E3.7591
G1 X135.107 Y91.962 E3.7660
G1 X135.488 Y91.906 E3.7716
G1 X135.828 Y91.906 E3.7765
G1 X136.246 Y91.976 E3.7827
G1 X136.800 Y91.694
;segType:Infill
G0 X140.038 Y94.991 F10800
G1 X135.588 Y102.699 E3.9122 F5400
;segType:Loop
G0 X137.042 Y103.239 F10800
G1 X137.275 Y103.378 E3.9161 F3600
G1 X137.569 Y103.620 E3.9217
G1 X137.769 Y103.828 E3.9259
G1 X138.029 Y104.178 E3.9322
G1 X138.266 Y104.656 E3.9400
G1 X138.381 Y105.034 E3.9457
G1 X138.444 Y105.456 E3.9520
G1 X138.449 Y105.745 E3.9562
G1 X138.412 Y106.124 E3.9617
G1 X138.304 Y106.552 E3.9681
G1 X138.086 Y107.039 E3.9759
G1 X137.866 Y107.367 E3.9816
G1 X137.570 Y107.695 E3.9881
G1 X137.148 Y108.021 E3.9958
G1 X136.794 Y108.210 E4.0017
G1 X136.289 Y108.380 E4.0094
G1 X135.852 Y108.445 E4.0158
G1 X135.471 Y108.445 E4.0214
G1 X135.178 Y108.410 E4.0257
G1 X134.663 Y108.270 E4.0334
G1 X134.173 Y108.026 E4.0414
G1 X133.739 Y107.691 E4.0494
G1 X133.389 Y107.289 E4.0572
G1 X133.225 Y107.033 E4.0616
G1 X133.007 Y106.547 E4.0693
G1 X132.887 Y106.027 E4.0771
G1 X132.864 Y105.724 E4.0815
G1 X132.899 Y105.198 E4.0892
G1 X133.009 Y104.761 E4.0957
G1 X133.231 Y104.267 E4.1036
G1 X133.549 Y103.820 E4.1116
G1 X133.948 Y103.444 E4.1196
G1 X134.405 Y103.158 E4.1274
G1 X134.776 Y103.005 E4.1333
G1 X135.287 Y102.887 E4.1409
G1 X135.584 Y102.864 E4.1452
G1 X136.018 Y102.885 E4.1516
G1 X136.538 Y103.005 E4.1593
G1 X136.893 Y103.152 E4.1649
;segType:Perimeter
G0 X135.624 Y102.767 F10800
G1 X136.021 Y103.245 E4.1739 F2159
G1 X136.431 Y103.339 E4.1801
G1 X136.746 Y103.470 E4.1850
G1 X137.073 Y103.665 E4.1906
G1 X137.331 Y103.877 E4.1954
G1 X137.502 Y104.055 E4.1990
G1 X137.729 Y104.362 E4.2046
G1 X137.940 Y104.785 E4.2115
G1 X138.039 Y105.111 E4.2164
G1 X138.094 Y105.486 E4.2219
G1 X138.099 Y105.731 E4.2255
G1 X138.066 Y106.064 E4.2304
G1 X137.973 Y106.437 E4.2360
G1 X137.779 Y106.869 E4.2428
G1 X137.590 Y107.151 E4.2478
G1 X137.332 Y107.437 E4.2534
G1 X136.957 Y107.726 E4.2603
G1 X136.655 Y107.887 E4.2653
G1 X136.206 Y108.038 E4.2722
G1 X135.826 Y108.094 E4.2777
G1 X135.492 Y108.094 E4.2826
G1 X135.245 Y108.065 E4.2862
G1 X134.788 Y107.941 E4.2931
G1 X134.360 Y107.728 E4.3001
G1 X133.980 Y107.435 E4.3071
G1 X133.670 Y107.079 E4.3139
G1 X133.534 Y106.866 E4.3176
G1 X133.340 Y106.435 E4.3245
G1 X133.234 Y105.974 E4.3314
G1 X133.214 Y105.723 E4.3350
G1 X133.247 Y105.253 E4.3419
G1 X133.341 Y104.877 E4.3475
G1 X133.536 Y104.442 E4.3545
G1 X133.814 Y104.052 E4.3614
G1 X134.163 Y103.723 E4.3684
G1 X134.566 Y103.470 E4.3753
G1 X134.882 Y103.339 E4.3803
G1 X135.340 Y103.234 E4.3871
G1 X135.589 Y103.215 E4.3908
G1 X135.919 Y103.231 E4.3956
G1 X136.430 Y102.878
G0 X129.793 Y103.011 F10800
G0 X125.569 Y103.153
;segType:Loop
G1 X125.964 Y103.379 E4.4022 F3600
G1 X126.377 Y103.739 E4.4102
G1 X126.712 Y104.173 E4.4182
G1 X126.956 Y104.663 E4.4261
G1 X127.100 Y105.193 E4.4341
G1 X127.138 Y105.739 E4.4421
G1 X127.068 Y106.283 E4.4501
G1 X126.893 Y106.802 E4.4580
G1 X126.625 Y107.270 E4.4659
G1 X126.380 Y107.569 E4.4715
G1 X126.167 Y107.773 E4.4758
G1 X125.733 Y108.082 E4.4836
G1 X125.247 Y108.301 E4.4913
G1 X124.955 Y108.383 E4.4957
G1 X124.425 Y108.451 E4.5035
G1 X123.893 Y108.415 E4.5113
G1 X123.602 Y108.351 E4.5156
G1 X123.201 Y108.207 E4.5218
G1 X122.865 Y108.028 E4.5273
G1 X122.623 Y107.859 E4.5316
G1 X122.239 Y107.497 E4.5393
G1 X121.976 Y107.143 E4.5457
G1 X121.790 Y106.794 E4.5515
G1 X121.620 Y106.289 E4.5592
G1 X121.554 Y105.843 E4.5658
G1 X121.570 Y105.310 E4.5736
G1 X121.648 Y104.916 E4.5794
G1 X121.835 Y104.426 E4.5870
G1 X121.983 Y104.161 E4.5914
G1 X122.309 Y103.739 E4.5992
G1 X122.718 Y103.383 E4.6071
G1 X123.104 Y103.151 E4.6136
G1 X123.602 Y102.962 E4.6214
G1 X123.996 Y102.884 E4.6272
G1 X124.535 Y102.868 E4.6351
G1 X125.070 Y102.958 E4.6430
G1 X125.413 Y103.081 E4.6483
;segType:Perimeter
G0 X124.131 Y102.779 F10800
G1 X124.562 Y103.227 E4.6573 F2159
G1 X124.981 Y103.298 E4.6635
G1 X125.347 Y103.429 E4.6692
G1 X125.760 Y103.666 E4.6761
G1 X126.121 Y103.980 E4.6831
G1 X126.414 Y104.360 E4.6900
G1 X126.628 Y104.788 E4.6970
G1 X126.753 Y105.251 E4.7040
G1 X126.786 Y105.729 E4.7109
G1 X126.725 Y106.204 E4.7179
G1 X126.572 Y106.658 E4.7249
G1 X126.336 Y107.071 E4.7318
G1 X126.123 Y107.331 E4.7367
G1 X125.944 Y107.503 E4.7403
G1 X125.558 Y107.777 E4.7472
G1 X125.127 Y107.971 E4.7541
G1 X124.884 Y108.039 E4.7578
G1 X124.415 Y108.100 E4.7646
G1 X123.943 Y108.067 E4.7715
G1 X123.699 Y108.014 E4.7751
G1 X123.343 Y107.886 E4.7807
G1 X123.048 Y107.729 E4.7855
G1 X122.845 Y107.587 E4.7891
G1 X122.502 Y107.264 E4.7960
G1 X122.273 Y106.955 E4.8016
G1 X122.113 Y106.655 E4.8065
G1 X121.962 Y106.206 E4.8134
G1 X121.905 Y105.822 E4.8191
G1 X121.919 Y105.349 E4.8259
G1 X121.986 Y105.013 E4.8309
G1 X122.153 Y104.574 E4.8378
G1 X122.276 Y104.355 E4.8414
G1 X122.565 Y103.980 E4.8483
G1 X122.924 Y103.667 E4.8552
G1 X123.257 Y103.468 E4.8609
G1 X123.699 Y103.300 E4.8678
G1 X124.036 Y103.233 E4.8728
G1 X124.459 Y103.220 E4.8789
G1 X124.947 Y102.835
;segType:Infill
G0 X127.286 Y101.974 F10800
G1 X118.955 Y101.974 E5.0002 F5400
G0 X118.818 Y99.041 F10800
G1 X121.393 Y94.581 E5.0751 F5400
G0 X119.332 Y96.523 F10800
G1 X122.328 Y96.523 E5.1187 F5400
G0 X127.368 Y97.911 F10800
G1 X126.491 Y96.392 E5.1442 F5400
G0 X126.352 Y96.523 F10800
