; GCode generated by CraftWare

G28 X0 Y0
G28 Z0
G0 F300 Z10


M190 S50 ;set bed temp (wait)
M109 S183 ;set head temp (wait)
; ------------------------------------
; Layer #0
; ------------------------------------
G21 ; mm
G90 ; abs
G92 E0 ; reset extr
M106 S255
G0 F4800 E-1.0000
G0 F300 Z0.100
G0 X120.517 Y54.907 F10800
G0 X122.212 Y53.174
G0 X129.497 Y44.337
G0 X137.925 Y37.309
G0 F4800 E0.0000
;segType:Loop
G1 X138.064 Y37.435 E0.0027 F600
G1 X138.816 Y38.264 E0.0190
G1 X139.482 Y39.163 E0.0353
G1 X140.058 Y40.123 E0.0516
G1 X140.536 Y41.135 E0.0679
G1 X140.913 Y42.188 E0.0841
G1 X141.185 Y43.274 E0.1004
G1 X141.350 Y44.381 E0.1167
G1 X141.404 Y45.499 E0.1330
G1 X141.350 Y46.617 E0.1493
G1 X141.185 Y47.724 E0.1656
G1 X140.913 Y48.810 E0.1819
G1 X140.536 Y49.863 E0.1981
G1 X140.058 Y50.875 E0.2144
G1 X139.482 Y51.835 E0.2307
G1 X138.816 Y52.734 E0.2470
G1 X138.064 Y53.563 E0.2633
G1 X137.235 Y54.315 E0.2796
G1 X136.336 Y54.981 E0.2959
G1 X135.376 Y55.557 E0.3121
G1 X134.364 Y56.035 E0.3284
G1 X133.311 Y56.412 E0.3447
G1 X132.225 Y56.684 E0.3610
G1 X131.118 Y56.848 E0.3773
G1 X130.000 Y56.903 E0.3936
G1 X128.882 Y56.848 E0.4099
G1 X127.775 Y56.684 E0.4261
G1 X126.689 Y56.412 E0.4424
G1 X125.636 Y56.035 E0.4587
G1 X124.624 Y55.557 E0.4750
G1 X123.664 Y54.981 E0.4913
G1 X122.765 Y54.315 E0.5076
G1 X121.936 Y53.563 E0.5239
G1 X121.184 Y52.734 E0.5401
G1 X120.518 Y51.835 E0.5564
G1 X119.942 Y50.875 E0.5727
G1 X119.464 Y49.863 E0.5890
G1 X119.087 Y48.810 E0.6053
G1 X118.815 Y47.724 E0.6216
G1 X118.651 Y46.617 E0.6378
G1 X118.596 Y45.499 E0.6541
G1 X118.651 Y44.381 E0.6704
G1 X118.815 Y43.274 E0.6867
G1 X119.087 Y42.188 E0.7030
G1 X119.464 Y41.135 E0.7193
G1 X119.942 Y40.123 E0.7356
G1 X120.518 Y39.163 E0.7518
G1 X121.184 Y38.264 E0.7681
G1 X121.936 Y37.435 E0.7844
G1 X122.765 Y36.683 E0.8007
G1 X123.664 Y36.017 E0.8170
G1 X124.624 Y35.441 E0.8333
G1 X125.636 Y34.963 E0.8496
G1 X126.689 Y34.586 E0.8658
G1 X127.775 Y34.314 E0.8821
G1 X128.882 Y34.150 E0.8984
G1 X130.000 Y34.095 E0.9147
G1 X131.118 Y34.150 E0.9310
G1 X132.225 Y34.314 E0.9473
G1 X133.311 Y34.586 E0.9636
G1 X134.364 Y34.963 E0.9798
G1 X135.376 Y35.441 E0.9961
G1 X136.336 Y36.017 E1.0124
G1 X137.235 Y36.683 E1.0287
G1 X137.798 Y37.194 E1.0397
G0 F4800 E0.0397
G0 X136.879 Y36.523 F10800
G0 F4800 E1.0397
;segType:Perimeter
G1 X137.495 Y36.447 E1.0488 F359
G1 X138.312 Y37.187 E1.0648
G1 X139.086 Y38.042 E1.0816
G1 X139.774 Y38.968 E1.0984
G1 X140.367 Y39.958 E1.1152
G1 X140.860 Y41.001 E1.1320
G1 X141.249 Y42.087 E1.1487
G1 X141.529 Y43.206 E1.1655
G1 X141.698 Y44.347 E1.1823
G1 X141.755 Y45.499 E1.1991
G1 X141.698 Y46.651 E1.2159
G1 X141.529 Y47.792 E1.2327
G1 X141.249 Y48.911 E1.2495
G1 X140.860 Y49.997 E1.2662
G1 X140.367 Y51.040 E1.2830
G1 X139.774 Y52.029 E1.2998
G1 X139.086 Y52.956 E1.3166
G1 X138.312 Y53.811 E1.3334
G1 X137.457 Y54.585 E1.3502
G1 X136.531 Y55.273 E1.3670
G1 X135.541 Y55.866 E1.3838
G1 X134.498 Y56.359 E1.4005
G1 X133.412 Y56.748 E1.4173
G1 X132.293 Y57.028 E1.4341
G1 X131.152 Y57.197 E1.4509
G1 X130.000 Y57.254 E1.4677
G1 X128.848 Y57.197 E1.4845
G1 X127.707 Y57.028 E1.5013
G1 X126.588 Y56.748 E1.5180
G1 X125.502 Y56.359 E1.5348
G1 X124.459 Y55.866 E1.5516
G1 X123.470 Y55.273 E1.5684
G1 X122.543 Y54.585 E1.5852
G1 X121.688 Y53.811 E1.6020
G1 X120.914 Y52.956 E1.6188
G1 X120.226 Y52.029 E1.6355
G1 X119.633 Y51.040 E1.6523
G1 X119.140 Y49.997 E1.6691
G1 X118.751 Y48.911 E1.6859
G1 X118.471 Y47.792 E1.7027
G1 X118.302 Y46.651 E1.7195
G1 X118.245 Y45.499 E1.7363
G1 X118.302 Y44.347 E1.7530
G1 X118.471 Y43.206 E1.7698
G1 X118.751 Y42.087 E1.7866
G1 X119.140 Y41.001 E1.8034
G1 X119.633 Y39.958 E1.8202
G1 X120.226 Y38.968 E1.8370
G1 X120.914 Y38.042 E1.8538
G1 X121.688 Y37.187 E1.8705
G1 X122.543 Y36.413 E1.8873
G1 X123.470 Y35.725 E1.9041
G1 X124.459 Y35.132 E1.9209
G1 X125.502 Y34.639 E1.9377
G1 X126.588 Y34.250 E1.9545
G1 X127.707 Y33.970 E1.9712
G1 X128.848 Y33.801 E1.9880
G1 X130.000 Y33.744 E2.0048
G1 X131.152 Y33.801 E2.0216
G1 X132.293 Y33.970 E2.0384
G1 X133.412 Y34.250 E2.0552
G1 X134.498 Y34.639 E2.0720
G1 X135.541 Y35.132 E2.0887
G1 X136.531 Y35.725 E2.1055
G1 X137.415 Y36.382 E2.1216
G1 X137.461 Y37.001
G0 X129.912 Y36.581 F10800
G0 X129.148 Y36.793
;segType:Loop
G1 X129.482 Y36.522 E2.1278 F600
G1 X129.895 Y36.397 E2.1341
G1 X130.339 Y36.442 E2.1406
G1 X130.760 Y36.695 E2.1477
G1 X130.982 Y36.994 E2.1532
G1 X131.102 Y37.394 E2.1592
G1 X131.058 Y37.824 E2.1655
G1 X130.846 Y38.217 E2.1720
G1 X130.441 Y38.517 E2.1794
G1 X130.004 Y38.605 E2.1858
G1 X129.594 Y38.526 E2.1919
G1 X129.286 Y38.341 E2.1971
G1 X129.022 Y38.018 E2.2032
G1 X128.899 Y37.604 E2.2095
G1 X128.942 Y37.175 E2.2158
G1 X129.066 Y36.945 E2.2196
;segType:Perimeter
G0 X129.200 Y38.410 F10800
G1 X129.323 Y37.801 E2.2286 F359
G1 X129.254 Y37.570 E2.2321
G1 X129.283 Y37.279 E2.2364
G1 X129.422 Y37.022 E2.2406
G1 X129.649 Y36.837 E2.2449
G1 X129.929 Y36.753 E2.2491
G1 X130.226 Y36.783 E2.2535
G1 X130.520 Y36.959 E2.2585
G1 X130.664 Y37.154 E2.2620
G1 X130.747 Y37.428 E2.2662
G1 X130.717 Y37.719 E2.2704
G1 X130.575 Y37.982 E2.2748
G1 X130.295 Y38.189 E2.2798
G1 X130.002 Y38.249 E2.2842
G1 X129.721 Y38.194 E2.2884
G1 X129.519 Y38.072 E2.2918
G1 X129.370 Y37.890 E2.2952
G1 X128.797 Y37.651
;segType:Loop
G0 X128.943 Y45.162 F10800
G1 X128.943 Y45.162 E2.2952 F600
G1 X129.205 Y44.726 E2.3026
G1 X129.563 Y44.486 E2.3089
G1 X129.907 Y44.399 E2.3141
G1 X130.322 Y44.441 E2.3201
G1 X130.716 Y44.651 E2.3266
G1 X131.019 Y45.060 E2.3340
G1 X131.107 Y45.498 E2.3405
G1 X131.025 Y45.907 E2.3466
G1 X130.836 Y46.224 E2.3520
G1 X130.439 Y46.518 E2.3592
G1 X130.001 Y46.606 E2.3657
G1 X129.592 Y46.524 E2.3717
G1 X129.275 Y46.335 E2.3771
G1 X128.990 Y45.950 E2.3841
G1 X128.900 Y45.592 E2.3894
G1 X128.926 Y45.334 E2.3932
;segType:Perimeter
G0 X129.575 Y46.643 F10800
G1 X129.484 Y46.029 E2.4023 F359
G1 X129.313 Y45.798 E2.4064
G1 X129.254 Y45.566 E2.4099
G1 X129.283 Y45.275 E2.4142
G1 X129.464 Y44.973 E2.4193
G1 X129.707 Y44.810 E2.4236
G1 X129.933 Y44.753 E2.4269
G1 X130.218 Y44.782 E2.4311
G1 X130.482 Y44.923 E2.4355
G1 X130.691 Y45.205 E2.4406
G1 X130.750 Y45.498 E2.4449
G1 X130.694 Y45.779 E2.4491
G1 X130.571 Y45.984 E2.4526
G1 X130.294 Y46.190 E2.4576
G1 X130.001 Y46.249 E2.4619
G1 X129.720 Y46.193 E2.4661
G1 X129.559 Y46.097 E2.4688
G1 X128.939 Y46.067
G0 X121.922 Y44.581 F10800
G0 X121.042 Y44.990
;segType:Loop
G1 X121.154 Y44.781 E2.4723 F600
G1 X121.548 Y44.490 E2.4794
G1 X121.909 Y44.399 E2.4848
G1 X122.324 Y44.441 E2.4909
G1 X122.718 Y44.653 E2.4974
G1 X123.018 Y45.059 E2.5048
G1 X123.106 Y45.495 E2.5112
G1 X123.024 Y45.919 E2.5175
G1 X122.793 Y46.268 E2.5236
G1 X122.493 Y46.489 E2.5290
G1 X122.017 Y46.609 E2.5362
G1 X121.580 Y46.523 E2.5427
G1 X121.220 Y46.284 E2.5489
G1 X120.987 Y45.938 E2.5550
G1 X120.900 Y45.590 E2.5602
G1 X120.942 Y45.175 E2.5663
G1 X120.960 Y45.142 E2.5669
G0 X121.144 Y45.835 F10800
G0 X121.506 Y46.606
;segType:Perimeter
G1 X121.443 Y45.988 E2.5759 F359
G1 X121.312 Y45.793 E2.5793
G1 X121.254 Y45.564 E2.5827
G1 X121.283 Y45.279 E2.5869
G1 X121.425 Y45.016 E2.5913
G1 X121.700 Y44.812 E2.5962
G1 X121.935 Y44.753 E2.5998
G1 X122.220 Y44.782 E2.6039
G1 X122.483 Y44.924 E2.6083
G1 X122.690 Y45.204 E2.6134
G1 X122.750 Y45.497 E2.6177
G1 X122.694 Y45.784 E2.6220
G1 X122.535 Y46.023 E2.6261
G1 X122.341 Y46.167 E2.6296
G1 X122.008 Y46.250 E2.6346
G1 X121.716 Y46.193 E2.6390
G1 X121.515 Y46.060 E2.6425
G1 X120.896 Y46.001
;segType:Loop
G0 X128.943 Y53.166 F10800
G1 X128.944 Y53.160 E2.6426 F600
G1 X129.203 Y52.727 E2.6499
G1 X129.561 Y52.486 E2.6562
G1 X129.923 Y52.396 E2.6616
G1 X130.394 Y52.466 E2.6686
G1 X130.714 Y52.657 E2.6740
G1 X130.978 Y52.980 E2.6800
G1 X131.106 Y53.408 E2.6865
G1 X131.032 Y53.907 E2.6939
G1 X130.785 Y54.279 E2.7004
G1 X130.427 Y54.520 E2.7067
G1 X130.018 Y54.603 E2.7127
G1 X129.663 Y54.550 E2.7179
G1 X129.283 Y54.345 E2.7242
G1 X128.990 Y53.951 E2.7314
G1 X128.900 Y53.589 E2.7368
G1 X128.926 Y53.338 E2.7405
;segType:Perimeter
G0 X129.599 Y54.644 F10800
G1 X129.486 Y54.033 E2.7495 F359
G1 X129.313 Y53.799 E2.7538
G1 X129.254 Y53.564 E2.7573
G1 X129.284 Y53.273 E2.7615
G1 X129.463 Y52.974 E2.7666
G1 X129.706 Y52.811 E2.7709
G1 X129.941 Y52.752 E2.7744
G1 X130.274 Y52.802 E2.7793
G1 X130.481 Y52.926 E2.7828
G1 X130.662 Y53.148 E2.7870
G1 X130.748 Y53.433 E2.7913
G1 X130.697 Y53.779 E2.7964
G1 X130.532 Y54.028 E2.8007
G1 X130.289 Y54.191 E2.8050
G1 X130.008 Y54.248 E2.8092
G1 X129.775 Y54.213 E2.8126
G1 X129.563 Y54.099 E2.8161
G1 X128.942 Y54.075
G0 X129.546 Y52.850 F10800
G0 X131.026 Y51.312
G0 X136.944 Y45.161
;segType:Loop
G1 X136.944 Y45.160 E2.8161 F600
G1 X137.203 Y44.727 E2.8235
G1 X137.561 Y44.486 E2.8297
G1 X137.922 Y44.395 E2.8352
G1 X138.408 Y44.467 E2.8423
G1 X138.780 Y44.714 E2.8488
G1 X139.021 Y45.072 E2.8551
G1 X139.104 Y45.482 E2.8612
G1 X139.049 Y45.850 E2.8666
G1 X138.804 Y46.259 E2.8735
G1 X138.493 Y46.489 E2.8791
G1 X138.018 Y46.609 E2.8863
G1 X137.594 Y46.525 E2.8926
G1 X137.274 Y46.334 E2.8980
G1 X136.990 Y45.951 E2.9049
G1 X136.900 Y45.590 E2.9103
G1 X136.926 Y45.332 E2.9141
;segType:Perimeter
G0 X137.575 Y46.643 F10800
G1 X137.483 Y46.028 E2.9231 F359
G1 X137.313 Y45.799 E2.9273
G1 X137.254 Y45.564 E2.9308
G1 X137.284 Y45.273 E2.9351
G1 X137.463 Y44.974 E2.9402
G1 X137.706 Y44.811 E2.9444
G1 X137.940 Y44.752 E2.9479
G1 X138.280 Y44.802 E2.9529
G1 X138.528 Y44.967 E2.9573
G1 X138.692 Y45.210 E2.9615
G1 X138.749 Y45.491 E2.9657
G1 X138.713 Y45.730 E2.9692
G1 X138.540 Y46.019 E2.9741
G1 X138.341 Y46.167 E2.9777
G1 X138.008 Y46.250 E2.9827
G1 X137.721 Y46.194 E2.9870
G1 X137.558 Y46.096 E2.9897
G1 X136.938 Y46.066
;segType:HShell
G0 X137.377 Y44.191 F10800
G1 X137.418 Y44.164 E2.9904 F600
G1 X137.905 Y44.041 E2.9977
G1 X138.536 Y44.135 E3.0070
G1 X139.030 Y44.463 E3.0156
G1 X139.348 Y44.936 E3.0239
G1 X139.456 Y45.473 E3.0319
G1 X139.383 Y45.969 E3.0392
G1 X139.067 Y46.497 E3.0482
G1 X138.645 Y46.810 E3.0558
G1 X138.027 Y46.964 E3.0651
G1 X137.468 Y46.855 E3.0734
G1 X137.036 Y46.597 E3.0807
G1 X136.670 Y46.102 E3.0896
G1 X136.548 Y45.615 E3.0970
G1 X136.605 Y45.048 E3.1052
G1 X136.945 Y44.482 E3.1149
G1 X137.234 Y44.287 E3.1199
G0 X138.350 Y43.758 F10800
G1 X138.663 Y43.805 E3.1245 F600
G1 X139.278 Y44.213 E3.1353
G1 X139.673 Y44.800 E3.1456
G1 X139.807 Y45.463 E3.1554
G1 X139.714 Y46.088 E3.1646
G1 X139.327 Y46.734 E3.1756
G1 X138.795 Y47.128 E3.1852
G1 X138.037 Y47.318 E3.1966
G1 X137.342 Y47.182 E3.2069
G1 X136.800 Y46.858 E3.2161
G1 X136.351 Y46.253 E3.2270
G1 X136.199 Y45.640 E3.2362
G1 X136.270 Y44.937 E3.2465
G1 X136.688 Y44.239 E3.2583
G1 X137.275 Y43.843 E3.2686
G1 X137.888 Y43.690 E3.2778
G1 X138.179 Y43.733 E3.2821
G0 X139.381 Y43.867 F10800
G1 X139.526 Y43.963 E3.2846 F600
G1 X139.998 Y44.664 E3.2969
G1 X140.157 Y45.454 E3.3087
G1 X140.046 Y46.207 E3.3197
G1 X139.588 Y46.971 E3.3327
G1 X138.946 Y47.446 E3.3443
G1 X138.046 Y47.672 E3.3578
G1 X137.217 Y47.509 E3.3701
G1 X136.563 Y47.119 E3.3812
G1 X136.033 Y46.403 E3.3942
G1 X135.849 Y45.665 E3.4052
G1 X135.934 Y44.825 E3.4175
G1 X136.432 Y43.995 E3.4316
G1 X137.132 Y43.523 E3.4439
G1 X137.870 Y43.338 E3.4550
G1 X138.790 Y43.475 E3.4685
G1 X139.237 Y43.772 E3.4763
G0 X138.862 Y40.147 F10800
G1 X139.141 Y40.613 E3.4842 F600
G1 X139.576 Y41.532 E3.4990
G1 X139.918 Y42.490 E3.5138
G1 X140.166 Y43.477 E3.5286
G1 X140.315 Y44.483 E3.5434
G1 X140.365 Y45.499 E3.5582
G1 X140.315 Y46.515 E3.5730
G1 X140.166 Y47.521 E3.5878
G1 X139.918 Y48.508 E3.6026
G1 X139.576 Y49.466 E3.6174
G1 X139.141 Y50.385 E3.6322
G1 X138.618 Y51.257 E3.6470
G1 X138.012 Y52.074 E3.6618
G1 X137.329 Y52.829 E3.6766
G1 X136.576 Y53.511 E3.6914
G1 X135.759 Y54.117 E3.7062
G1 X134.886 Y54.640 E3.7210
G1 X133.966 Y55.075 E3.7358
G1 X133.009 Y55.418 E3.7506
G1 X132.022 Y55.665 E3.7654
G1 X131.016 Y55.814 E3.7802
G1 X130.000 Y55.864 E3.7950
G1 X128.984 Y55.814 E3.8098
G1 X127.978 Y55.665 E3.8246
G1 X126.991 Y55.418 E3.8394
G1 X126.034 Y55.075 E3.8542
G1 X125.114 Y54.640 E3.8690
G1 X124.242 Y54.117 E3.8838
G1 X123.425 Y53.511 E3.8986
G1 X122.671 Y52.828 E3.9134
G1 X121.988 Y52.074 E3.9282
G1 X121.382 Y51.257 E3.9430
G1 X120.859 Y50.385 E3.9578
G1 X120.424 Y49.466 E3.9726
G1 X120.082 Y48.508 E3.9874
G1 X119.834 Y47.522 E4.0022
G1 X119.685 Y46.515 E4.0170
G1 X119.635 Y45.499 E4.0318
G1 X119.685 Y44.483 E4.0466
G1 X119.834 Y43.477 E4.0615
G1 X120.082 Y42.490 E4.0763
G1 X120.424 Y41.533 E4.0910
G1 X120.859 Y40.613 E4.1058
G1 X121.382 Y39.740 E4.1207
G1 X121.988 Y38.924 E4.1354
G1 X122.671 Y38.170 E4.1503
G1 X123.425 Y37.487 E4.1651
G1 X124.242 Y36.881 E4.1799
G1 X125.114 Y36.357 E4.1947
G1 X126.033 Y35.923 E4.2095
G1 X126.991 Y35.581 E4.2243
G1 X127.978 Y35.333 E4.2391
G1 X128.984 Y35.184 E4.2539
G1 X130.000 Y35.134 E4.2687
G1 X131.016 Y35.184 E4.2835
G1 X132.022 Y35.333 E4.2983
G1 X133.009 Y35.581 E4.3131
G1 X133.967 Y35.923 E4.3279
G1 X134.886 Y36.358 E4.3427
G1 X135.759 Y36.881 E4.3575
G1 X136.575 Y37.487 E4.3723
G1 X137.329 Y38.170 E4.3871
G1 X138.012 Y38.924 E4.4019
G1 X138.618 Y39.740 E4.4167
G1 X138.773 Y39.999 E4.4211
G0 X138.633 Y39.180 F10800
G1 X138.906 Y39.549 E4.4277 F600
G1 X139.446 Y40.450 E4.4430
G1 X139.896 Y41.400 E4.4583
G1 X140.249 Y42.390 E4.4736
G1 X140.505 Y43.410 E4.4889
G1 X140.659 Y44.449 E4.5042
G1 X140.711 Y45.499 E4.5195
G1 X140.659 Y46.549 E4.5348
G1 X140.505 Y47.588 E4.5501
G1 X140.249 Y48.608 E4.5654
G1 X139.896 Y49.598 E4.5807
G1 X139.446 Y50.548 E4.5960
G1 X138.906 Y51.449 E4.6113
G1 X138.279 Y52.294 E4.6266
G1 X137.573 Y53.073 E4.6419
G1 X136.795 Y53.779 E4.6571
G1 X135.951 Y54.404 E4.6724
G1 X135.049 Y54.945 E4.6877
G1 X134.099 Y55.395 E4.7030
G1 X133.109 Y55.748 E4.7183
G1 X132.090 Y56.004 E4.7336
G1 X131.050 Y56.158 E4.7489
G1 X130.000 Y56.210 E4.7642
G1 X128.950 Y56.158 E4.7795
G1 X127.910 Y56.004 E4.7948
G1 X126.891 Y55.748 E4.8101
G1 X125.901 Y55.395 E4.8254
G1 X124.951 Y54.945 E4.8407
G1 X124.050 Y54.404 E4.8560
G1 X123.205 Y53.779 E4.8713
G1 X122.427 Y53.072 E4.8866
G1 X121.721 Y52.294 E4.9019
G1 X121.095 Y51.449 E4.9172
G1 X120.554 Y50.548 E4.9325
G1 X120.105 Y49.598 E4.9477
G1 X119.751 Y48.608 E4.9630
G1 X119.495 Y47.589 E4.9783
G1 X119.341 Y46.549 E4.9936
G1 X119.289 Y45.499 E5.0089
G1 X119.341 Y44.449 E5.0242
G1 X119.495 Y43.409 E5.0395
G1 X119.751 Y42.390 E5.0548
G1 X120.105 Y41.400 E5.0701
G1 X120.554 Y40.450 E5.0854
G1 X121.095 Y39.549 E5.1007
G1 X121.721 Y38.704 E5.1160
G1 X122.427 Y37.925 E5.1313
G1 X123.205 Y37.220 E5.1466
G1 X124.050 Y36.594 E5.1619
G1 X124.951 Y36.053 E5.1772
G1 X125.901 Y35.603 E5.1925
G1 X126.891 Y35.250 E5.2078
G1 X127.910 Y34.994 E5.2230
G1 X128.950 Y34.840 E5.2383
G1 X130.000 Y34.788 E5.2536
G1 X131.050 Y34.840 E5.2689
G1 X132.090 Y34.994 E5.2842
G1 X133.109 Y35.250 E5.2995
G1 X134.099 Y35.603 E5.3148
G1 X135.049 Y36.053 E5.3301
G1 X135.951 Y36.594 E5.3454
G1 X136.795 Y37.220 E5.3607
G1 X137.573 Y37.926 E5.3760
G1 X138.279 Y38.704 E5.3913
G1 X138.530 Y39.042 E5.3974
G0 X138.318 Y38.233 F10800
G1 X138.547 Y38.485 E5.4023 F600
G1 X139.193 Y39.357 E5.4181
G1 X139.751 Y40.287 E5.4339
G1 X140.215 Y41.268 E5.4497
G1 X140.580 Y42.289 E5.4655
G1 X140.844 Y43.342 E5.4813
G1 X141.003 Y44.415 E5.4971
G1 X141.056 Y45.499 E5.5129
G1 X141.003 Y46.583 E5.5287
G1 X140.844 Y47.656 E5.5444
G1 X140.580 Y48.709 E5.5602
G1 X140.215 Y49.730 E5.5760
G1 X139.751 Y50.711 E5.5918
G1 X139.193 Y51.641 E5.6076
G1 X138.547 Y52.513 E5.6234
G1 X137.818 Y53.317 E5.6392
G1 X137.014 Y54.046 E5.6550
G1 X136.142 Y54.692 E5.6708
G1 X135.212 Y55.250 E5.6865
G1 X134.231 Y55.714 E5.7023
G1 X133.210 Y56.079 E5.7181
G1 X132.157 Y56.343 E5.7339
G1 X131.084 Y56.502 E5.7497
G1 X130.000 Y56.555 E5.7655
G1 X128.916 Y56.502 E5.7813
G1 X127.843 Y56.343 E5.7971
G1 X126.790 Y56.079 E5.8129
G1 X125.769 Y55.714 E5.8286
G1 X124.788 Y55.250 E5.8444
G1 X123.858 Y54.692 E5.8602
G1 X122.986 Y54.046 E5.8760
G1 X122.182 Y53.317 E5.8918
G1 X121.453 Y52.513 E5.9076
G1 X120.807 Y51.641 E5.9234
G1 X120.249 Y50.711 E5.9392
G1 X119.785 Y49.730 E5.9549
G1 X119.420 Y48.709 E5.9707
G1 X119.156 Y47.656 E5.9865
G1 X118.997 Y46.583 E6.0023
G1 X118.944 Y45.499 E6.0181
G1 X118.997 Y44.415 E6.0339
G1 X119.156 Y43.342 E6.0497
G1 X119.420 Y42.289 E6.0655
G1 X119.785 Y41.268 E6.0812
G1 X120.249 Y40.287 E6.0970
G1 X120.807 Y39.357 E6.1128
G1 X121.453 Y38.485 E6.1286
G1 X122.182 Y37.681 E6.1444
G1 X122.986 Y36.952 E6.1602
G1 X123.858 Y36.306 E6.1760
G1 X124.788 Y35.748 E6.1918
G1 X125.769 Y35.284 E6.2076
G1 X126.790 Y34.919 E6.2233
G1 X127.843 Y34.655 E6.2391
G1 X128.916 Y34.496 E6.2549
G1 X130.000 Y34.443 E6.2707
G1 X131.084 Y34.496 E6.2865
G1 X132.157 Y34.655 E6.3023
G1 X133.210 Y34.919 E6.3181
G1 X134.231 Y35.284 E6.3339
G1 X135.212 Y35.748 E6.3496
G1 X136.142 Y36.306 E6.3654
G1 X137.014 Y36.952 E6.3812
G1 X137.818 Y37.681 E6.3970
G1 X138.203 Y38.105 E6.4053
G0 X131.977 Y36.699 F10800
G1 X132.155 Y37.293 E6.4144 F600
G1 X132.070 Y38.134 E6.4267
G1 X131.650 Y38.913 E6.4395
G1 X130.873 Y39.489 E6.4536
G1 X130.008 Y39.663 E6.4665
G1 X129.216 Y39.510 E6.4782
G1 X128.596 Y39.137 E6.4887
G1 X128.088 Y38.513 E6.5004
G1 X127.845 Y37.704 E6.5127
G1 X127.930 Y36.864 E6.5250
G1 X128.330 Y36.121 E6.5373
G1 X128.986 Y35.587 E6.5496
G1 X129.794 Y35.344 E6.5619
G1 X130.674 Y35.433 E6.5748
G1 X131.472 Y35.911 E6.5883
G1 X131.923 Y36.523 E6.5994
G1 X131.927 Y36.534 E6.5995
G0 X131.069 Y36.072 F10800
G1 X131.235 Y36.172 E6.6023 F600
G1 X131.610 Y36.680 E6.6115
G1 X131.805 Y37.326 E6.6214
G1 X131.733 Y38.031 E6.6317
G1 X131.383 Y38.681 E6.6424
G1 X130.729 Y39.166 E6.6543
G1 X130.007 Y39.312 E6.6650
G1 X129.341 Y39.182 E6.6748
G1 X128.826 Y38.872 E6.6836
G1 X128.398 Y38.348 E6.6934
G1 X128.195 Y37.670 E6.7037
G1 X128.267 Y36.968 E6.7140
G1 X128.602 Y36.345 E6.7243
G1 X129.151 Y35.898 E6.7346
G1 X129.827 Y35.694 E6.7449
G1 X130.562 Y35.769 E6.7556
G1 X130.921 Y35.983 E6.7617
G0 X130.017 Y36.060 F10800
G1 X130.451 Y36.104 E6.7681 F600
G1 X130.999 Y36.433 E6.7773
G1 X131.297 Y36.837 E6.7847
G1 X131.454 Y37.360 E6.7926
G1 X131.397 Y37.927 E6.8009
G1 X131.115 Y38.450 E6.8095
G1 X130.585 Y38.843 E6.8191
G1 X130.005 Y38.960 E6.8278
G1 X129.467 Y38.855 E6.8357
G1 X129.055 Y38.608 E6.8427
G1 X128.709 Y38.183 E6.8507
G1 X128.546 Y37.637 E6.8590
G1 X128.603 Y37.071 E6.8673
G1 X128.873 Y36.569 E6.8756
G1 X129.316 Y36.209 E6.8839
G1 X129.846 Y36.049 E6.8919
G0 X125.038 Y40.705 F10800
G1 X125.249 Y40.495 E6.8963 F600
G1 X126.030 Y41.448 E6.9142
G1 X125.965 Y41.491 E6.9153
G1 X125.733 Y41.177 E6.9210
G1 X125.053 Y40.808 E6.9323
G0 X124.905 Y41.120 F10800
G1 X124.427 Y40.860 E6.9402 F600
G1 X124.871 Y40.369 E6.9498
G1 X125.289 Y39.998 E6.9580
G1 X126.537 Y41.524 E6.9866
G1 X126.128 Y41.798 E6.9938
G1 X125.964 Y42.071 E6.9985
G1 X125.500 Y41.443 E7.0098
G1 X125.057 Y41.202 E7.0172
G0 X125.475 Y41.990 F10800
G1 X125.268 Y41.710 E7.0222 F600
G1 X123.908 Y40.971 E7.0447
G1 X124.125 Y40.679 E7.0500
G1 X124.627 Y40.125 E7.0609
G1 X125.179 Y39.624 E7.0718
G1 X125.472 Y39.407 E7.0771
G1 X125.600 Y39.833 E7.0835
G1 X126.761 Y41.255 E7.1103
G1 X127.181 Y41.508 E7.1174
G1 X126.384 Y42.042 E7.1314
G1 X125.994 Y42.692 E7.1424
G1 X125.578 Y42.129 E7.1526
G0 X125.762 Y42.959 F10800
G1 X125.036 Y41.977 E7.1703 F600
G1 X123.394 Y41.084 E7.1975
G1 X123.858 Y40.459 E7.2089
G1 X124.382 Y39.880 E7.2202
G1 X124.959 Y39.357 E7.2316
G1 X125.587 Y38.892 E7.2429
G1 X125.664 Y38.846 E7.2442
G1 X125.911 Y39.668 E7.2567
G1 X126.990 Y40.990 E7.2816
G1 X127.825 Y41.493 E7.2957
G1 X126.640 Y42.285 E7.3165
G1 X126.024 Y43.313 E7.3339
G1 X125.864 Y43.098 E7.3378
G0 X123.739 Y44.288 F10800
G1 X123.990 Y44.627 E7.3440 F600
G1 X124.164 Y45.491 E7.3568
G1 X124.004 Y46.320 E7.3691
G1 X123.557 Y46.993 E7.3808
G1 X122.945 Y47.446 E7.3919
G1 X122.045 Y47.672 E7.4054
G1 X121.178 Y47.502 E7.4183
G1 X120.474 Y47.035 E7.4306
G1 X120.024 Y46.366 E7.4423
G1 X119.849 Y45.666 E7.4528
G1 X119.930 Y44.865 E7.4645
G1 X120.350 Y44.085 E7.4774
G1 X121.095 Y43.533 E7.4909
G1 X121.832 Y43.348 E7.5019
G1 X122.635 Y43.429 E7.5137
G1 X123.414 Y43.849 E7.5266
G1 X123.636 Y44.149 E7.5320
G0 X122.760 Y43.888 F10800
G1 X123.182 Y44.116 E7.5390 F600
G1 X123.667 Y44.770 E7.5508
G1 X123.813 Y45.493 E7.5616
G1 X123.678 Y46.186 E7.5718
G1 X123.303 Y46.752 E7.5817
G1 X122.795 Y47.128 E7.5909
G1 X122.036 Y47.318 E7.6023
G1 X121.312 Y47.176 E7.6130
G1 X120.723 Y46.785 E7.6233
G1 X120.344 Y46.224 E7.6332
G1 X120.199 Y45.641 E7.6419
G1 X120.266 Y44.968 E7.6518
G1 X120.617 Y44.316 E7.6625
G1 X121.245 Y43.851 E7.6739
G1 X121.857 Y43.697 E7.6831
G1 X122.532 Y43.766 E7.6929
G1 X122.608 Y43.807 E7.6942
G0 X121.679 Y44.098 F10800
G1 X121.883 Y44.047 E7.6973 F600
G1 X122.428 Y44.102 E7.7053
G1 X122.951 Y44.384 E7.7139
G1 X123.344 Y44.914 E7.7235
G1 X123.461 Y45.494 E7.7321
G1 X123.352 Y46.053 E7.7404
G1 X123.049 Y46.511 E7.7484
G1 X122.645 Y46.810 E7.7557
G1 X122.027 Y46.964 E7.7650
G1 X121.445 Y46.850 E7.7736
G1 X120.971 Y46.536 E7.7819
G1 X120.665 Y46.081 E7.7898
G1 X120.548 Y45.616 E7.7968
G1 X120.603 Y45.071 E7.8048
G1 X120.885 Y44.548 E7.8134
G1 X121.396 Y44.170 E7.8227
G1 X121.511 Y44.141 E7.8244
G0 X122.596 Y44.793 F10800
G0 X125.221 Y50.474
G1 X124.980 Y50.234 E7.8294 F600
G1 X125.845 Y49.596 E7.8450
G1 X125.326 Y50.461 E7.8597
G0 X125.613 Y50.654 F10800
G1 X125.362 Y51.073 E7.8668 F600
G1 X124.871 Y50.628 E7.8764
G1 X124.468 Y50.183 E7.8851
G1 X125.845 Y49.167 E7.9100
G1 X126.019 Y48.904 E7.9146
G1 X126.437 Y49.467 E7.9249
G1 X126.536 Y49.526 E7.9265
G1 X126.122 Y49.805 E7.9338
G1 X125.702 Y50.506 E7.9457
G0 X126.409 Y50.028 F10800
G1 X126.379 Y50.049 E7.9462 F600
G1 X125.459 Y51.581 E7.9722
G1 X125.180 Y51.374 E7.9773
G1 X124.627 Y50.873 E7.9882
G1 X124.125 Y50.320 E7.9990
G1 X123.923 Y50.047 E8.0039
G1 X124.147 Y49.991 E8.0073
G1 X125.591 Y48.926 E8.0334
G1 X126.004 Y48.302 E8.0443
G1 X126.673 Y49.206 E8.0607
G1 X127.179 Y49.509 E8.0693
G1 X126.552 Y49.932 E8.0803
G0 X127.389 Y49.784 F10800
G1 X126.635 Y50.292 E8.0935 F600
G1 X125.585 Y52.044 E8.1232
G1 X125.579 Y52.100 E8.1240
G1 X124.960 Y51.641 E8.1352
G1 X124.382 Y51.117 E8.1466
G1 X123.858 Y50.539 E8.1580
G1 X123.394 Y49.913 E8.1693
G1 X123.347 Y49.836 E8.1706
G1 X123.997 Y49.673 E8.1803
G1 X125.336 Y48.684 E8.2046
G1 X125.988 Y47.701 E8.2217
G1 X126.910 Y48.945 E8.2443
G1 X127.823 Y49.492 E8.2598
G1 X127.532 Y49.688 E8.2649
G0 X128.385 Y49.575 F10800
G1 X128.277 Y49.602 E8.2665 F600
G1 X126.892 Y50.535 E8.2908
G1 X125.920 Y52.155 E8.3183
G1 X125.867 Y52.677 E8.3259
G1 X125.394 Y52.393 E8.3339
G1 X124.741 Y51.908 E8.3458
G1 X124.138 Y51.361 E8.3576
G1 X123.591 Y50.758 E8.3695
G1 X123.106 Y50.105 E8.3813
G1 X122.812 Y49.615 E8.3896
G1 X123.846 Y49.355 E8.4051
G1 X125.082 Y48.443 E8.4275
G1 X125.959 Y47.120 E8.4506
G1 X126.011 Y46.851 E8.4546
G1 X126.125 Y47.306 E8.4614
G1 X127.146 Y48.685 E8.4864
G1 X128.456 Y49.469 E8.5086
G1 X128.653 Y49.508 E8.5115
G1 X128.552 Y49.533 E8.5130
G0 X125.968 Y43.963 F10800
G1 X125.928 Y43.765 E8.5160 F600
G1 X124.804 Y42.244 E8.5435
G1 X123.254 Y41.410 E8.5691
G1 X122.823 Y41.366 E8.5754
G1 X123.106 Y40.892 E8.5834
G1 X123.591 Y40.240 E8.5953
G1 X124.138 Y39.636 E8.6071
G1 X124.740 Y39.090 E8.6189
G1 X125.394 Y38.605 E8.6308
G1 X125.867 Y38.321 E8.6388
G1 X126.222 Y39.503 E8.6568
G1 X127.220 Y40.726 E8.6797
G1 X128.463 Y41.474 E8.7009
G1 X128.648 Y41.510 E8.7036
G1 X128.282 Y41.602 E8.7091
G1 X126.896 Y42.529 E8.7333
G1 X126.030 Y43.974 E8.7579
G0 X129.377 Y44.192 F10800
G1 X129.420 Y44.163 E8.7586 F600
G1 X129.881 Y44.047 E8.7655
G1 X130.426 Y44.102 E8.7735
G1 X130.949 Y44.382 E8.7821
G1 X131.345 Y44.915 E8.7918
G1 X131.461 Y45.498 E8.8004
G1 X131.355 Y46.034 E8.8084
G1 X131.098 Y46.462 E8.8156
G1 X130.584 Y46.843 E8.8250
G1 X130.001 Y46.960 E8.8336
G1 X129.465 Y46.854 E8.8416
G1 X129.037 Y46.597 E8.8488
G1 X128.670 Y46.102 E8.8578
G1 X128.548 Y45.618 E8.8651
G1 X128.605 Y45.050 E8.8734
G1 X128.946 Y44.480 E8.8830
G1 X129.234 Y44.288 E8.8881
G0 X130.336 Y43.746 F10800
G1 X130.528 Y43.765 E8.8909 F600
G1 X131.180 Y44.114 E8.9016
G1 X131.668 Y44.771 E8.9136
G1 X131.813 Y45.498 E8.9243
G1 X131.681 Y46.160 E8.9342
G1 X131.359 Y46.698 E8.9433
G1 X130.728 Y47.167 E8.9547
G1 X130.002 Y47.313 E8.9655
G1 X129.339 Y47.180 E8.9753
G1 X128.801 Y46.858 E8.9845
G1 X128.352 Y46.253 E8.9954
G1 X128.199 Y45.643 E9.0046
G1 X128.269 Y44.939 E9.0149
G1 X128.690 Y44.236 E9.0268
G1 X129.278 Y43.843 E9.0371
G1 X129.856 Y43.698 E9.0458
G1 X130.164 Y43.728 E9.0503
G0 X131.358 Y43.818 F10800
G1 X131.411 Y43.846 E9.0512 F600
G1 X131.991 Y44.628 E9.0653
G1 X132.166 Y45.498 E9.0782
G1 X132.008 Y46.286 E9.0899
G1 X131.620 Y46.934 E9.1009
G1 X130.871 Y47.490 E9.1145
G1 X130.002 Y47.665 E9.1274
G1 X129.213 Y47.507 E9.1391
G1 X128.565 Y47.119 E9.1501
G1 X128.033 Y46.403 E9.1631
G1 X127.850 Y45.669 E9.1741
G1 X127.933 Y44.828 E9.1864
G1 X128.434 Y43.992 E9.2006
G1 X129.136 Y43.523 E9.2129
G1 X129.830 Y43.348 E9.2233
G1 X130.631 Y43.428 E9.2350
G1 X131.205 Y43.736 E9.2445
G0 X132.332 Y44.569 F10800
G1 X132.518 Y45.497 E9.2582 F600
G1 X132.335 Y46.413 E9.2718
G1 X131.881 Y47.170 E9.2847
G1 X131.015 Y47.813 E9.3004
G1 X130.002 Y48.017 E9.3154
G1 X129.086 Y47.834 E9.3290
G1 X128.328 Y47.380 E9.3419
G1 X127.715 Y46.553 E9.3568
G1 X127.500 Y45.694 E9.3697
G1 X127.597 Y44.717 E9.3840
G1 X128.177 Y43.748 E9.4004
G1 X128.994 Y43.203 E9.4147
G1 X129.804 Y42.999 E9.4269
G1 X130.734 Y43.091 E9.4405
G1 X131.642 Y43.578 E9.4555
G1 X132.263 Y44.415 E9.4706
G0 X132.920 Y47.451 F10800
G1 X132.664 Y47.879 E9.4779 F600
G1 X131.446 Y48.783 E9.5000
G1 X130.003 Y49.073 E9.5214
G1 X128.708 Y48.815 E9.5406
G1 X127.619 Y48.163 E9.5591
G1 X126.761 Y47.005 E9.5800
G1 X126.452 Y45.771 E9.5985
G1 X126.589 Y44.383 E9.6188
G1 X127.409 Y43.017 E9.6420
G1 X128.567 Y42.242 E9.6623
G1 X129.727 Y41.950 E9.6797
G1 X131.041 Y42.081 E9.6989
G1 X132.335 Y42.775 E9.7203
G1 X133.285 Y44.053 E9.7435
G1 X133.574 Y45.497 E9.7649
G1 X133.316 Y46.791 E9.7841
G1 X133.009 Y47.303 E9.7928
G0 X133.982 Y48.366 F10800
G1 X134.012 Y48.315 E9.7936 F600
G1 X134.672 Y49.206 E9.8098
G1 X136.076 Y50.045 E9.8336
G1 X135.874 Y50.321 E9.8385
G1 X135.373 Y50.874 E9.8494
G1 X134.821 Y51.374 E9.8602
G1 X134.528 Y51.591 E9.8656
G1 X134.399 Y51.164 E9.8721
G1 X133.236 Y49.738 E9.8988
G1 X132.815 Y49.486 E9.9060
G1 X133.707 Y48.824 E9.9221
G1 X133.893 Y48.514 E9.9274
G0 X133.058 Y48.876 F10800
G1 X133.446 Y48.587 E9.9344 F600
G1 X133.982 Y47.694 E9.9496
G1 X134.909 Y48.945 E9.9722
G1 X136.338 Y49.799 E9.9965
G1 X136.639 Y49.858 E10.0009
G1 X136.142 Y50.539 E10.0132
G1 X135.617 Y51.118 E10.0246
G1 X135.040 Y51.641 E10.0359
G1 X134.414 Y52.105 E10.0472
G1 X134.336 Y52.153 E10.0486
G1 X134.088 Y51.329 E10.0611
G1 X133.007 Y50.003 E10.0860
G1 X132.195 Y49.517 E10.0998
G1 X132.919 Y48.979 E10.1129
G0 X134.265 Y49.236 F10800
G1 X134.436 Y49.467 E10.1171 F600
G1 X135.569 Y50.144 E10.1363
G1 X135.128 Y50.630 E10.1458
G1 X134.710 Y50.999 E10.1539
G1 X133.436 Y49.455 E10.1831
G1 X133.968 Y49.060 E10.1927
G1 X134.042 Y48.936 E10.1948
G1 X134.162 Y49.097 E10.1977
G0 X134.827 Y50.103 F10800
G1 X135.030 Y50.224 E10.2012 F600
G1 X134.749 Y50.504 E10.2069
G1 X133.934 Y49.515 E10.2256
G1 X134.004 Y49.464 E10.2268
G1 X134.199 Y49.728 E10.2316
G1 X134.679 Y50.014 E10.2398
G0 X132.225 Y52.325 F10800
G1 X132.223 Y52.319 E10.2398 F600
G1 X131.632 Y51.594 E10.2535
G1 X130.869 Y51.138 E10.2664
G1 X129.855 Y50.987 E10.2813
G1 X128.990 Y51.203 E10.2943
G1 X128.175 Y51.752 E10.3086
G1 X127.599 Y52.713 E10.3249
G1 X127.500 Y53.690 E10.3392
G1 X127.715 Y54.553 E10.3521
G1 X128.317 Y55.366 E10.3668
G1 X128.045 Y55.326 E10.3708
G1 X127.091 Y55.087 E10.3851
G1 X126.166 Y54.756 E10.3995
G1 X125.277 Y54.336 E10.4138
G1 X124.434 Y53.830 E10.4281
G1 X123.644 Y53.244 E10.4424
G1 X122.915 Y52.584 E10.4567
G1 X122.255 Y51.855 E10.4710
G1 X121.669 Y51.065 E10.4853
G1 X121.164 Y50.222 E10.4996
G1 X120.743 Y49.333 E10.5139
G1 X120.412 Y48.408 E10.5282
G1 X120.173 Y47.454 E10.5425
G1 X120.126 Y47.136 E10.5472
G1 X120.226 Y47.285 E10.5498
G1 X121.044 Y47.827 E10.5641
G1 X122.054 Y48.025 E10.5791
G1 X123.095 Y47.764 E10.5947
G1 X123.811 Y47.235 E10.6077
G1 X124.330 Y46.453 E10.6213
G1 X124.516 Y45.490 E10.6356
G1 X124.313 Y44.483 E10.6505
G1 X123.646 Y43.581 E10.6668
G1 X122.738 Y43.092 E10.6818
G1 X121.806 Y42.998 E10.6955
G1 X120.944 Y43.215 E10.7084
G1 X120.133 Y43.816 E10.7231
G1 X120.173 Y43.544 E10.7271
G1 X120.412 Y42.590 E10.7414
G1 X120.743 Y41.665 E10.7557
G1 X121.164 Y40.776 E10.7700
G1 X121.669 Y39.932 E10.7843
G1 X122.255 Y39.143 E10.7986
G1 X122.915 Y38.414 E10.8129
G1 X123.644 Y37.754 E10.8272
G1 X124.434 Y37.168 E10.8416
G1 X125.277 Y36.662 E10.8559
G1 X126.166 Y36.242 E10.8702
G1 X127.091 Y35.911 E10.8845
G1 X128.045 Y35.672 E10.8988
G1 X128.398 Y35.620 E10.9040
G1 X128.059 Y35.897 E10.9104
G1 X127.594 Y36.761 E10.9246
G1 X127.494 Y37.737 E10.9389
G1 X127.777 Y38.678 E10.9532
G1 X128.367 Y39.402 E10.9668
G1 X129.090 Y39.837 E10.9791
G1 X130.009 Y40.015 E10.9927
G1 X131.016 Y39.812 E11.0077
G1 X131.918 Y39.144 E11.0240
G1 X132.406 Y38.237 E11.0390
G1 X132.506 Y37.259 E11.0533
G1 X132.237 Y36.366 E11.0669
G1 X131.709 Y35.651 E11.0798
G1 X131.676 Y35.631 E11.0803
G1 X131.955 Y35.672 E11.0845
G1 X132.909 Y35.911 E11.0988
G1 X133.834 Y36.242 E11.1131
G1 X134.723 Y36.662 E11.1274
G1 X135.567 Y37.168 E11.1417
G1 X136.356 Y37.754 E11.1560
G1 X137.085 Y38.414 E11.1703
G1 X137.745 Y39.143 E11.1846
G1 X138.331 Y39.932 E11.1989
G1 X138.836 Y40.776 E11.2132
G1 X139.257 Y41.665 E11.2275
G1 X139.588 Y42.590 E11.2418
G1 X139.827 Y43.545 E11.2561
G1 X139.874 Y43.862 E11.2608
G1 X139.774 Y43.714 E11.2634
G1 X138.916 Y43.145 E11.2784
G1 X137.853 Y42.986 E11.2940
G1 X136.989 Y43.203 E11.3070
G1 X136.175 Y43.752 E11.3213
G1 X135.598 Y44.714 E11.3376
G1 X135.499 Y45.690 E11.3519
G1 X135.715 Y46.553 E11.3648
G1 X136.327 Y47.380 E11.3798
G1 X137.091 Y47.836 E11.3927
G1 X138.055 Y48.025 E11.4070
G1 X139.096 Y47.764 E11.4227
G1 X139.849 Y47.207 E11.4363
G1 X139.868 Y47.175 E11.4368
G1 X139.827 Y47.454 E11.4409
G1 X139.588 Y48.408 E11.4552
G1 X139.257 Y49.333 E11.4695
G1 X138.837 Y50.222 E11.4838
G1 X138.331 Y51.065 E11.4982
G1 X137.745 Y51.855 E11.5125
G1 X137.084 Y52.584 E11.5268
G1 X136.356 Y53.244 E11.5411
G1 X135.567 Y53.830 E11.5554
G1 X134.723 Y54.335 E11.5697
G1 X133.834 Y54.756 E11.5840
G1 X132.909 Y55.087 E11.5983
G1 X131.955 Y55.326 E11.6126
G1 X131.637 Y55.373 E11.6173
G1 X131.785 Y55.273 E11.6199
G1 X132.355 Y54.414 E11.6349
G1 X132.519 Y53.305 E11.6512
G1 X132.274 Y52.490 E11.6636
G0 X131.894 Y51.370 F10800
G1 X131.861 Y51.329 E11.6643 F600
G1 X130.988 Y50.807 E11.6792
G1 X129.838 Y50.635 E11.6961
G1 X128.847 Y50.883 E11.7109
G1 X127.918 Y51.509 E11.7272
G1 X127.263 Y52.602 E11.7458
G1 X127.150 Y53.715 E11.7621
G1 X127.396 Y54.703 E11.7769
G1 X127.491 Y54.831 E11.7792
G1 X127.192 Y54.756 E11.7837
G1 X126.298 Y54.437 E11.7975
G1 X125.440 Y54.031 E11.8113
G1 X124.626 Y53.542 E11.8251
G1 X123.863 Y52.977 E11.8389
G1 X123.160 Y52.339 E11.8528
G1 X122.522 Y51.636 E11.8666
G1 X121.957 Y50.873 E11.8804
G1 X121.469 Y50.059 E11.8942
G1 X121.062 Y49.201 E11.9080
G1 X120.743 Y48.307 E11.9218
G1 X120.663 Y47.988 E11.9266
G1 X120.911 Y48.153 E11.9309
G1 X122.063 Y48.379 E11.9480
G1 X123.245 Y48.082 E11.9658
G1 X124.066 Y47.476 E11.9806
G1 X124.655 Y46.586 E11.9961
G1 X124.868 Y45.488 E12.0124
G1 X124.636 Y44.339 E12.0295
G1 X123.878 Y43.314 E12.0480
G1 X122.842 Y42.756 E12.0651
G1 X121.781 Y42.649 E12.0807
G1 X120.794 Y42.897 E12.0955
G1 X120.668 Y42.990 E12.0978
G1 X120.743 Y42.691 E12.1022
G1 X121.062 Y41.797 E12.1161
G1 X121.469 Y40.939 E12.1299
G1 X121.957 Y40.124 E12.1437
G1 X122.522 Y39.362 E12.1575
G1 X123.160 Y38.659 E12.1713
G1 X123.863 Y38.021 E12.1851
G1 X124.626 Y37.456 E12.1989
G1 X125.440 Y36.967 E12.2128
G1 X126.298 Y36.561 E12.2266
G1 X127.192 Y36.242 E12.2404
G1 X127.526 Y36.158 E12.2454
G1 X127.257 Y36.658 E12.2536
G1 X127.144 Y37.771 E12.2699
G1 X127.466 Y38.843 E12.2862
G1 X128.137 Y39.667 E12.3017
G1 X128.965 Y40.164 E12.3157
G1 X130.011 Y40.367 E12.3312
G1 X131.160 Y40.135 E12.3483
G1 X132.185 Y39.376 E12.3669
G1 X132.743 Y38.341 E12.3840
G1 X132.856 Y37.226 E12.4003
G1 X132.550 Y36.209 E12.4157
G1 X132.521 Y36.170 E12.4164
G1 X132.808 Y36.242 E12.4207
G1 X133.702 Y36.561 E12.4345
G1 X134.560 Y36.967 E12.4484
G1 X135.375 Y37.456 E12.4622
G1 X136.137 Y38.021 E12.4760
G1 X136.840 Y38.659 E12.4898
G1 X137.478 Y39.362 E12.5036
G1 X138.044 Y40.124 E12.5174
G1 X138.531 Y40.939 E12.5313
G1 X138.938 Y41.797 E12.5451
G1 X139.257 Y42.690 E12.5589
G1 X139.337 Y43.010 E12.5637
G1 X139.043 Y42.815 E12.5688
G1 X137.836 Y42.635 E12.5866
G1 X136.847 Y42.883 E12.6014
G1 X135.918 Y43.508 E12.6177
G1 X135.263 Y44.603 E12.6362
G1 X135.150 Y45.715 E12.6525
G1 X135.396 Y46.703 E12.6673
G1 X136.091 Y47.641 E12.6843
G1 X136.966 Y48.163 E12.6991
G1 X138.064 Y48.379 E12.7154
G1 X139.246 Y48.082 E12.7332
G1 X139.329 Y48.021 E12.7347
G1 X139.257 Y48.308 E12.7389
G1 X138.938 Y49.201 E12.7528
G1 X138.532 Y50.059 E12.7666
G1 X138.044 Y50.873 E12.7804
G1 X137.478 Y51.636 E12.7942
G1 X136.840 Y52.340 E12.8080
G1 X136.137 Y52.977 E12.8218
G1 X135.375 Y53.542 E12.8356
G1 X134.560 Y54.031 E12.8495
G1 X133.702 Y54.437 E12.8633
G1 X132.808 Y54.756 E12.8771
G1 X132.490 Y54.836 E12.8819
G1 X132.685 Y54.541 E12.8870
G1 X132.872 Y53.279 E12.9056
G1 X132.534 Y52.154 E12.9227
G1 X132.003 Y51.504 E12.9349
G0 X131.374 Y51.842 F10800
G1 X131.403 Y51.859 E12.9354 F600
G1 X131.912 Y52.484 E12.9471
G1 X132.167 Y53.331 E12.9600
G1 X132.025 Y54.288 E12.9740
G1 X131.536 Y55.025 E12.9869
G1 X130.835 Y55.496 E12.9992
G1 X130.046 Y55.657 E13.0109
G1 X129.331 Y55.550 E13.0214
G1 X128.586 Y55.150 E13.0337
G1 X128.033 Y54.403 E13.0473
G1 X127.849 Y53.665 E13.0583
G1 X127.934 Y52.825 E13.0706
G1 X128.432 Y51.996 E13.0847
G1 X129.132 Y51.523 E13.0970
G1 X129.872 Y51.338 E13.1081
G1 X130.751 Y51.469 E13.1210
G1 X131.226 Y51.754 E13.1291
G0 X130.344 Y51.758 F10800
G1 X130.632 Y51.801 E13.1333 F600
G1 X131.173 Y52.124 E13.1425
G1 X131.601 Y52.649 E13.1523
G1 X131.814 Y53.356 E13.1631
G1 X131.694 Y54.161 E13.1749
G1 X131.286 Y54.777 E13.1857
G1 X130.699 Y55.171 E13.1960
G1 X130.036 Y55.306 E13.2058
G1 X129.441 Y55.218 E13.2145
G1 X128.818 Y54.882 E13.2248
G1 X128.351 Y54.252 E13.2363
G1 X128.199 Y53.640 E13.2454
G1 X128.270 Y52.936 E13.2557
G1 X128.688 Y52.239 E13.2676
G1 X129.275 Y51.843 E13.2779
G1 X129.889 Y51.690 E13.2871
G1 X130.173 Y51.732 E13.2913
G0 X129.373 Y52.194 F10800
G1 X129.418 Y52.164 E13.2920 F600
G1 X129.906 Y52.042 E13.2994
G1 X130.514 Y52.132 E13.3083
G1 X130.944 Y52.390 E13.3156
G1 X131.291 Y52.814 E13.3236
G1 X131.461 Y53.382 E13.3322
G1 X131.364 Y54.034 E13.3418
G1 X131.036 Y54.529 E13.3504
G1 X130.564 Y54.847 E13.3587
G1 X130.027 Y54.956 E13.3667
G1 X129.552 Y54.885 E13.3737
G1 X129.049 Y54.615 E13.3820
G1 X128.670 Y54.102 E13.3913
G1 X128.548 Y53.615 E13.3986
G1 X128.606 Y53.048 E13.4069
G1 X128.945 Y52.482 E13.4165
G1 X129.229 Y52.290 E13.4215
G0 X129.389 Y49.680 F10800
G1 X128.420 Y49.922 E13.4360 F600
G1 X127.149 Y50.779 E13.4583
G1 X126.256 Y52.267 E13.4836
G1 X126.159 Y53.225 E13.4976
G1 X125.929 Y53.117 E13.5013
G1 X125.202 Y52.680 E13.5136
G1 X124.521 Y52.175 E13.5260
G1 X123.893 Y51.606 E13.5383
G1 X123.324 Y50.978 E13.5506
G1 X122.819 Y50.298 E13.5630
G1 X122.383 Y49.570 E13.5753
G1 X122.297 Y49.388 E13.5782
G1 X123.696 Y49.037 E13.5992
G1 X124.828 Y48.201 E13.6197
G1 X125.633 Y46.987 E13.6409
G1 X125.924 Y45.484 E13.6632
G1 X125.605 Y43.908 E13.6866
G1 X124.573 Y42.512 E13.7118
G1 X123.151 Y41.746 E13.7353
G1 X122.275 Y41.658 E13.7481
G1 X122.383 Y41.428 E13.7518
G1 X122.819 Y40.700 E13.7642
G1 X123.324 Y40.020 E13.7765
G1 X123.893 Y39.392 E13.7888
G1 X124.521 Y38.823 E13.8012
G1 X125.202 Y38.318 E13.8135
G1 X125.929 Y37.881 E13.8259
G1 X126.100 Y37.800 E13.8286
G1 X126.092 Y37.871 E13.8296
G1 X126.533 Y39.338 E13.8519
G1 X127.449 Y40.461 E13.8730
G1 X128.588 Y41.146 E13.8924
G1 X130.015 Y41.423 E13.9135
G1 X131.591 Y41.104 E13.9369
G1 X132.987 Y40.071 E13.9622
G1 X133.753 Y38.650 E13.9857
G1 X133.842 Y37.773 E13.9985
G1 X134.071 Y37.881 E14.0022
G1 X134.798 Y38.318 E14.0145
G1 X135.479 Y38.823 E14.0268
G1 X136.107 Y39.392 E14.0392
G1 X136.676 Y40.020 E14.0515
G1 X137.181 Y40.700 E14.0638
G1 X137.617 Y41.428 E14.0762
G1 X137.699 Y41.601 E14.0790
G1 X136.418 Y41.922 E14.0982
G1 X135.149 Y42.778 E14.1205
G1 X134.256 Y44.269 E14.1458
G1 X134.101 Y45.791 E14.1680
G1 X134.441 Y47.154 E14.1885
G1 X135.381 Y48.423 E14.2115
G1 X136.589 Y49.145 E14.2319
G1 X137.714 Y49.366 E14.2486
G1 X137.618 Y49.570 E14.2519
G1 X137.181 Y50.297 E14.2642
G1 X136.676 Y50.978 E14.2766
G1 X136.106 Y51.607 E14.2889
G1 X135.479 Y52.175 E14.3012
G1 X134.799 Y52.680 E14.3136
G1 X134.071 Y53.117 E14.3259
G1 X133.925 Y53.186 E14.3283
G1 X133.466 Y51.659 E14.3515
G1 X132.549 Y50.534 E14.3726
G1 X131.344 Y49.812 E14.3930
G1 X129.787 Y49.580 E14.4159
G1 X129.557 Y49.638 E14.4194
G0 X130.406 Y50.022 F10800
G1 X129.804 Y49.932 E14.4282 F600
G1 X128.562 Y50.243 E14.4469
G1 X127.405 Y51.022 E14.4672
G1 X126.592 Y52.378 E14.4902
G1 X126.453 Y53.746 E14.5102
G1 X125.766 Y53.422 E14.5212
G1 X125.010 Y52.968 E14.5341
G1 X124.302 Y52.443 E14.5469
G1 X123.649 Y51.850 E14.5597
G1 X123.056 Y51.197 E14.5726
G1 X122.531 Y50.489 E14.5854
G1 X122.078 Y49.733 E14.5982
G1 X121.740 Y49.019 E14.6097
G1 X122.082 Y49.086 E14.6148
G1 X123.546 Y48.718 E14.6367
G1 X124.574 Y47.959 E14.6553
G1 X125.307 Y46.853 E14.6746
G1 X125.572 Y45.486 E14.6949
G1 X125.282 Y44.052 E14.7162
G1 X124.341 Y42.779 E14.7392
G1 X123.048 Y42.083 E14.7606
G1 X121.753 Y41.952 E14.7795
G1 X122.079 Y41.265 E14.7906
G1 X122.531 Y40.508 E14.8034
G1 X123.056 Y39.801 E14.8162
G1 X123.649 Y39.148 E14.8291
G1 X124.302 Y38.555 E14.8419
G1 X125.010 Y38.031 E14.8547
G1 X125.766 Y37.576 E14.8676
G1 X126.505 Y37.227 E14.8795
G1 X126.443 Y37.837 E14.8884
G1 X126.844 Y39.173 E14.9087
G1 X127.678 Y40.196 E14.9279
G1 X128.714 Y40.819 E14.9455
G1 X130.013 Y41.071 E14.9647
G1 X131.447 Y40.781 E14.9860
G1 X132.720 Y39.839 E15.0091
G1 X133.416 Y38.547 E15.0304
G1 X133.548 Y37.252 E15.0494
G1 X134.234 Y37.576 E15.0604
G1 X134.990 Y38.031 E15.0733
G1 X135.698 Y38.555 E15.0861
G1 X136.351 Y39.148 E15.0989
G1 X136.944 Y39.801 E15.1117
G1 X137.469 Y40.508 E15.1246
G1 X137.922 Y41.265 E15.1374
G1 X138.271 Y42.002 E15.1493
G1 X137.801 Y41.932 E15.1562
G1 X136.561 Y42.243 E15.1748
G1 X135.405 Y43.022 E15.1950
G1 X134.591 Y44.380 E15.2181
G1 X134.451 Y45.766 E15.2384
G1 X134.759 Y47.004 E15.2569
G1 X135.618 Y48.162 E15.2779
G1 X136.715 Y48.818 E15.2965
G1 X138.083 Y49.086 E15.3168
G1 X138.248 Y49.045 E15.3193
G1 X137.922 Y49.733 E15.3303
G1 X137.469 Y50.489 E15.3432
G1 X136.944 Y51.197 E15.3560
G1 X136.351 Y51.851 E15.3689
G1 X135.698 Y52.443 E15.3817
G1 X134.991 Y52.968 E15.3945
G1 X134.234 Y53.421 E15.4073
G1 X133.497 Y53.770 E15.4192
G1 X133.578 Y53.228 E15.4272
G1 X133.155 Y51.824 E15.4485
G1 X132.320 Y50.799 E15.4677
G1 X131.225 Y50.144 E15.4863
G1 X130.576 Y50.047 E15.4958
G0 X131.269 Y50.572 F10800
G1 X131.106 Y50.475 E15.4986 F600
G1 X129.821 Y50.284 E15.5175
G1 X128.705 Y50.563 E15.5343
G1 X127.662 Y51.265 E15.5525
G1 X126.927 Y52.490 E15.5733
G1 X126.800 Y53.741 E15.5916
G1 X126.940 Y54.300 E15.6000
G1 X126.430 Y54.118 E15.6079
G1 X125.603 Y53.726 E15.6212
G1 X124.818 Y53.255 E15.6345
G1 X124.083 Y52.710 E15.6478
G1 X123.404 Y52.095 E15.6612
G1 X122.789 Y51.416 E15.6745
G1 X122.244 Y50.681 E15.6878
G1 X121.773 Y49.896 E15.7011
G1 X121.382 Y49.069 E15.7144
G1 X121.200 Y48.561 E15.7223
G1 X122.073 Y48.733 E15.7352
G1 X123.396 Y48.400 E15.7551
G1 X124.320 Y47.718 E15.7718
G1 X124.981 Y46.720 E15.7892
G1 X125.220 Y45.487 E15.8075
G1 X124.959 Y44.195 E15.8267
G1 X124.109 Y43.047 E15.8475
G1 X122.945 Y42.419 E15.8667
G1 X121.755 Y42.299 E15.8841
G1 X121.200 Y42.439 E15.8924
G1 X121.382 Y41.929 E15.9003
G1 X121.774 Y41.102 E15.9136
G1 X122.244 Y40.316 E15.9270
G1 X122.789 Y39.582 E15.9403
G1 X123.404 Y38.903 E15.9536
G1 X124.083 Y38.288 E15.9669
G1 X124.818 Y37.743 E15.9802
G1 X125.603 Y37.271 E15.9936
G1 X126.430 Y36.881 E16.0069
G1 X126.905 Y36.711 E16.0142
G1 X126.793 Y37.804 E16.0302
G1 X127.155 Y39.008 E16.0485
G1 X127.908 Y39.932 E16.0658
G1 X128.839 Y40.492 E16.0816
G1 X130.012 Y40.719 E16.0990
G1 X131.304 Y40.458 E16.1182
G1 X132.452 Y39.607 E16.1390
G1 X133.080 Y38.444 E16.1582
G1 X133.207 Y37.192 E16.1765
G1 X133.058 Y36.698 E16.1840
G1 X133.570 Y36.881 E16.1920
G1 X134.397 Y37.272 E16.2053
G1 X135.182 Y37.743 E16.2186
G1 X135.917 Y38.288 E16.2319
G1 X136.596 Y38.903 E16.2452
G1 X137.211 Y39.582 E16.2586
G1 X137.756 Y40.316 E16.2719
G1 X138.227 Y41.102 E16.2852
G1 X138.619 Y41.929 E16.2985
G1 X138.797 Y42.429 E16.3063
G1 X137.819 Y42.283 E16.3207
G1 X136.704 Y42.563 E16.3374
G1 X135.662 Y43.265 E16.3557
G1 X134.927 Y44.491 E16.3765
G1 X134.800 Y45.741 E16.3947
G1 X135.078 Y46.853 E16.4114
G1 X135.854 Y47.901 E16.4304
G1 X136.840 Y48.491 E16.4471
G1 X138.073 Y48.733 E16.4654
G1 X138.804 Y48.549 E16.4764
G1 X138.619 Y49.069 E16.4844
G1 X138.227 Y49.896 E16.4977
G1 X137.756 Y50.681 E16.5110
G1 X137.211 Y51.416 E16.5244
G1 X136.595 Y52.096 E16.5377
G1 X135.918 Y52.710 E16.5510
G1 X135.183 Y53.255 E16.5643
G1 X134.397 Y53.726 E16.5777
G1 X133.570 Y54.118 E16.5910
G1 X133.071 Y54.296 E16.5987
G1 X133.225 Y53.254 E16.6140
G1 X132.844 Y51.989 E16.6332
G1 X132.090 Y51.064 E16.6506
G1 X131.417 Y50.661 E16.6620
G0 X132.090 Y49.165 F10800
G1 X133.186 Y48.351 E16.6819 F600
G1 X133.970 Y47.044 E16.7041
G1 X134.009 Y46.847 E16.7070
G1 X134.123 Y47.304 E16.7138
G1 X135.145 Y48.684 E16.7388
G1 X136.464 Y49.472 E16.7612
G1 X137.188 Y49.614 E16.7719
G1 X136.894 Y50.105 E16.7802
G1 X136.409 Y50.758 E16.7921
G1 X135.862 Y51.363 E16.8039
G1 X135.259 Y51.908 E16.8158
G1 X134.607 Y52.393 E16.8276
G1 X134.133 Y52.677 E16.8356
G1 X133.777 Y51.494 E16.8536
G1 X132.778 Y50.268 E16.8766
G1 X131.466 Y49.484 E16.8989
G1 X131.734 Y49.430 E16.9028
G1 X131.952 Y49.268 E16.9068
G0 X132.508 Y48.425 F10800
G1 X131.590 Y49.107 E16.9234 F600
G1 X130.003 Y49.425 E16.9470
G1 X128.582 Y49.142 E16.9681
G1 X127.383 Y48.424 E16.9884
G1 X126.443 Y47.155 E17.0114
G1 X126.103 Y45.797 E17.0317
G1 X126.253 Y44.272 E17.0540
G1 X127.153 Y42.773 E17.0795
G1 X128.425 Y41.922 E17.1017
G1 X129.701 Y41.600 E17.1209
G1 X131.144 Y41.744 E17.1420
G1 X132.566 Y42.507 E17.1655
G1 X133.608 Y43.909 E17.1909
G1 X133.926 Y45.497 E17.2145
G1 X133.643 Y46.917 E17.2355
G1 X132.925 Y48.115 E17.2559
G1 X132.646 Y48.322 E17.2609
G0 X133.036 Y46.430 F10800
G1 X132.989 Y46.665 E17.2644 F600
G1 X132.403 Y47.643 E17.2810
G1 X131.302 Y48.460 E17.3009
G1 X130.002 Y48.721 E17.3202
G1 X128.834 Y48.488 E17.3376
G1 X127.855 Y47.902 E17.3542
G1 X127.079 Y46.854 E17.3731
G1 X126.801 Y45.746 E17.3898
G1 X126.925 Y44.495 E17.4081
G1 X127.665 Y43.261 E17.4290
G1 X128.709 Y42.562 E17.4473
G1 X129.753 Y42.299 E17.4629
G1 X130.939 Y42.418 E17.4803
G1 X132.104 Y43.043 E17.4995
G1 X132.961 Y44.197 E17.5204
G1 X133.222 Y45.497 E17.5397
G1 X133.070 Y46.261 E17.5511
G0 X132.856 Y45.432 F10800
G1 X132.870 Y45.497 E17.5520 F600
G1 X132.662 Y46.539 E17.5675
G1 X132.142 Y47.406 E17.5822
G1 X131.159 Y48.137 E17.6000
G1 X130.002 Y48.369 E17.6172
G1 X128.960 Y48.161 E17.6327
G1 X128.092 Y47.641 E17.6474
G1 X127.397 Y46.704 E17.6644
G1 X127.151 Y45.720 E17.6791
G1 X127.261 Y44.606 E17.6954
G1 X127.921 Y43.505 E17.7141
G1 X128.852 Y42.882 E17.7304
G1 X129.779 Y42.649 E17.7443
G1 X130.836 Y42.754 E17.7598
G1 X131.873 Y43.310 E17.7769
G1 X132.638 Y44.340 E17.7955
G1 X132.823 Y45.262 E17.8092
G0 X133.970 Y43.961 F10800
G1 X133.931 Y43.766 E17.8121 F600
G1 X132.797 Y42.239 E17.8398
G1 X131.407 Y41.493 E17.8628
G1 X131.735 Y41.427 E17.8676
G1 X133.255 Y40.302 E17.8951
G1 X134.089 Y38.754 E17.9207
G1 X134.133 Y38.321 E17.9271
G1 X134.606 Y38.605 E17.9351
G1 X135.259 Y39.090 E17.9469
G1 X135.862 Y39.637 E17.9588
G1 X136.409 Y40.240 E17.9706
G1 X136.894 Y40.893 E17.9824
G1 X137.183 Y41.375 E17.9906
G1 X136.275 Y41.602 E18.0042
G1 X134.892 Y42.535 E18.0285
G1 X134.032 Y43.971 E18.0529
G0 X133.761 Y42.957 F10800
G1 X133.028 Y41.971 E18.0708 F600
G1 X132.189 Y41.521 E18.0846
G1 X133.522 Y40.534 E18.1088
G1 X134.414 Y38.892 E18.1359
G1 X135.040 Y39.357 E18.1473
G1 X135.618 Y39.881 E18.1587
G1 X136.142 Y40.459 E18.1700
G1 X136.607 Y41.084 E18.1813
G1 X136.648 Y41.153 E18.1825
G1 X136.133 Y41.282 E18.1902
G1 X134.635 Y42.292 E18.2165
G1 X134.024 Y43.312 E18.2338
G1 X133.864 Y43.096 E18.2377
G0 X133.472 Y41.990 F10800
G1 X133.259 Y41.703 E18.2429 F600
G1 X132.832 Y41.474 E18.2500
G1 X133.789 Y40.766 E18.2673
G1 X134.527 Y39.407 E18.2898
G1 X134.821 Y39.624 E18.2951
G1 X135.374 Y40.126 E18.3060
G1 X135.875 Y40.679 E18.3168
G1 X136.071 Y40.942 E18.3216
G1 X135.990 Y40.962 E18.3228
G1 X134.379 Y42.048 E18.3511
G1 X133.993 Y42.691 E18.3620
G1 X133.575 Y42.128 E18.3722
G0 X133.545 Y41.376 F10800
G1 X134.056 Y40.998 E18.3815 F600
G1 X134.638 Y39.925 E18.3992
G1 X135.129 Y40.370 E18.4089
G1 X135.555 Y40.839 E18.4181
G1 X134.122 Y41.805 E18.4432
G1 X133.963 Y42.071 E18.4477
G1 X133.528 Y41.496 E18.4582
G0 X134.509 Y40.887 F10800
G1 X134.732 Y40.476 E18.4650 F600
G1 X135.031 Y40.775 E18.4712
G1 X133.973 Y41.489 E18.4898
G1 X134.323 Y41.230 E18.4961
G1 X134.427 Y41.039 E18.4993
; ------------------------------------
; Layer #1
; ------------------------------------
G21 ; mm
G90 ; abs
G92 E0 ; reset extr
M106 S255
;segType:Loop
G0 F4800 E-1.0000
G0 F300 Z0.200
G0 X137.925 Y37.309 F10800
G0 F4800 E0.0000
G1 X138.064 Y37.435 E0.0027 F3600
G1 X138.816 Y38.264 E0.0190
G1 X139.482 Y39.163 E0.0353
G1 X140.058 Y40.123 E0.0516
G1 X140.536 Y41.135 E0.0679
G1 X140.913 Y42.188 E0.0841
G1 X141.185 Y43.274 E0.1004
G1 X141.350 Y44.381 E0.1167
G1 X141.404 Y45.499 E0.1330
G1 X141.350 Y46.617 E0.1493
G1 X141.185 Y47.724 E0.1656
G1 X140.913 Y48.810 E0.1819
G1 X140.536 Y49.863 E0.1981
G1 X140.058 Y50.875 E0.2144
G1 X139.482 Y51.835 E0.2307
G1 X138.816 Y52.734 E0.2470
G1 X138.064 Y53.563 E0.2633
G1 X137.235 Y54.315 E0.2796
G1 X136.336 Y54.981 E0.2959
G1 X135.376 Y55.557 E0.3121
G1 X134.364 Y56.035 E0.3284
G1 X133.311 Y56.412 E0.3447
G1 X132.225 Y56.684 E0.3610
G1 X131.118 Y56.848 E0.3773
G1 X130.000 Y56.903 E0.3936
G1 X128.882 Y56.848 E0.4099
G1 X127.775 Y56.684 E0.4261
G1 X126.689 Y56.412 E0.4424
G1 X125.636 Y56.035 E0.4587
G1 X124.624 Y55.557 E0.4750
G1 X123.664 Y54.981 E0.4913
G1 X122.765 Y54.315 E0.5076
G1 X121.936 Y53.563 E0.5239
G1 X121.184 Y52.734 E0.5401
G1 X120.518 Y51.835 E0.5564
G1 X119.942 Y50.875 E0.5727
G1 X119.464 Y49.863 E0.5890
G1 X119.087 Y48.810 E0.6053
G1 X118.815 Y47.724 E0.6216
G1 X118.651 Y46.617 E0.6378
G1 X118.596 Y45.499 E0.6541
G1 X118.651 Y44.381 E0.6704
G1 X118.815 Y43.274 E0.6867
G1 X119.087 Y42.188 E0.7030
G1 X119.464 Y41.135 E0.7193
G1 X119.942 Y40.123 E0.7356
G1 X120.518 Y39.163 E0.7518
G1 X121.184 Y38.264 E0.7681
G1 X121.936 Y37.435 E0.7844
G1 X122.765 Y36.683 E0.8007
G1 X123.664 Y36.017 E0.8170
G1 X124.624 Y35.441 E0.8333
G1 X125.636 Y34.963 E0.8496
G1 X126.689 Y34.586 E0.8658
G1 X127.775 Y34.314 E0.8821
G1 X128.882 Y34.150 E0.8984
G1 X130.000 Y34.095 E0.9147
G1 X131.118 Y34.150 E0.9310
G1 X132.225 Y34.314 E0.9473
G1 X133.311 Y34.586 E0.9636
G1 X134.364 Y34.963 E0.9798
G1 X135.376 Y35.441 E0.9961
G1 X136.336 Y36.017 E1.0124
G1 X137.235 Y36.683 E1.0287
G1 X137.798 Y37.194 E1.0397
G0 F4800 E0.0397
G0 X136.879 Y36.523 F10800
G0 F4800 E1.0397
;segType:Perimeter
G1 X137.495 Y36.447 E1.0488 F2159
G1 X138.312 Y37.187 E1.0648
G1 X139.086 Y38.042 E1.0816
G1 X139.774 Y38.968 E1.0984
G1 X140.367 Y39.958 E1.1152
G1 X140.860 Y41.001 E1.1320
G1 X141.249 Y42.087 E1.1487
G1 X141.529 Y43.206 E1.1655
G1 X141.698 Y44.347 E1.1823
G1 X141.755 Y45.499 E1.1991
G1 X141.698 Y46.651 E1.2159
G1 X141.529 Y47.792 E1.2327
G1 X141.249 Y48.911 E1.2495
G1 X140.860 Y49.997 E1.2662
G1 X140.367 Y51.040 E1.2830
G1 X139.774 Y52.029 E1.2998
G1 X139.086 Y52.956 E1.3166
G1 X138.312 Y53.811 E1.3334
G1 X137.457 Y54.585 E1.3502
G1 X136.531 Y55.273 E1.3670
G1 X135.541 Y55.866 E1.3838
G1 X134.498 Y56.359 E1.4005
G1 X133.412 Y56.748 E1.4173
G1 X132.293 Y57.028 E1.4341
G1 X131.152 Y57.197 E1.4509
G1 X130.000 Y57.254 E1.4677
G1 X128.848 Y57.197 E1.4845
G1 X127.707 Y57.028 E1.5013
G1 X126.588 Y56.748 E1.5180
G1 X125.502 Y56.359 E1.5348
G1 X124.459 Y55.866 E1.5516
G1 X123.470 Y55.273 E1.5684
G1 X122.543 Y54.585 E1.5852
G1 X121.688 Y53.811 E1.6020
G1 X120.914 Y52.956 E1.6188
G1 X120.226 Y52.029 E1.6355
G1 X119.633 Y51.040 E1.6523
G1 X119.140 Y49.997 E1.6691
G1 X118.751 Y48.911 E1.6859
G1 X118.471 Y47.792 E1.7027
G1 X118.302 Y46.651 E1.7195
G1 X118.245 Y45.499 E1.7363
G1 X118.302 Y44.347 E1.7530
G1 X118.471 Y43.206 E1.7698
G1 X118.751 Y42.087 E1.7866
G1 X119.140 Y41.001 E1.8034
G1 X119.633 Y39.958 E1.8202
G1 X120.226 Y38.968 E1.8370
G1 X120.914 Y38.042 E1.8538
G1 X121.688 Y37.187 E1.8705
G1 X122.543 Y36.413 E1.8873
G1 X123.470 Y35.725 E1.9041
G1 X124.459 Y35.132 E1.9209
G1 X125.502 Y34.639 E1.9377
G1 X126.588 Y34.250 E1.9545
G1 X127.707 Y33.970 E1.9712
G1 X128.848 Y33.801 E1.9880
G1 X130.000 Y33.744 E2.0048
G1 X131.152 Y33.801 E2.0216
G1 X132.293 Y33.970 E2.0384
G1 X133.412 Y34.250 E2.0552
G1 X134.498 Y34.639 E2.0720
G1 X135.541 Y35.132 E2.0887
G1 X136.531 Y35.725 E2.1055
G1 X137.415 Y36.382 E2.1216
G1 X137.461 Y37.001
G0 X129.916 Y36.581 F10800
G0 X129.151 Y36.790
;segType:Loop
G1 X129.485 Y36.520 E2.1278 F3600
G1 X129.899 Y36.397 E2.1341
G1 X130.341 Y36.444 E2.1406
G1 X130.759 Y36.694 E2.1477
G1 X130.983 Y36.996 E2.1531
G1 X131.102 Y37.398 E2.1592
G1 X131.057 Y37.827 E2.1655
G1 X130.845 Y38.218 E2.1720
G1 X130.443 Y38.516 E2.1793
G1 X130.007 Y38.606 E2.1857
G1 X129.596 Y38.527 E2.1918
G1 X129.284 Y38.339 E2.1971
G1 X129.021 Y38.014 E2.2032
G1 X128.898 Y37.600 E2.2095
G1 X128.943 Y37.171 E2.2158
G1 X129.068 Y36.941 E2.2196
;segType:Perimeter
G0 X129.197 Y38.407 F10800
G1 X129.322 Y37.798 E2.2286 F2159
G1 X129.253 Y37.568 E2.2321
G1 X129.284 Y37.277 E2.2364
G1 X129.423 Y37.020 E2.2406
G1 X129.651 Y36.835 E2.2449
G1 X129.932 Y36.753 E2.2491
G1 X130.228 Y36.784 E2.2535
G1 X130.519 Y36.958 E2.2584
G1 X130.665 Y37.155 E2.2620
G1 X130.747 Y37.430 E2.2662
G1 X130.716 Y37.721 E2.2704
G1 X130.574 Y37.983 E2.2748
G1 X130.297 Y38.189 E2.2798
G1 X130.005 Y38.249 E2.2841
G1 X129.723 Y38.194 E2.2883
G1 X129.517 Y38.071 E2.2918
G1 X129.369 Y37.888 E2.2952
G1 X128.797 Y37.647
;segType:Loop
G0 X128.944 Y45.161 F10800
G1 X129.204 Y44.726 E2.3026 F3600
G1 X129.562 Y44.486 E2.3089
G1 X129.908 Y44.399 E2.3140
G1 X130.324 Y44.441 E2.3201
G1 X130.717 Y44.652 E2.3266
G1 X131.019 Y45.059 E2.3340
G1 X131.107 Y45.497 E2.3405
G1 X131.026 Y45.906 E2.3466
G1 X130.835 Y46.224 E2.3520
G1 X130.440 Y46.517 E2.3591
G1 X130.002 Y46.606 E2.3656
G1 X129.593 Y46.525 E2.3717
G1 X129.275 Y46.334 E2.3771
G1 X128.990 Y45.950 E2.3840
G1 X128.900 Y45.591 E2.3894
G1 X128.926 Y45.333 E2.3932
;segType:Perimeter
G0 X129.575 Y46.643 F10800
G1 X129.484 Y46.028 E2.4023 F2159
G1 X129.313 Y45.798 E2.4064
G1 X129.254 Y45.565 E2.4099
G1 X129.284 Y45.274 E2.4142
G1 X129.464 Y44.973 E2.4193
G1 X129.707 Y44.810 E2.4235
G1 X129.934 Y44.753 E2.4269
G1 X130.219 Y44.782 E2.4311
G1 X130.482 Y44.923 E2.4355
G1 X130.691 Y45.205 E2.4406
G1 X130.750 Y45.498 E2.4449
G1 X130.694 Y45.779 E2.4491
G1 X130.571 Y45.985 E2.4526
G1 X130.294 Y46.190 E2.4576
G1 X130.002 Y46.249 E2.4619
G1 X129.720 Y46.193 E2.4661
G1 X129.559 Y46.097 E2.4688
G1 X128.938 Y46.066
G0 X121.925 Y44.581 F10800
G0 X121.041 Y44.991
;segType:Loop
G1 X121.156 Y44.780 E2.4723 F3600
G1 X121.547 Y44.490 E2.4794
G1 X121.912 Y44.399 E2.4849
G1 X122.328 Y44.442 E2.4910
G1 X122.719 Y44.654 E2.4975
G1 X123.017 Y45.056 E2.5047
G1 X123.107 Y45.492 E2.5112
G1 X123.025 Y45.916 E2.5175
G1 X122.795 Y46.266 E2.5236
G1 X122.492 Y46.490 E2.5291
G1 X122.020 Y46.608 E2.5361
G1 X121.583 Y46.524 E2.5426
G1 X121.223 Y46.287 E2.5489
G1 X120.988 Y45.940 E2.5550
G1 X120.900 Y45.588 E2.5603
G1 X120.943 Y45.171 E2.5664
G1 X120.959 Y45.143 E2.5668
G0 X121.145 Y45.837 F10800
G0 X121.509 Y46.608
;segType:Perimeter
G1 X121.444 Y45.990 E2.5759 F2159
G1 X121.312 Y45.795 E2.5793
G1 X121.254 Y45.562 E2.5828
G1 X121.284 Y45.277 E2.5870
G1 X121.426 Y45.015 E2.5913
G1 X121.699 Y44.813 E2.5962
G1 X121.937 Y44.753 E2.5998
G1 X122.222 Y44.783 E2.6040
G1 X122.484 Y44.925 E2.6083
G1 X122.690 Y45.202 E2.6133
G1 X122.750 Y45.494 E2.6177
G1 X122.695 Y45.781 E2.6219
G1 X122.536 Y46.021 E2.6261
G1 X122.339 Y46.167 E2.6297
G1 X122.010 Y46.250 E2.6346
G1 X121.718 Y46.193 E2.6390
G1 X121.517 Y46.061 E2.6425
G1 X120.898 Y46.004
;segType:Loop
G0 X128.944 Y53.163 F10800
G1 X128.945 Y53.158 E2.6425 F3600
G1 X129.202 Y52.729 E2.6498
G1 X129.559 Y52.487 E2.6561
G1 X129.924 Y52.395 E2.6616
G1 X130.393 Y52.465 E2.6685
G1 X130.716 Y52.659 E2.6739
G1 X130.979 Y52.984 E2.6800
G1 X131.106 Y53.410 E2.6865
G1 X131.033 Y53.905 E2.6938
G1 X130.788 Y54.277 E2.7003
G1 X130.430 Y54.518 E2.7065
G1 X130.020 Y54.603 E2.7126
G1 X129.661 Y54.550 E2.7179
G1 X129.281 Y54.344 E2.7242
G1 X128.991 Y53.952 E2.7313
G1 X128.900 Y53.587 E2.7368
G1 X128.926 Y53.335 E2.7405
;segType:Perimeter
G0 X129.596 Y54.642 F10800
G1 X129.485 Y54.031 E2.7495 F2159
G1 X129.314 Y53.800 E2.7537
G1 X129.254 Y53.562 E2.7573
G1 X129.285 Y53.271 E2.7615
G1 X129.462 Y52.975 E2.7665
G1 X129.704 Y52.812 E2.7708
G1 X129.942 Y52.752 E2.7744
G1 X130.273 Y52.801 E2.7792
G1 X130.483 Y52.927 E2.7828
G1 X130.663 Y53.150 E2.7870
G1 X130.748 Y53.436 E2.7913
G1 X130.698 Y53.777 E2.7963
G1 X130.534 Y54.026 E2.8007
G1 X130.291 Y54.190 E2.8049
G1 X130.010 Y54.248 E2.8091
G1 X129.773 Y54.212 E2.8126
G1 X129.561 Y54.098 E2.8161
G1 X128.940 Y54.073
G0 X129.544 Y52.847 F10800
G0 X131.024 Y51.309
G0 X136.944 Y45.158
;segType:Loop
G1 X136.944 Y45.158 E2.8161 F3600
G1 X137.202 Y44.729 E2.8234
G1 X137.559 Y44.487 E2.8296
G1 X137.925 Y44.396 E2.8351
G1 X138.406 Y44.467 E2.8422
G1 X138.777 Y44.711 E2.8487
G1 X139.020 Y45.069 E2.8550
G1 X139.103 Y45.479 E2.8610
G1 X139.049 Y45.851 E2.8665
G1 X138.805 Y46.258 E2.8734
G1 X138.492 Y46.490 E2.8791
G1 X138.020 Y46.608 E2.8862
G1 X137.596 Y46.526 E2.8924
G1 X137.273 Y46.333 E2.8979
G1 X136.991 Y45.952 E2.9048
G1 X136.900 Y45.587 E2.9103
G1 X136.927 Y45.330 E2.9141
;segType:Perimeter
G0 X137.574 Y46.642 F10800
G1 X137.482 Y46.027 E2.9231 F2159
G1 X137.314 Y45.800 E2.9272
G1 X137.254 Y45.562 E2.9308
G1 X137.285 Y45.271 E2.9350
G1 X137.462 Y44.975 E2.9401
G1 X137.704 Y44.811 E2.9443
G1 X137.942 Y44.752 E2.9479
G1 X138.278 Y44.802 E2.9528
G1 X138.526 Y44.965 E2.9572
G1 X138.691 Y45.208 E2.9614
G1 X138.748 Y45.489 E2.9656
G1 X138.713 Y45.731 E2.9692
G1 X138.541 Y46.018 E2.9740
G1 X138.339 Y46.167 E2.9777
G1 X138.010 Y46.250 E2.9826
G1 X137.723 Y46.194 E2.9869
G1 X137.557 Y46.095 E2.9897
G1 X136.937 Y46.065
;segType:HShell
G0 X137.379 Y44.189 F10800
G1 X137.415 Y44.164 E2.9903 F3600
G1 X137.908 Y44.041 E2.9977
G1 X138.533 Y44.134 E3.0069
G1 X139.026 Y44.459 E3.0155
G1 X139.346 Y44.932 E3.0238
G1 X139.456 Y45.469 E3.0318
G1 X139.383 Y45.970 E3.0392
G1 X139.068 Y46.496 E3.0481
G1 X138.643 Y46.810 E3.0558
G1 X138.030 Y46.964 E3.0650
G1 X137.471 Y46.856 E3.0732
G1 X137.035 Y46.596 E3.0806
G1 X136.670 Y46.104 E3.0895
G1 X136.548 Y45.612 E3.0969
G1 X136.607 Y45.045 E3.1052
G1 X136.943 Y44.484 E3.1147
G1 X137.236 Y44.286 E3.1199
G0 X138.352 Y43.758 F10800
G1 X138.659 Y43.804 E3.1244 F3600
G1 X139.273 Y44.208 E3.1351
G1 X139.671 Y44.795 E3.1454
G1 X139.806 Y45.459 E3.1553
G1 X139.714 Y46.088 E3.1645
G1 X139.328 Y46.732 E3.1754
G1 X138.794 Y47.128 E3.1851
G1 X138.040 Y47.317 E3.1964
G1 X137.346 Y47.184 E3.2067
G1 X136.799 Y46.857 E3.2160
G1 X136.352 Y46.254 E3.2269
G1 X136.198 Y45.637 E3.2362
G1 X136.271 Y44.933 E3.2465
G1 X136.686 Y44.241 E3.2582
G1 X137.272 Y43.844 E3.2685
G1 X137.891 Y43.690 E3.2778
G1 X138.181 Y43.733 E3.2820
G0 X139.382 Y43.867 F10800
G1 X139.520 Y43.958 E3.2845 F3600
G1 X139.995 Y44.658 E3.2968
G1 X140.157 Y45.449 E3.3085
G1 X140.046 Y46.207 E3.3197
G1 X139.589 Y46.969 E3.3326
G1 X138.944 Y47.447 E3.3443
G1 X138.049 Y47.671 E3.3577
G1 X137.221 Y47.511 E3.3700
G1 X136.563 Y47.118 E3.3811
G1 X136.034 Y46.404 E3.3940
G1 X135.849 Y45.662 E3.4052
G1 X135.936 Y44.822 E3.4175
G1 X136.429 Y43.999 E3.4314
G1 X137.129 Y43.524 E3.4437
G1 X137.874 Y43.338 E3.4549
G1 X138.785 Y43.474 E3.4683
G1 X139.238 Y43.772 E3.4762
G0 X138.862 Y40.147 F10800
G1 X139.141 Y40.613 E3.4841 F3600
G1 X139.576 Y41.532 E3.4989
G1 X139.918 Y42.490 E3.5137
G1 X140.166 Y43.477 E3.5285
G1 X140.315 Y44.483 E3.5433
G1 X140.365 Y45.499 E3.5581
G1 X140.315 Y46.515 E3.5729
G1 X140.166 Y47.521 E3.5877
G1 X139.918 Y48.508 E3.6025
G1 X139.576 Y49.466 E3.6173
G1 X139.141 Y50.385 E3.6321
G1 X138.618 Y51.257 E3.6469
G1 X138.012 Y52.074 E3.6617
G1 X137.329 Y52.829 E3.6765
G1 X136.576 Y53.511 E3.6913
G1 X135.759 Y54.117 E3.7061
G1 X134.886 Y54.640 E3.7209
G1 X133.966 Y55.075 E3.7357
G1 X133.009 Y55.418 E3.7505
G1 X132.022 Y55.665 E3.7653
G1 X131.016 Y55.814 E3.7801
G1 X130.000 Y55.864 E3.7949
G1 X128.984 Y55.814 E3.8097
G1 X127.978 Y55.665 E3.8245
G1 X126.991 Y55.418 E3.8393
G1 X126.034 Y55.075 E3.8541
G1 X125.114 Y54.640 E3.8689
G1 X124.242 Y54.117 E3.8837
G1 X123.425 Y53.511 E3.8985
G1 X122.671 Y52.828 E3.9133
G1 X121.988 Y52.074 E3.9281
G1 X121.382 Y51.257 E3.9429
G1 X120.859 Y50.385 E3.9577
G1 X120.424 Y49.466 E3.9725
G1 X120.082 Y48.508 E3.9873
G1 X119.834 Y47.522 E4.0021
G1 X119.685 Y46.515 E4.0169
G1 X119.635 Y45.499 E4.0317
G1 X119.685 Y44.483 E4.0466
G1 X119.834 Y43.477 E4.0614
G1 X120.082 Y42.490 E4.0762
G1 X120.424 Y41.533 E4.0910
G1 X120.859 Y40.613 E4.1058
G1 X121.382 Y39.740 E4.1206
G1 X121.988 Y38.924 E4.1354
G1 X122.671 Y38.170 E4.1502
G1 X123.425 Y37.487 E4.1650
G1 X124.242 Y36.881 E4.1798
G1 X125.114 Y36.357 E4.1946
G1 X126.033 Y35.923 E4.2094
G1 X126.991 Y35.581 E4.2242
G1 X127.978 Y35.333 E4.2390
G1 X128.984 Y35.184 E4.2538
G1 X130.000 Y35.134 E4.2686
G1 X131.016 Y35.184 E4.2834
G1 X132.022 Y35.333 E4.2982
G1 X133.009 Y35.581 E4.3130
G1 X133.967 Y35.923 E4.3278
G1 X134.886 Y36.358 E4.3426
G1 X135.759 Y36.881 E4.3574
G1 X136.575 Y37.487 E4.3722
G1 X137.329 Y38.170 E4.3870
G1 X138.012 Y38.924 E4.4018
G1 X138.618 Y39.740 E4.4166
G1 X138.773 Y39.999 E4.4210
G0 X138.633 Y39.180 F10800
G1 X138.906 Y39.549 E4.4276 F3600
G1 X139.446 Y40.450 E4.4429
G1 X139.896 Y41.400 E4.4582
G1 X140.249 Y42.390 E4.4735
G1 X140.505 Y43.410 E4.4888
G1 X140.659 Y44.449 E4.5041
G1 X140.711 Y45.499 E4.5194
G1 X140.659 Y46.549 E4.5347
G1 X140.505 Y47.588 E4.5500
G1 X140.249 Y48.608 E4.5653
G1 X139.896 Y49.598 E4.5806
G1 X139.446 Y50.548 E4.5959
G1 X138.906 Y51.449 E4.6112
G1 X138.279 Y52.294 E4.6265
G1 X137.573 Y53.073 E4.6418
G1 X136.795 Y53.779 E4.6571
G1 X135.951 Y54.404 E4.6723
G1 X135.049 Y54.945 E4.6876
G1 X134.099 Y55.395 E4.7029
G1 X133.109 Y55.748 E4.7182
G1 X132.090 Y56.004 E4.7335
G1 X131.050 Y56.158 E4.7488
G1 X130.000 Y56.210 E4.7641
G1 X128.950 Y56.158 E4.7794
G1 X127.910 Y56.004 E4.7947
G1 X126.891 Y55.748 E4.8100
G1 X125.901 Y55.395 E4.8253
G1 X124.951 Y54.945 E4.8406
G1 X124.050 Y54.404 E4.8559
G1 X123.205 Y53.779 E4.8712
G1 X122.427 Y53.072 E4.8865
G1 X121.721 Y52.294 E4.9018
G1 X121.095 Y51.449 E4.9171
G1 X120.554 Y50.548 E4.9324
G1 X120.105 Y49.598 E4.9477
G1 X119.751 Y48.608 E4.9629
G1 X119.495 Y47.589 E4.9782
G1 X119.341 Y46.549 E4.9935
G1 X119.289 Y45.499 E5.0088
G1 X119.341 Y44.449 E5.0241
G1 X119.495 Y43.409 E5.0394
G1 X119.751 Y42.390 E5.0547
G1 X120.105 Y41.400 E5.0700
G1 X120.554 Y40.450 E5.0853
G1 X121.095 Y39.549 E5.1006
G1 X121.721 Y38.704 E5.1159
G1 X122.427 Y37.925 E5.1312
G1 X123.205 Y37.220 E5.1465
G1 X124.050 Y36.594 E5.1618
G1 X124.951 Y36.053 E5.1771
G1 X125.901 Y35.603 E5.1924
G1 X126.891 Y35.250 E5.2077
G1 X127.910 Y34.994 E5.2230
G1 X128.950 Y34.840 E5.2382
G1 X130.000 Y34.788 E5.2535
G1 X131.050 Y34.840 E5.2688
G1 X132.090 Y34.994 E5.2841
G1 X133.109 Y35.250 E5.2994
G1 X134.099 Y35.603 E5.3147
G1 X135.049 Y36.053 E5.3300
G1 X135.951 Y36.594 E5.3453
G1 X136.795 Y37.220 E5.3606
G1 X137.573 Y37.926 E5.3759
G1 X138.279 Y38.704 E5.3912
G1 X138.530 Y39.042 E5.3973
G0 X138.318 Y38.233 F10800
G1 X138.547 Y38.485 E5.4023 F3600
G1 X139.193 Y39.357 E5.4180
G1 X139.751 Y40.287 E5.4338
G1 X140.215 Y41.268 E5.4496
G1 X140.580 Y42.289 E5.4654
G1 X140.844 Y43.342 E5.4812
G1 X141.003 Y44.415 E5.4970
G1 X141.056 Y45.499 E5.5128
G1 X141.003 Y46.583 E5.5286
G1 X140.844 Y47.656 E5.5444
G1 X140.580 Y48.709 E5.5601
G1 X140.215 Y49.730 E5.5759
G1 X139.751 Y50.711 E5.5917
G1 X139.193 Y51.641 E5.6075
G1 X138.547 Y52.513 E5.6233
G1 X137.818 Y53.317 E5.6391
G1 X137.014 Y54.046 E5.6549
G1 X136.142 Y54.692 E5.6707
G1 X135.212 Y55.250 E5.6864
G1 X134.231 Y55.714 E5.7022
G1 X133.210 Y56.079 E5.7180
G1 X132.157 Y56.343 E5.7338
G1 X131.084 Y56.502 E5.7496
G1 X130.000 Y56.555 E5.7654
G1 X128.916 Y56.502 E5.7812
G1 X127.843 Y56.343 E5.7970
G1 X126.790 Y56.079 E5.8128
G1 X125.769 Y55.714 E5.8285
G1 X124.788 Y55.250 E5.8443
G1 X123.858 Y54.692 E5.8601
G1 X122.986 Y54.046 E5.8759
G1 X122.182 Y53.317 E5.8917
G1 X121.453 Y52.513 E5.9075
G1 X120.807 Y51.641 E5.9233
G1 X120.249 Y50.711 E5.9391
G1 X119.785 Y49.730 E5.9548
G1 X119.420 Y48.709 E5.9706
G1 X119.156 Y47.656 E5.9864
G1 X118.997 Y46.583 E6.0022
G1 X118.944 Y45.499 E6.0180
G1 X118.997 Y44.415 E6.0338
G1 X119.156 Y43.342 E6.0496
G1 X119.420 Y42.289 E6.0654
G1 X119.785 Y41.268 E6.0812
G1 X120.249 Y40.287 E6.0969
G1 X120.807 Y39.357 E6.1127
G1 X121.453 Y38.485 E6.1285
G1 X122.182 Y37.681 E6.1443
G1 X122.986 Y36.952 E6.1601
G1 X123.858 Y36.306 E6.1759
G1 X124.788 Y35.748 E6.1917
G1 X125.769 Y35.284 E6.2075
G1 X126.790 Y34.919 E6.2232
G1 X127.843 Y34.655 E6.2390
G1 X128.916 Y34.496 E6.2548
G1 X130.000 Y34.443 E6.2706
G1 X131.084 Y34.496 E6.2864
G1 X132.157 Y34.655 E6.3022
G1 X133.210 Y34.919 E6.3180
G1 X134.231 Y35.284 E6.3338
G1 X135.212 Y35.748 E6.3496
G1 X136.142 Y36.306 E6.3653
G1 X137.014 Y36.952 E6.3811
G1 X137.818 Y37.681 E6.3969
G1 X138.203 Y38.105 E6.4053
G0 X131.979 Y36.705 F10800
G1 X132.156 Y37.301 E6.4143 F3600
G1 X132.067 Y38.141 E6.4266
G1 X131.648 Y38.914 E6.4394
G1 X130.878 Y39.486 E6.4534
G1 X130.014 Y39.664 E6.4662
G1 X129.219 Y39.511 E6.4780
G1 X128.593 Y39.135 E6.4886
G1 X128.085 Y38.507 E6.5003
G1 X127.844 Y37.698 E6.5126
G1 X127.933 Y36.858 E6.5249
G1 X128.335 Y36.115 E6.5372
G1 X128.992 Y35.583 E6.5495
G1 X129.803 Y35.343 E6.5618
G1 X130.677 Y35.436 E6.5746
G1 X131.470 Y35.909 E6.5881
G1 X131.926 Y36.526 E6.5992
G1 X131.930 Y36.539 E6.5994
G0 X131.073 Y36.074 F10800
G1 X131.233 Y36.170 E6.6021 F3600
G1 X131.612 Y36.683 E6.6114
G1 X131.805 Y37.333 E6.6213
G1 X131.731 Y38.037 E6.6316
G1 X131.381 Y38.683 E6.6423
G1 X130.733 Y39.163 E6.6540
G1 X130.012 Y39.312 E6.6647
G1 X129.345 Y39.183 E6.6746
G1 X128.823 Y38.870 E6.6835
G1 X128.396 Y38.343 E6.6933
G1 X128.195 Y37.665 E6.7036
G1 X128.269 Y36.962 E6.7139
G1 X128.606 Y36.340 E6.7242
G1 X129.156 Y35.894 E6.7345
G1 X129.835 Y35.694 E6.7448
G1 X130.566 Y35.771 E6.7555
G1 X130.925 Y35.986 E6.7616
G0 X130.022 Y36.061 F10800
G1 X130.454 Y36.106 E6.7679 F3600
G1 X130.997 Y36.431 E6.7771
G1 X131.299 Y36.839 E6.7845
G1 X131.455 Y37.365 E6.7925
G1 X131.395 Y37.932 E6.8008
G1 X131.114 Y38.451 E6.8094
G1 X130.589 Y38.841 E6.8189
G1 X130.009 Y38.960 E6.8275
G1 X129.470 Y38.856 E6.8355
G1 X129.053 Y38.606 E6.8426
G1 X128.708 Y38.179 E6.8506
G1 X128.545 Y37.633 E6.8589
G1 X128.605 Y37.066 E6.8671
G1 X128.876 Y36.565 E6.8754
G1 X129.320 Y36.206 E6.8837
G1 X129.851 Y36.049 E6.8918
G0 X125.036 Y40.707 F10800
G1 X125.251 Y40.491 E6.8962 F3600
G1 X126.031 Y41.448 E6.9142
G1 X125.964 Y41.493 E6.9154
G1 X125.734 Y41.183 E6.9210
G1 X125.051 Y40.810 E6.9324
G0 X124.905 Y41.123 F10800
G1 X124.425 Y40.861 E6.9403 F3600
G1 X124.871 Y40.369 E6.9500
G1 X125.289 Y39.991 E6.9582
G1 X126.538 Y41.524 E6.9869
G1 X126.125 Y41.801 E6.9942
G1 X125.963 Y42.072 E6.9988
G1 X125.502 Y41.450 E7.0100
G1 X125.056 Y41.206 E7.0174
G0 X125.475 Y41.993 F10800
G1 X125.270 Y41.716 E7.0224 F3600
G1 X123.907 Y40.972 E7.0450
G1 X124.125 Y40.679 E7.0504
G1 X124.627 Y40.125 E7.0612
G1 X125.179 Y39.624 E7.0721
G1 X125.471 Y39.407 E7.0774
G1 X125.594 Y39.818 E7.0836
G1 X126.754 Y41.251 E7.1104
G1 X127.181 Y41.508 E7.1177
G1 X126.382 Y42.045 E7.1317
G1 X125.994 Y42.692 E7.1427
G1 X125.578 Y42.132 E7.1528
G0 X125.763 Y42.961 F10800
G1 X125.038 Y41.983 E7.1706 F3600
G1 X123.394 Y41.084 E7.1978
G1 X123.858 Y40.459 E7.2092
G1 X124.382 Y39.880 E7.2205
G1 X124.959 Y39.357 E7.2319
G1 X125.587 Y38.892 E7.2432
G1 X125.665 Y38.845 E7.2445
G1 X125.905 Y39.654 E7.2568
G1 X126.984 Y40.986 E7.2818
G1 X127.825 Y41.492 E7.2960
G1 X126.638 Y42.288 E7.3168
G1 X126.024 Y43.313 E7.3342
G1 X125.866 Y43.100 E7.3381
G0 X123.739 Y44.288 F10800
G1 X123.987 Y44.622 E7.3441 F3600
G1 X124.165 Y45.485 E7.3570
G1 X124.005 Y46.314 E7.3692
G1 X123.560 Y46.990 E7.3810
G1 X122.944 Y47.447 E7.3922
G1 X122.050 Y47.671 E7.4056
G1 X121.185 Y47.504 E7.4184
G1 X120.478 Y47.040 E7.4307
G1 X120.026 Y46.370 E7.4425
G1 X119.848 Y45.662 E7.4531
G1 X119.932 Y44.857 E7.4649
G1 X120.353 Y44.082 E7.4777
G1 X121.095 Y43.533 E7.4911
G1 X121.837 Y43.347 E7.5023
G1 X122.642 Y43.432 E7.5140
G1 X123.416 Y43.851 E7.5269
G1 X123.637 Y44.149 E7.5323
G0 X122.760 Y43.889 F10800
G1 X123.184 Y44.118 E7.5393 F3600
G1 X123.664 Y44.766 E7.5510
G1 X123.813 Y45.487 E7.5617
G1 X123.679 Y46.182 E7.5720
G1 X123.306 Y46.749 E7.5819
G1 X122.794 Y47.129 E7.5912
G1 X122.040 Y47.317 E7.6025
G1 X121.318 Y47.178 E7.6132
G1 X120.726 Y46.789 E7.6235
G1 X120.346 Y46.226 E7.6334
G1 X120.198 Y45.637 E7.6422
G1 X120.269 Y44.962 E7.6521
G1 X120.620 Y44.314 E7.6628
G1 X121.245 Y43.851 E7.6741
G1 X121.862 Y43.697 E7.6834
G1 X122.537 Y43.768 E7.6933
G1 X122.608 Y43.806 E7.6944
G0 X121.678 Y44.099 F10800
G1 X121.887 Y44.046 E7.6976 F3600
G1 X122.433 Y44.104 E7.7056
G1 X122.952 Y44.385 E7.7142
G1 X123.342 Y44.911 E7.7237
G1 X123.461 Y45.489 E7.7323
G1 X123.353 Y46.049 E7.7406
G1 X123.051 Y46.508 E7.7486
G1 X122.643 Y46.810 E7.7560
G1 X122.030 Y46.964 E7.7652
G1 X121.450 Y46.852 E7.7738
G1 X120.973 Y46.539 E7.7821
G1 X120.665 Y46.083 E7.7901
G1 X120.547 Y45.612 E7.7971
G1 X120.605 Y45.066 E7.8051
G1 X120.887 Y44.546 E7.8137
G1 X121.395 Y44.169 E7.8229
G1 X121.511 Y44.141 E7.8247
G0 X122.597 Y44.795 F10800
G0 X125.221 Y50.473
G1 X124.980 Y50.234 E7.8296 F3600
G1 X125.848 Y49.591 E7.8453
G1 X125.326 Y50.460 E7.8601
G0 X125.614 Y50.651 F10800
G1 X125.361 Y51.073 E7.8672 F3600
G1 X124.871 Y50.628 E7.8768
G1 X124.468 Y50.184 E7.8856
G1 X125.852 Y49.158 E7.9106
G1 X126.019 Y48.904 E7.9151
G1 X126.434 Y49.465 E7.9252
G1 X126.538 Y49.527 E7.9270
G1 X126.118 Y49.812 E7.9344
G1 X125.703 Y50.503 E7.9461
G0 X126.413 Y50.029 F10800
G1 X126.374 Y50.055 E7.9468 F3600
G1 X125.459 Y51.581 E7.9727
G1 X125.180 Y51.374 E7.9777
G1 X124.627 Y50.873 E7.9886
G1 X124.125 Y50.320 E7.9995
G1 X123.924 Y50.048 E8.0044
G1 X124.147 Y49.992 E8.0077
G1 X125.597 Y48.917 E8.0340
G1 X126.003 Y48.301 E8.0447
G1 X126.671 Y49.205 E8.0611
G1 X127.180 Y49.509 E8.0697
G1 X126.556 Y49.932 E8.0807
G0 X127.393 Y49.782 F10800
G1 X126.631 Y50.298 E8.0941 F3600
G1 X125.588 Y52.037 E8.1236
G1 X125.581 Y52.102 E8.1245
G1 X124.960 Y51.641 E8.1358
G1 X124.382 Y51.117 E8.1471
G1 X123.858 Y50.539 E8.1585
G1 X123.394 Y49.913 E8.1698
G1 X123.348 Y49.837 E8.1711
G1 X123.997 Y49.674 E8.1809
G1 X125.343 Y48.676 E8.2052
G1 X125.987 Y47.698 E8.2223
G1 X126.908 Y48.944 E8.2448
G1 X127.822 Y49.491 E8.2603
G1 X127.536 Y49.685 E8.2653
G0 X128.390 Y49.575 F10800
G1 X128.269 Y49.605 E8.2672 F3600
G1 X126.888 Y50.541 E8.2914
G1 X125.924 Y52.149 E8.3187
G1 X125.868 Y52.678 E8.3264
G1 X125.394 Y52.393 E8.3345
G1 X124.741 Y51.908 E8.3463
G1 X124.138 Y51.361 E8.3582
G1 X123.591 Y50.758 E8.3700
G1 X123.106 Y50.105 E8.3819
G1 X122.812 Y49.615 E8.3902
G1 X123.847 Y49.356 E8.4057
G1 X125.088 Y48.436 E8.4282
G1 X125.961 Y47.110 E8.4513
G1 X126.011 Y46.852 E8.4551
G1 X126.125 Y47.303 E8.4619
G1 X127.144 Y48.683 E8.4868
G1 X128.460 Y49.471 E8.5092
G1 X128.652 Y49.509 E8.5120
G1 X128.558 Y49.533 E8.5134
G0 X125.967 Y43.967 F10800
G1 X125.923 Y43.756 E8.5166 F3600
G1 X124.806 Y42.250 E8.5438
G1 X123.268 Y41.415 E8.5693
G1 X122.822 Y41.368 E8.5758
G1 X123.106 Y40.892 E8.5839
G1 X123.591 Y40.240 E8.5957
G1 X124.138 Y39.636 E8.6076
G1 X124.740 Y39.090 E8.6194
G1 X125.394 Y38.605 E8.6313
G1 X125.869 Y38.320 E8.6393
G1 X126.216 Y39.490 E8.6571
G1 X127.213 Y40.722 E8.6801
G1 X128.467 Y41.475 E8.7014
G1 X128.647 Y41.510 E8.7041
G1 X128.280 Y41.602 E8.7096
G1 X126.894 Y42.532 E8.7339
G1 X126.028 Y43.978 E8.7584
G0 X129.378 Y44.191 F10800
G1 X129.419 Y44.163 E8.7591 F3600
G1 X129.882 Y44.047 E8.7661
G1 X130.427 Y44.102 E8.7740
G1 X130.950 Y44.383 E8.7827
G1 X131.344 Y44.915 E8.7923
G1 X131.461 Y45.497 E8.8009
G1 X131.355 Y46.033 E8.8089
G1 X131.098 Y46.462 E8.8162
G1 X130.585 Y46.843 E8.8255
G1 X130.003 Y46.960 E8.8341
G1 X129.466 Y46.854 E8.8421
G1 X129.036 Y46.597 E8.8494
G1 X128.670 Y46.102 E8.8583
G1 X128.548 Y45.616 E8.8656
G1 X128.605 Y45.049 E8.8739
G1 X128.946 Y44.481 E8.8835
G1 X129.234 Y44.287 E8.8886
G0 X130.336 Y43.746 F10800
G1 X130.530 Y43.765 E8.8914 F3600
G1 X131.181 Y44.115 E8.9022
G1 X131.668 Y44.771 E8.9141
G1 X131.813 Y45.496 E8.9248
G1 X131.682 Y46.158 E8.9347
G1 X131.359 Y46.699 E8.9438
G1 X130.728 Y47.166 E8.9552
G1 X130.004 Y47.313 E8.9660
G1 X129.341 Y47.181 E8.9758
G1 X128.800 Y46.858 E8.9850
G1 X128.352 Y46.252 E8.9960
G1 X128.199 Y45.642 E9.0051
G1 X128.270 Y44.938 E9.0154
G1 X128.689 Y44.237 E9.0273
G1 X129.277 Y43.843 E9.0376
G1 X129.856 Y43.698 E9.0463
G1 X130.165 Y43.728 E9.0508
G0 X131.358 Y43.819 F10800
G1 X131.412 Y43.847 E9.0517 F3600
G1 X131.991 Y44.627 E9.0658
G1 X132.165 Y45.496 E9.0787
G1 X132.009 Y46.284 E9.0904
G1 X131.620 Y46.935 E9.1015
G1 X130.872 Y47.489 E9.1150
G1 X130.004 Y47.665 E9.1279
G1 X129.215 Y47.509 E9.1396
G1 X128.564 Y47.119 E9.1506
G1 X128.033 Y46.402 E9.1636
G1 X127.849 Y45.667 E9.1746
G1 X127.934 Y44.827 E9.1869
G1 X128.433 Y43.994 E9.2011
G1 X129.134 Y43.523 E9.2133
G1 X129.831 Y43.348 E9.2238
G1 X130.633 Y43.428 E9.2355
G1 X131.206 Y43.737 E9.2450
G0 X132.331 Y44.568 F10800
G1 X132.517 Y45.495 E9.2588 F3600
G1 X132.337 Y46.410 E9.2723
G1 X131.881 Y47.172 E9.2852
G1 X131.016 Y47.812 E9.3009
G1 X130.005 Y48.017 E9.3159
G1 X129.089 Y47.836 E9.3295
G1 X128.327 Y47.380 E9.3424
G1 X127.715 Y46.552 E9.3574
G1 X127.500 Y45.693 E9.3703
G1 X127.598 Y44.716 E9.3846
G1 X128.176 Y43.750 E9.4010
G1 X128.992 Y43.203 E9.4152
G1 X129.805 Y42.999 E9.4274
G1 X130.736 Y43.091 E9.4410
G1 X131.643 Y43.580 E9.4560
G1 X132.263 Y44.414 E9.4712
G0 X132.921 Y47.450 F10800
G1 X132.664 Y47.881 E9.4785 F3600
G1 X131.447 Y48.782 E9.5005
G1 X130.008 Y49.073 E9.5219
G1 X128.712 Y48.817 E9.5411
G1 X127.618 Y48.162 E9.5596
G1 X126.761 Y47.003 E9.5806
G1 X126.451 Y45.769 E9.5991
G1 X126.591 Y44.382 E9.6194
G1 X127.407 Y43.019 E9.6425
G1 X128.565 Y42.242 E9.6628
G1 X129.728 Y41.950 E9.6803
G1 X131.044 Y42.082 E9.6995
G1 X132.337 Y42.777 E9.7209
G1 X133.284 Y44.052 E9.7440
G1 X133.574 Y45.494 E9.7654
G1 X133.318 Y46.787 E9.7846
G1 X133.010 Y47.302 E9.7933
G0 X133.982 Y48.366 F10800
G1 X134.013 Y48.315 E9.7942 F3600
G1 X134.673 Y49.205 E9.8103
G1 X136.075 Y50.045 E9.8341
G1 X135.874 Y50.321 E9.8391
G1 X135.373 Y50.874 E9.8499
G1 X134.821 Y51.374 E9.8607
G1 X134.529 Y51.590 E9.8660
G1 X134.407 Y51.180 E9.8723
G1 X133.247 Y49.745 E9.8991
G1 X132.815 Y49.487 E9.9064
G1 X133.707 Y48.826 E9.9226
G1 X133.894 Y48.514 E9.9279
G0 X133.059 Y48.877 F10800
G1 X133.446 Y48.590 E9.9349 F3600
G1 X133.982 Y47.694 E9.9501
G1 X134.909 Y48.944 E9.9727
G1 X136.345 Y49.804 E9.9971
G1 X136.638 Y49.860 E10.0014
G1 X136.142 Y50.539 E10.0136
G1 X135.617 Y51.118 E10.0250
G1 X135.040 Y51.641 E10.0363
G1 X134.414 Y52.105 E10.0477
G1 X134.336 Y52.152 E10.0490
G1 X134.096 Y51.344 E10.0613
G1 X133.017 Y50.010 E10.0863
G1 X132.194 Y49.517 E10.1002
G1 X132.920 Y48.980 E10.1134
G0 X134.266 Y49.236 F10800
G1 X134.436 Y49.466 E10.1175 F3600
G1 X135.568 Y50.144 E10.1367
G1 X135.128 Y50.630 E10.1463
G1 X134.712 Y51.007 E10.1544
G1 X133.477 Y49.480 E10.1830
G1 X133.436 Y49.456 E10.1837
G1 X133.968 Y49.063 E10.1933
G1 X134.044 Y48.936 E10.1955
G1 X134.163 Y49.097 E10.1984
G0 X134.828 Y50.103 F10800
G1 X135.030 Y50.224 E10.2018 F3600
G1 X134.750 Y50.506 E10.2076
G1 X133.944 Y49.510 E10.2263
G1 X134.006 Y49.465 E10.2274
G1 X134.200 Y49.727 E10.2321
G1 X134.680 Y50.014 E10.2402
G0 X132.228 Y52.328 F10800
G1 X132.227 Y52.327 E10.2403 F3600
G1 X131.637 Y51.598 E10.2539
G1 X130.869 Y51.137 E10.2669
G1 X129.855 Y50.986 E10.2819
G1 X128.985 Y51.205 E10.2949
G1 X128.172 Y51.756 E10.3092
G1 X127.601 Y52.709 E10.3254
G1 X127.498 Y53.686 E10.3397
G1 X127.716 Y54.555 E10.3527
G1 X128.317 Y55.366 E10.3674
G1 X128.045 Y55.326 E10.3714
G1 X127.091 Y55.087 E10.3857
G1 X126.166 Y54.756 E10.4000
G1 X125.277 Y54.336 E10.4143
G1 X124.434 Y53.830 E10.4286
G1 X123.644 Y53.244 E10.4429
G1 X122.915 Y52.584 E10.4572
G1 X122.255 Y51.855 E10.4715
G1 X121.669 Y51.065 E10.4859
G1 X121.164 Y50.222 E10.5002
G1 X120.743 Y49.333 E10.5145
G1 X120.412 Y48.408 E10.5288
G1 X120.173 Y47.454 E10.5431
G1 X120.126 Y47.135 E10.5478
G1 X120.231 Y47.291 E10.5505
G1 X121.053 Y47.830 E10.5648
G1 X122.060 Y48.024 E10.5797
G1 X123.094 Y47.765 E10.5953
G1 X123.815 Y47.231 E10.6083
G1 X124.331 Y46.447 E10.6220
G1 X124.517 Y45.483 E10.6363
G1 X124.310 Y44.478 E10.6512
G1 X123.648 Y43.585 E10.6674
G1 X122.746 Y43.096 E10.6823
G1 X121.813 Y42.997 E10.6959
G1 X120.944 Y43.215 E10.7090
G1 X120.133 Y43.816 E10.7237
G1 X120.173 Y43.544 E10.7277
G1 X120.412 Y42.590 E10.7420
G1 X120.743 Y41.665 E10.7563
G1 X121.164 Y40.776 E10.7706
G1 X121.669 Y39.932 E10.7849
G1 X122.255 Y39.143 E10.7992
G1 X122.915 Y38.414 E10.8135
G1 X123.644 Y37.754 E10.8278
G1 X124.434 Y37.168 E10.8421
G1 X125.277 Y36.662 E10.8564
G1 X126.166 Y36.242 E10.8707
G1 X127.091 Y35.911 E10.8850
G1 X128.045 Y35.672 E10.8993
G1 X128.398 Y35.620 E10.9045
G1 X128.064 Y35.891 E10.9108
G1 X127.596 Y36.754 E10.9251
G1 X127.494 Y37.730 E10.9393
G1 X127.773 Y38.671 E10.9536
G1 X128.363 Y39.399 E10.9673
G1 X129.094 Y39.838 E10.9797
G1 X130.016 Y40.016 E10.9933
G1 X131.022 Y39.809 E11.0083
G1 X131.915 Y39.146 E11.0245
G1 X132.404 Y38.245 E11.0394
G1 X132.506 Y37.268 E11.0537
G1 X132.240 Y36.370 E11.0673
G1 X131.706 Y35.648 E11.0804
G1 X131.678 Y35.631 E11.0808
G1 X131.955 Y35.672 E11.0849
G1 X132.909 Y35.911 E11.0992
G1 X133.834 Y36.242 E11.1135
G1 X134.723 Y36.662 E11.1278
G1 X135.567 Y37.168 E11.1421
G1 X136.356 Y37.754 E11.1564
G1 X137.085 Y38.414 E11.1708
G1 X137.745 Y39.143 E11.1851
G1 X138.331 Y39.932 E11.1994
G1 X138.836 Y40.776 E11.2137
G1 X139.257 Y41.665 E11.2280
G1 X139.588 Y42.590 E11.2423
G1 X139.827 Y43.545 E11.2566
G1 X139.874 Y43.865 E11.2613
G1 X139.768 Y43.707 E11.2641
G1 X138.912 Y43.144 E11.2790
G1 X137.856 Y42.987 E11.2945
G1 X136.986 Y43.204 E11.3076
G1 X136.172 Y43.756 E11.3219
G1 X135.600 Y44.710 E11.3381
G1 X135.499 Y45.686 E11.3523
G1 X135.715 Y46.554 E11.3654
G1 X136.327 Y47.379 E11.3803
G1 X137.096 Y47.839 E11.3933
G1 X138.059 Y48.024 E11.4076
G1 X139.095 Y47.765 E11.4232
G1 X139.850 Y47.205 E11.4368
G1 X139.868 Y47.175 E11.4373
G1 X139.827 Y47.454 E11.4414
G1 X139.588 Y48.408 E11.4558
G1 X139.257 Y49.333 E11.4701
G1 X138.837 Y50.222 E11.4844
G1 X138.331 Y51.065 E11.4987
G1 X137.745 Y51.855 E11.5130
G1 X137.084 Y52.584 E11.5273
G1 X136.356 Y53.244 E11.5416
G1 X135.567 Y53.830 E11.5559
G1 X134.723 Y54.335 E11.5702
G1 X133.834 Y54.756 E11.5845
G1 X132.909 Y55.087 E11.5988
G1 X131.955 Y55.326 E11.6131
G1 X131.635 Y55.373 E11.6178
G1 X131.791 Y55.268 E11.6206
G1 X132.356 Y54.411 E11.6355
G1 X132.519 Y53.310 E11.6517
G1 X132.277 Y52.494 E11.6641
G0 X131.899 Y51.373 F10800
G1 X131.867 Y51.333 E11.6648 F3600
G1 X130.987 Y50.806 E11.6798
G1 X129.838 Y50.635 E11.6967
G1 X128.842 Y50.885 E11.7116
G1 X127.916 Y51.513 E11.7279
G1 X127.265 Y52.597 E11.7463
G1 X127.148 Y53.711 E11.7626
G1 X127.398 Y54.705 E11.7775
G1 X127.491 Y54.831 E11.7798
G1 X127.192 Y54.756 E11.7843
G1 X126.298 Y54.437 E11.7981
G1 X125.440 Y54.031 E11.8119
G1 X124.626 Y53.542 E11.8257
G1 X123.863 Y52.977 E11.8396
G1 X123.160 Y52.339 E11.8534
G1 X122.522 Y51.636 E11.8672
G1 X121.957 Y50.873 E11.8810
G1 X121.469 Y50.059 E11.8948
G1 X121.062 Y49.201 E11.9086
G1 X120.743 Y48.307 E11.9224
G1 X120.663 Y47.987 E11.9272
G1 X120.920 Y48.156 E11.9317
G1 X122.069 Y48.377 E11.9487
G1 X123.245 Y48.083 E11.9664
G1 X124.069 Y47.472 E11.9813
G1 X124.657 Y46.580 E11.9969
G1 X124.869 Y45.480 E12.0131
G1 X124.632 Y44.333 E12.0302
G1 X123.879 Y43.318 E12.0486
G1 X122.850 Y42.759 E12.0656
G1 X121.788 Y42.647 E12.0812
G1 X120.794 Y42.897 E12.0961
G1 X120.668 Y42.990 E12.0984
G1 X120.743 Y42.691 E12.1029
G1 X121.062 Y41.797 E12.1167
G1 X121.469 Y40.939 E12.1305
G1 X121.957 Y40.124 E12.1443
G1 X122.522 Y39.362 E12.1581
G1 X123.160 Y38.659 E12.1719
G1 X123.863 Y38.021 E12.1857
G1 X124.626 Y37.456 E12.1995
G1 X125.440 Y36.967 E12.2134
G1 X126.298 Y36.561 E12.2272
G1 X127.192 Y36.242 E12.2410
G1 X127.527 Y36.158 E12.2460
G1 X127.260 Y36.649 E12.2541
G1 X127.143 Y37.762 E12.2704
G1 X127.462 Y38.835 E12.2867
G1 X128.133 Y39.664 E12.3022
G1 X128.969 Y40.166 E12.3164
G1 X130.018 Y40.368 E12.3320
G1 X131.167 Y40.131 E12.3490
G1 X132.181 Y39.378 E12.3674
G1 X132.740 Y38.350 E12.3844
G1 X132.857 Y37.236 E12.4007
G1 X132.553 Y36.213 E12.4163
G1 X132.522 Y36.170 E12.4170
G1 X132.808 Y36.242 E12.4213
G1 X133.702 Y36.561 E12.4352
G1 X134.560 Y36.967 E12.4490
G1 X135.375 Y37.456 E12.4628
G1 X136.137 Y38.021 E12.4766
G1 X136.840 Y38.659 E12.4904
G1 X137.478 Y39.362 E12.5042
G1 X138.044 Y40.124 E12.5180
G1 X138.531 Y40.939 E12.5319
G1 X138.938 Y41.797 E12.5457
G1 X139.257 Y42.690 E12.5595
G1 X139.337 Y43.011 E12.5643
G1 X139.038 Y42.813 E12.5695
G1 X137.839 Y42.635 E12.5871
G1 X136.843 Y42.884 E12.6021
G1 X135.915 Y43.513 E12.6184
G1 X135.265 Y44.598 E12.6368
G1 X135.149 Y45.711 E12.6531
G1 X135.397 Y46.705 E12.6680
G1 X136.090 Y47.639 E12.6849
G1 X136.971 Y48.166 E12.6998
G1 X138.069 Y48.377 E12.7161
G1 X139.245 Y48.083 E12.7338
G1 X139.329 Y48.021 E12.7353
G1 X139.257 Y48.308 E12.7396
G1 X138.938 Y49.201 E12.7534
G1 X138.532 Y50.059 E12.7672
G1 X138.044 Y50.873 E12.7810
G1 X137.478 Y51.636 E12.7948
G1 X136.840 Y52.340 E12.8086
G1 X136.137 Y52.977 E12.8224
G1 X135.375 Y53.542 E12.8363
G1 X134.560 Y54.031 E12.8501
G1 X133.702 Y54.437 E12.8639
G1 X132.808 Y54.756 E12.8777
G1 X132.489 Y54.836 E12.8825
G1 X132.686 Y54.537 E12.8877
G1 X132.872 Y53.285 E12.9061
G1 X132.539 Y52.163 E12.9232
G1 X132.008 Y51.507 E12.9354
G0 X131.376 Y51.844 F10800
G1 X131.407 Y51.863 E12.9360 F3600
G1 X131.916 Y52.491 E12.9477
G1 X132.166 Y53.335 E12.9605
G1 X132.026 Y54.284 E12.9745
G1 X131.540 Y55.021 E12.9873
G1 X130.841 Y55.493 E12.9996
G1 X130.050 Y55.657 E13.0114
G1 X129.327 Y55.550 E13.0220
G1 X128.584 Y55.147 E13.0343
G1 X128.034 Y54.404 E13.0477
G1 X127.848 Y53.662 E13.0589
G1 X127.936 Y52.821 E13.0712
G1 X128.429 Y51.999 E13.0851
G1 X129.128 Y51.525 E13.0974
G1 X129.872 Y51.338 E13.1086
G1 X130.750 Y51.469 E13.1215
G1 X131.228 Y51.756 E13.1296
G0 X130.347 Y51.758 F10800
G1 X130.631 Y51.800 E13.1338 F3600
G1 X131.177 Y52.128 E13.1431
G1 X131.604 Y52.655 E13.1529
G1 X131.813 Y53.360 E13.1636
G1 X131.696 Y54.158 E13.1754
G1 X131.290 Y54.773 E13.1861
G1 X130.704 Y55.169 E13.1964
G1 X130.040 Y55.306 E13.2063
G1 X129.438 Y55.217 E13.2151
G1 X128.816 Y54.880 E13.2254
G1 X128.352 Y54.254 E13.2367
G1 X128.198 Y53.637 E13.2460
G1 X128.272 Y52.933 E13.2563
G1 X128.686 Y52.241 E13.2680
G1 X129.272 Y51.845 E13.2783
G1 X129.890 Y51.690 E13.2876
G1 X130.176 Y51.732 E13.2918
G0 X129.375 Y52.192 F10800
G1 X129.415 Y52.165 E13.2925 F3600
G1 X129.907 Y52.041 E13.2999
G1 X130.512 Y52.131 E13.3088
G1 X130.947 Y52.392 E13.3162
G1 X131.293 Y52.819 E13.3242
G1 X131.461 Y53.385 E13.3328
G1 X131.365 Y54.032 E13.3423
G1 X131.040 Y54.526 E13.3509
G1 X130.568 Y54.845 E13.3592
G1 X130.030 Y54.956 E13.3672
G1 X129.549 Y54.885 E13.3742
G1 X129.047 Y54.613 E13.3825
G1 X128.670 Y54.104 E13.3918
G1 X128.547 Y53.612 E13.3991
G1 X128.607 Y53.045 E13.4074
G1 X128.943 Y52.484 E13.4169
G1 X129.232 Y52.289 E13.4220
G0 X129.395 Y49.678 F10800
G1 X128.412 Y49.925 E13.4368 F3600
G1 X127.145 Y50.784 E13.4590
G1 X126.259 Y52.261 E13.4841
G1 X126.158 Y53.225 E13.4982
G1 X125.929 Y53.117 E13.5019
G1 X125.202 Y52.680 E13.5142
G1 X124.521 Y52.175 E13.5266
G1 X123.893 Y51.606 E13.5389
G1 X123.324 Y50.978 E13.5512
G1 X122.819 Y50.298 E13.5636
G1 X122.383 Y49.570 E13.5759
G1 X122.297 Y49.388 E13.5788
G1 X123.696 Y49.038 E13.5998
G1 X124.833 Y48.195 E13.6204
G1 X125.635 Y46.978 E13.6416
G1 X125.925 Y45.474 E13.6639
G1 X125.600 Y43.900 E13.6873
G1 X124.574 Y42.517 E13.7124
G1 X123.164 Y41.751 E13.7357
G1 X122.275 Y41.657 E13.7487
G1 X122.383 Y41.428 E13.7524
G1 X122.819 Y40.700 E13.7647
G1 X123.324 Y40.020 E13.7771
G1 X123.893 Y39.392 E13.7894
G1 X124.521 Y38.823 E13.8017
G1 X125.202 Y38.318 E13.8141
G1 X125.929 Y37.881 E13.8264
G1 X126.098 Y37.801 E13.8291
G1 X126.092 Y37.859 E13.8300
G1 X126.528 Y39.326 E13.8523
G1 X127.443 Y40.457 E13.8734
G1 X128.592 Y41.148 E13.8929
G1 X130.025 Y41.425 E13.9142
G1 X131.601 Y41.099 E13.9376
G1 X132.982 Y40.073 E13.9626
G1 X133.748 Y38.663 E13.9860
G1 X133.842 Y37.773 E13.9990
G1 X134.071 Y37.881 E14.0027
G1 X134.798 Y38.318 E14.0150
G1 X135.479 Y38.823 E14.0274
G1 X136.107 Y39.392 E14.0397
G1 X136.676 Y40.020 E14.0520
G1 X137.181 Y40.700 E14.0644
G1 X137.617 Y41.428 E14.0767
G1 X137.700 Y41.602 E14.0795
G1 X136.414 Y41.923 E14.0988
G1 X135.145 Y42.784 E14.1211
G1 X134.259 Y44.263 E14.1462
G1 X134.101 Y45.785 E14.1685
G1 X134.442 Y47.155 E14.1890
G1 X135.382 Y48.422 E14.2120
G1 X136.596 Y49.149 E14.2326
G1 X137.715 Y49.364 E14.2491
G1 X137.618 Y49.570 E14.2525
G1 X137.181 Y50.297 E14.2648
G1 X136.676 Y50.978 E14.2771
G1 X136.106 Y51.607 E14.2895
G1 X135.479 Y52.175 E14.3018
G1 X134.799 Y52.680 E14.3141
G1 X134.071 Y53.117 E14.3265
G1 X133.923 Y53.187 E14.3289
G1 X133.473 Y51.672 E14.3519
G1 X132.557 Y50.539 E14.3731
G1 X131.344 Y49.812 E14.3936
G1 X129.786 Y49.580 E14.4166
G1 X129.562 Y49.636 E14.4199
G0 X130.412 Y50.022 F10800
G1 X129.803 Y49.932 E14.4289 F3600
G1 X128.555 Y50.245 E14.4476
G1 X127.402 Y51.027 E14.4679
G1 X126.594 Y52.373 E14.4907
G1 X126.450 Y53.745 E14.5108
G1 X125.766 Y53.422 E14.5218
G1 X125.010 Y52.968 E14.5346
G1 X124.302 Y52.443 E14.5474
G1 X123.649 Y51.850 E14.5603
G1 X123.056 Y51.197 E14.5731
G1 X122.531 Y50.489 E14.5859
G1 X122.078 Y49.733 E14.5988
G1 X121.739 Y49.017 E14.6103
G1 X122.089 Y49.084 E14.6155
G1 X123.546 Y48.719 E14.6373
G1 X124.579 Y47.954 E14.6560
G1 X125.309 Y46.845 E14.6754
G1 X125.573 Y45.476 E14.6957
G1 X125.278 Y44.045 E14.7169
G1 X124.343 Y42.784 E14.7398
G1 X123.059 Y42.087 E14.7610
G1 X121.754 Y41.949 E14.7801
G1 X122.079 Y41.265 E14.7911
G1 X122.531 Y40.508 E14.8040
G1 X123.056 Y39.801 E14.8168
G1 X123.649 Y39.148 E14.8296
G1 X124.302 Y38.555 E14.8424
G1 X125.010 Y38.031 E14.8553
G1 X125.766 Y37.576 E14.8681
G1 X126.505 Y37.227 E14.8800
G1 X126.442 Y37.827 E14.8888
G1 X126.839 Y39.163 E14.9091
G1 X127.673 Y40.193 E14.9283
G1 X128.718 Y40.820 E14.9461
G1 X130.023 Y41.073 E14.9654
G1 X131.456 Y40.777 E14.9867
G1 X132.715 Y39.841 E15.0095
G1 X133.412 Y38.559 E15.0308
G1 X133.549 Y37.253 E15.0499
G1 X134.234 Y37.576 E15.0609
G1 X134.990 Y38.031 E15.0737
G1 X135.698 Y38.555 E15.0866
G1 X136.351 Y39.148 E15.0994
G1 X136.944 Y39.801 E15.1122
G1 X137.469 Y40.508 E15.1250
G1 X137.922 Y41.265 E15.1379
G1 X138.271 Y42.001 E15.1497
G1 X137.805 Y41.932 E15.1566
G1 X136.557 Y42.243 E15.1753
G1 X135.402 Y43.027 E15.1956
G1 X134.594 Y44.374 E15.2185
G1 X134.450 Y45.760 E15.2387
G1 X134.760 Y47.005 E15.2574
G1 X135.618 Y48.161 E15.2784
G1 X136.721 Y48.822 E15.2971
G1 X138.089 Y49.084 E15.3173
G1 X138.248 Y49.044 E15.3197
G1 X137.922 Y49.733 E15.3308
G1 X137.469 Y50.489 E15.3437
G1 X136.944 Y51.197 E15.3565
G1 X136.351 Y51.851 E15.3693
G1 X135.698 Y52.443 E15.3821
G1 X134.991 Y52.968 E15.3950
G1 X134.234 Y53.421 E15.4078
G1 X133.498 Y53.770 E15.4196
G1 X133.577 Y53.236 E15.4275
G1 X133.162 Y51.836 E15.4487
G1 X132.327 Y50.804 E15.4681
G1 X131.225 Y50.143 E15.4868
G1 X130.582 Y50.047 E15.4962
G0 X131.274 Y50.575 F10800
G1 X131.106 Y50.474 E15.4991 F3600
G1 X129.820 Y50.283 E15.5180
G1 X128.699 Y50.565 E15.5348
G1 X127.659 Y51.270 E15.5531
G1 X126.930 Y52.485 E15.5737
G1 X126.798 Y53.736 E15.5920
G1 X126.940 Y54.300 E15.6005
G1 X126.430 Y54.118 E15.6083
G1 X125.603 Y53.726 E15.6217
G1 X124.818 Y53.255 E15.6350
G1 X124.083 Y52.710 E15.6483
G1 X123.404 Y52.095 E15.6616
G1 X122.789 Y51.416 E15.6750
G1 X122.244 Y50.681 E15.6883
G1 X121.773 Y49.896 E15.7016
G1 X121.382 Y49.069 E15.7149
G1 X121.201 Y48.562 E15.7227
G1 X122.079 Y48.731 E15.7358
G1 X123.395 Y48.401 E15.7555
G1 X124.324 Y47.713 E15.7723
G1 X124.983 Y46.712 E15.7898
G1 X125.221 Y45.478 E15.8080
G1 X124.955 Y44.189 E15.8272
G1 X124.111 Y43.051 E15.8478
G1 X122.955 Y42.423 E15.8670
G1 X121.763 Y42.297 E15.8844
G1 X121.200 Y42.439 E15.8929
G1 X121.382 Y41.929 E15.9007
G1 X121.774 Y41.102 E15.9141
G1 X122.244 Y40.316 E15.9274
G1 X122.789 Y39.582 E15.9407
G1 X123.404 Y38.903 E15.9540
G1 X124.083 Y38.288 E15.9673
G1 X124.818 Y37.743 E15.9807
G1 X125.603 Y37.271 E15.9940
G1 X126.430 Y36.881 E16.0073
G1 X126.907 Y36.710 E16.0147
G1 X126.793 Y37.795 E16.0305
G1 X127.151 Y38.999 E16.0488
G1 X127.903 Y39.928 E16.0662
G1 X128.843 Y40.493 E16.0822
G1 X130.021 Y40.721 E16.0996
G1 X131.312 Y40.454 E16.1188
G1 X132.448 Y39.610 E16.1394
G1 X133.076 Y38.454 E16.1585
G1 X133.207 Y37.204 E16.1768
G1 X133.057 Y36.697 E16.1845
G1 X133.570 Y36.881 E16.1924
G1 X134.397 Y37.272 E16.2058
G1 X135.182 Y37.743 E16.2191
G1 X135.917 Y38.288 E16.2324
G1 X136.596 Y38.903 E16.2457
G1 X137.211 Y39.582 E16.2591
G1 X137.756 Y40.316 E16.2724
G1 X138.227 Y41.102 E16.2857
G1 X138.619 Y41.929 E16.2990
G1 X138.797 Y42.428 E16.3067
G1 X137.822 Y42.283 E16.3211
G1 X136.700 Y42.564 E16.3379
G1 X135.659 Y43.270 E16.3562
G1 X134.930 Y44.486 E16.3768
G1 X134.800 Y45.736 E16.3951
G1 X135.078 Y46.855 E16.4119
G1 X135.854 Y47.900 E16.4308
G1 X136.846 Y48.494 E16.4477
G1 X138.079 Y48.731 E16.4659
G1 X138.804 Y48.549 E16.4768
G1 X138.619 Y49.069 E16.4849
G1 X138.227 Y49.896 E16.4982
G1 X137.756 Y50.681 E16.5115
G1 X137.211 Y51.416 E16.5248
G1 X136.595 Y52.096 E16.5381
G1 X135.918 Y52.710 E16.5515
G1 X135.183 Y53.255 E16.5648
G1 X134.397 Y53.726 E16.5781
G1 X133.570 Y54.118 E16.5914
G1 X133.071 Y54.296 E16.5991
G1 X133.224 Y53.261 E16.6144
G1 X132.850 Y51.999 E16.6335
G1 X132.097 Y51.069 E16.6509
G1 X131.422 Y50.664 E16.6624
G0 X132.090 Y49.164 F10800
G1 X133.185 Y48.354 E16.6822 F3600
G1 X133.972 Y47.039 E16.7045
G1 X134.010 Y46.849 E16.7073
G1 X134.123 Y47.305 E16.7142
G1 X135.146 Y48.683 E16.7391
G1 X136.471 Y49.477 E16.7616
G1 X137.188 Y49.614 E16.7722
G1 X136.894 Y50.105 E16.7806
G1 X136.409 Y50.758 E16.7924
G1 X135.862 Y51.363 E16.8043
G1 X135.259 Y51.908 E16.8161
G1 X134.607 Y52.393 E16.8279
G1 X134.132 Y52.678 E16.8360
G1 X133.784 Y51.508 E16.8537
G1 X132.787 Y50.275 E16.8768
G1 X131.466 Y49.482 E16.8992
G1 X131.734 Y49.428 E16.9032
G1 X131.952 Y49.267 E16.9072
G0 X132.509 Y48.425 F10800
G1 X131.591 Y49.105 E16.9238 F3600
G1 X130.009 Y49.425 E16.9473
G1 X128.586 Y49.144 E16.9684
G1 X127.381 Y48.423 E16.9888
G1 X126.443 Y47.153 E17.0118
G1 X126.101 Y45.794 E17.0322
G1 X126.256 Y44.270 E17.0545
G1 X127.151 Y42.776 E17.0798
G1 X128.423 Y41.922 E17.1021
G1 X129.703 Y41.600 E17.1213
G1 X131.147 Y41.745 E17.1424
G1 X132.568 Y42.509 E17.1659
G1 X133.608 Y43.909 E17.1913
G1 X133.926 Y45.493 E17.2148
G1 X133.645 Y46.913 E17.2358
G1 X132.924 Y48.117 E17.2563
G1 X132.648 Y48.322 E17.2613
G0 X133.037 Y46.429 F10800
G1 X132.991 Y46.661 E17.2647 F3600
G1 X132.403 Y47.644 E17.2814
G1 X131.303 Y48.458 E17.3013
G1 X130.007 Y48.721 E17.3205
G1 X128.838 Y48.490 E17.3379
G1 X127.854 Y47.901 E17.3545
G1 X127.079 Y46.853 E17.3735
G1 X126.800 Y45.743 E17.3902
G1 X126.927 Y44.493 E17.4085
G1 X127.664 Y43.263 E17.4293
G1 X128.707 Y42.563 E17.4476
G1 X129.754 Y42.299 E17.4633
G1 X130.941 Y42.418 E17.4807
G1 X132.106 Y43.045 E17.4999
G1 X132.961 Y44.196 E17.5208
G1 X133.221 Y45.494 E17.5401
G1 X133.070 Y46.260 E17.5514
G0 X132.857 Y45.431 F10800
G1 X132.869 Y45.495 E17.5524 F3600
G1 X132.664 Y46.536 E17.5678
G1 X132.142 Y47.408 E17.5826
G1 X131.159 Y48.135 E17.6004
G1 X130.006 Y48.369 E17.6175
G1 X128.963 Y48.163 E17.6330
G1 X128.091 Y47.641 E17.6478
G1 X127.397 Y46.702 E17.6647
G1 X127.150 Y45.718 E17.6795
G1 X127.263 Y44.604 E17.6958
G1 X127.920 Y43.506 E17.7144
G1 X128.850 Y42.883 E17.7307
G1 X129.779 Y42.649 E17.7447
G1 X130.838 Y42.755 E17.7601
G1 X131.875 Y43.312 E17.7773
G1 X132.638 Y44.340 E17.7959
G1 X132.823 Y45.262 E17.8096
G0 X133.970 Y43.960 F10800
G1 X133.931 Y43.765 E17.8125 F3600
G1 X132.800 Y42.242 E17.8401
G1 X131.405 Y41.492 E17.8631
G1 X131.745 Y41.422 E17.8682
G1 X133.249 Y40.305 E17.8954
G1 X134.084 Y38.767 E17.9209
G1 X134.131 Y38.320 E17.9274
G1 X134.606 Y38.605 E17.9355
G1 X135.259 Y39.090 E17.9473
G1 X135.862 Y39.637 E17.9592
G1 X136.409 Y40.240 E17.9710
G1 X136.894 Y40.893 E17.9829
G1 X137.183 Y41.375 E17.9910
G1 X136.271 Y41.603 E18.0047
G1 X134.888 Y42.541 E18.0290
G1 X134.031 Y43.970 E18.0533
G0 X133.761 Y42.957 F10800
G1 X133.031 Y41.974 E18.0711 F3600
G1 X132.190 Y41.522 E18.0850
G1 X133.516 Y40.536 E18.1090
G1 X134.414 Y38.892 E18.1363
G1 X135.040 Y39.357 E18.1476
G1 X135.618 Y39.881 E18.1590
G1 X136.142 Y40.459 E18.1704
G1 X136.607 Y41.084 E18.1817
G1 X136.648 Y41.153 E18.1829
G1 X136.128 Y41.283 E18.1906
G1 X134.631 Y42.298 E18.2170
G1 X134.024 Y43.311 E18.2342
G1 X133.863 Y43.095 E18.2381
G0 X133.472 Y41.989 F10800
G1 X133.262 Y41.706 E18.2432 F3600
G1 X132.832 Y41.475 E18.2503
G1 X133.783 Y40.768 E18.2675
G1 X134.527 Y39.406 E18.2901
G1 X134.821 Y39.624 E18.2955
G1 X135.374 Y40.126 E18.3063
G1 X135.875 Y40.679 E18.3172
G1 X136.071 Y40.941 E18.3219
G1 X135.985 Y40.963 E18.3232
G1 X134.374 Y42.055 E18.3515
G1 X133.993 Y42.691 E18.3623
G1 X133.575 Y42.127 E18.3726
G0 X133.543 Y41.377 F10800
G1 X134.050 Y41.000 E18.3817 F3600
G1 X134.637 Y39.924 E18.3996
G1 X135.129 Y40.370 E18.4092
G1 X135.554 Y40.838 E18.4184
G1 X134.118 Y41.812 E18.4437
G1 X133.963 Y42.071 E18.4481
G1 X133.526 Y41.497 E18.4586
G0 X134.505 Y40.887 F10800
G1 X134.730 Y40.474 E18.4654 F3600
G1 X135.031 Y40.776 E18.4716
G1 X133.960 Y41.497 E18.4904
G1 X134.316 Y41.232 E18.4969
G1 X134.422 Y41.038 E18.5001
; ------------------------------------
; Layer #2
; ------------------------------------
G21 ; mm
G90 ; abs
G92 E0 ; reset extr
M106 S255
;segType:Loop
G0 F4800 E-1.0000
G0 F300 Z0.300
G0 X126.871 Y56.458 F10800
G0 F4800 E0.0000
G1 X126.689 Y56.412 E0.0027 F3600
G1 X125.636 Y56.035 E0.0190
G1 X124.624 Y55.557 E0.0353
G1 X123.664 Y54.981 E0.0516
G1 X122.765 Y54.315 E0.0679
G1 X121.936 Y53.563 E0.0841
G1 X121.184 Y52.734 E0.1004
G1 X120.518 Y51.835 E0.1167
G1 X119.942 Y50.875 E0.1330
G1 X119.464 Y49.863 E0.1493
G1 X119.087 Y48.810 E0.1656
G1 X118.815 Y47.724 E0.1819
G1 X118.651 Y46.617 E0.1981
G1 X118.596 Y45.499 E0.2144
G1 X118.651 Y44.381 E0.2307
G1 X118.815 Y43.274 E0.2470
G1 X119.087 Y42.188 E0.2633
G1 X119.464 Y41.135 E0.2796
G1 X119.942 Y40.123 E0.2959
G1 X120.518 Y39.163 E0.3121
G1 X121.184 Y38.264 E0.3284
G1 X121.936 Y37.435 E0.3447
G1 X122.765 Y36.683 E0.3610
G1 X123.664 Y36.017 E0.3773
G1 X124.624 Y35.441 E0.3936
G1 X125.636 Y34.963 E0.4099
G1 X126.689 Y34.586 E0.4261
G1 X127.775 Y34.314 E0.4424
G1 X128.882 Y34.150 E0.4587
G1 X130.000 Y34.095 E0.4750
G1 X131.118 Y34.150 E0.4913
G1 X132.225 Y34.314 E0.5076
G1 X133.311 Y34.586 E0.5238
G1 X134.364 Y34.963 E0.5401
G1 X135.376 Y35.441 E0.5564
G1 X136.336 Y36.017 E0.5727
G1 X137.235 Y36.683 E0.5890
G1 X138.064 Y37.435 E0.6053
G1 X138.816 Y38.264 E0.6216
G1 X139.482 Y39.163 E0.6378
G1 X140.058 Y40.123 E0.6541
G1 X140.536 Y41.135 E0.6704
G1 X140.913 Y42.188 E0.6867
G1 X141.185 Y43.274 E0.7030
G1 X141.350 Y44.381 E0.7193
G1 X141.404 Y45.499 E0.7356
G1 X141.350 Y46.617 E0.7518
G1 X141.185 Y47.724 E0.7681
G1 X140.913 Y48.810 E0.7844
G1 X140.536 Y49.863 E0.8007
G1 X140.058 Y50.875 E0.8170
G1 X139.482 Y51.835 E0.8333
G1 X138.816 Y52.734 E0.8496
G1 X138.064 Y53.563 E0.8658
G1 X137.235 Y54.315 E0.8821
G1 X136.336 Y54.981 E0.8984
G1 X135.376 Y55.557 E0.9147
G1 X134.364 Y56.035 E0.9310
G1 X133.311 Y56.412 E0.9473
G1 X132.225 Y56.684 E0.9636
G1 X131.118 Y56.848 E0.9798
G1 X130.000 Y56.903 E0.9961
G1 X128.882 Y56.848 E1.0124
G1 X127.775 Y56.684 E1.0287
G1 X127.038 Y56.500 E1.0397
G0 F4800 E0.0397
G0 X128.164 Y56.657 F10800
G0 F4800 E1.0397
;segType:Perimeter
G1 X127.656 Y57.015 E1.0488 F2159
G1 X126.588 Y56.748 E1.0648
G1 X125.502 Y56.359 E1.0816
G1 X124.459 Y55.866 E1.0984
G1 X123.470 Y55.273 E1.1152
G1 X122.543 Y54.585 E1.1320
G1 X121.688 Y53.811 E1.1487
G1 X120.914 Y52.956 E1.1655
G1 X120.226 Y52.029 E1.1823
G1 X119.633 Y51.040 E1.1991
G1 X119.140 Y49.997 E1.2159
G1 X118.751 Y48.911 E1.2327
G1 X118.471 Y47.792 E1.2495
G1 X118.302 Y46.651 E1.2662
G1 X118.245 Y45.499 E1.2830
G1 X118.302 Y44.347 E1.2998
G1 X118.471 Y43.206 E1.3166
G1 X118.751 Y42.087 E1.3334
G1 X119.140 Y41.001 E1.3502
G1 X119.633 Y39.958 E1.3670
G1 X120.226 Y38.968 E1.3837
G1 X120.914 Y38.042 E1.4005
G1 X121.688 Y37.187 E1.4173
G1 X122.543 Y36.413 E1.4341
G1 X123.470 Y35.725 E1.4509
G1 X124.459 Y35.132 E1.4677
G1 X125.502 Y34.639 E1.4845
G1 X126.588 Y34.250 E1.5012
G1 X127.707 Y33.970 E1.5180
G1 X128.848 Y33.801 E1.5348
G1 X130.000 Y33.744 E1.5516
G1 X131.152 Y33.801 E1.5684
G1 X132.293 Y33.970 E1.5852
G1 X133.412 Y34.250 E1.6020
G1 X134.498 Y34.639 E1.6187
G1 X135.541 Y35.132 E1.6355
G1 X136.531 Y35.725 E1.6523
G1 X137.457 Y36.413 E1.6691
G1 X138.312 Y37.187 E1.6859
G1 X139.086 Y38.042 E1.7027
G1 X139.774 Y38.968 E1.7195
G1 X140.367 Y39.958 E1.7362
G1 X140.860 Y41.001 E1.7530
G1 X141.249 Y42.087 E1.7698
G1 X141.529 Y43.206 E1.7866
G1 X141.698 Y44.347 E1.8034
G1 X141.755 Y45.499 E1.8202
G1 X141.698 Y46.651 E1.8370
G1 X141.529 Y47.792 E1.8537
G1 X141.249 Y48.911 E1.8705
G1 X140.860 Y49.997 E1.8873
G1 X140.367 Y51.040 E1.9041
G1 X139.774 Y52.029 E1.9209
G1 X139.086 Y52.956 E1.9377
G1 X138.312 Y53.811 E1.9545
G1 X137.457 Y54.585 E1.9712
G1 X136.531 Y55.273 E1.9880
G1 X135.541 Y55.866 E2.0048
G1 X134.498 Y56.359 E2.0216
G1 X133.412 Y56.748 E2.0384
G1 X132.293 Y57.028 E2.0552
G1 X131.152 Y57.197 E2.0720
G1 X130.000 Y57.254 E2.0887
G1 X128.848 Y57.197 E2.1055
G1 X127.758 Y57.035 E2.1216
G1 X127.425 Y56.511
G0 X130.659 Y54.145 F10800
G0 X130.920 Y53.426
G0 X130.985 Y52.999
;segType:Loop
G1 X131.105 Y53.414 E2.1279 F3600
G1 X131.033 Y53.902 E2.1350
G1 X130.790 Y54.274 E2.1415
G1 X130.433 Y54.517 E2.1478
G1 X130.023 Y54.603 E2.1539
G1 X129.658 Y54.549 E2.1593
G1 X129.279 Y54.341 E2.1655
G1 X128.992 Y53.954 E2.1726
G1 X128.899 Y53.585 E2.1781
G1 X128.946 Y53.155 E2.1844
G1 X129.200 Y52.731 E2.1916
G1 X129.557 Y52.488 E2.1979
G1 X129.927 Y52.395 E2.2034
G1 X130.391 Y52.465 E2.2102
G1 X130.718 Y52.660 E2.2158
G1 X130.881 Y52.862 E2.2196
;segType:Perimeter
G0 X129.496 Y52.389 F10800
G1 X129.995 Y52.759 E2.2286 F2159
G1 X130.271 Y52.801 E2.2327
G1 X130.484 Y52.928 E2.2363
G1 X130.665 Y53.152 E2.2405
G1 X130.748 Y53.438 E2.2448
G1 X130.698 Y53.775 E2.2497
G1 X130.535 Y54.024 E2.2541
G1 X130.293 Y54.189 E2.2583
G1 X130.012 Y54.248 E2.2625
G1 X129.771 Y54.212 E2.2661
G1 X129.514 Y54.071 E2.2703
G1 X129.314 Y53.802 E2.2752
G1 X129.254 Y53.560 E2.2788
G1 X129.286 Y53.269 E2.2831
G1 X129.461 Y52.977 E2.2880
G1 X129.702 Y52.812 E2.2923
G1 X129.894 Y52.764 E2.2952
G1 X130.354 Y52.347
;segType:Loop
G0 X131.035 Y45.860 F10800
G1 X131.026 Y45.906 E2.2958 F3600
G1 X130.835 Y46.225 E2.3013
G1 X130.441 Y46.517 E2.3084
G1 X130.003 Y46.606 E2.3149
G1 X129.594 Y46.525 E2.3210
G1 X129.274 Y46.334 E2.3264
G1 X128.990 Y45.951 E2.3333
G1 X128.900 Y45.590 E2.3387
G1 X128.943 Y45.161 E2.3450
G1 X129.203 Y44.727 E2.3524
G1 X129.562 Y44.486 E2.3587
G1 X129.908 Y44.399 E2.3639
G1 X130.324 Y44.441 E2.3699
G1 X130.717 Y44.653 E2.3764
G1 X131.018 Y45.058 E2.3838
G1 X131.107 Y45.496 E2.3903
G1 X131.068 Y45.691 E2.3932
;segType:Perimeter
G0 X130.401 Y44.354 F10800
G1 X130.514 Y44.965 E2.4022 F2159
G1 X130.691 Y45.204 E2.4066
G1 X130.750 Y45.497 E2.4109
G1 X130.695 Y45.778 E2.4151
G1 X130.571 Y45.985 E2.4186
G1 X130.295 Y46.189 E2.4236
G1 X130.002 Y46.249 E2.4279
G1 X129.721 Y46.193 E2.4321
G1 X129.514 Y46.070 E2.4356
G1 X129.313 Y45.798 E2.4405
G1 X129.254 Y45.565 E2.4440
G1 X129.284 Y45.274 E2.4483
G1 X129.463 Y44.974 E2.4534
G1 X129.706 Y44.811 E2.4576
G1 X129.934 Y44.753 E2.4610
G1 X130.220 Y44.782 E2.4652
G1 X130.437 Y44.899 E2.4688
G1 X131.058 Y44.923
;segType:Infill
G0 X140.038 Y40.490 F10800
G1 X137.880 Y44.228 E2.5316 F5400
;segType:Loop
G0 X139.103 Y45.486 F10800
G1 X139.048 Y45.853 E2.5370 F3600
G1 X138.806 Y46.257 E2.5439
G1 X138.490 Y46.491 E2.5496
G1 X138.023 Y46.608 E2.5566
G1 X137.599 Y46.528 E2.5629
G1 X137.272 Y46.332 E2.5684
G1 X136.992 Y45.954 E2.5753
G1 X136.899 Y45.584 E2.5808
G1 X136.946 Y45.155 E2.5871
G1 X137.200 Y44.731 E2.5943
G1 X137.557 Y44.488 E2.6006
G1 X137.926 Y44.396 E2.6061
G1 X138.403 Y44.466 E2.6131
G1 X138.775 Y44.708 E2.6196
G1 X139.018 Y45.066 E2.6259
G1 X139.071 Y45.317 E2.6296
;segType:Perimeter
G0 X138.005 Y44.293 F10800
G1 X138.319 Y44.829 E2.6386 F2159
G1 X138.525 Y44.964 E2.6422
G1 X138.690 Y45.206 E2.6465
G1 X138.749 Y45.487 E2.6507
G1 X138.712 Y45.733 E2.6543
G1 X138.542 Y46.017 E2.6591
G1 X138.338 Y46.168 E2.6628
G1 X138.012 Y46.250 E2.6677
G1 X137.725 Y46.195 E2.6719
