; GCode generated by CraftWare

G28 X0 Y0
G28 Z0
G0 F300 Z10


M190 S50 ;set bed temp (wait)
M109 S183 ;set head temp (wait)
; ------------------------------------
; Layer #0
; ------------------------------------
G21 ; mm
G90 ; abs
G92 E0 ; reset extr
M106 S255
G0 F4800 E-1.0000
G0 F300 Z0.100
G0 X123.776 Y111.732 F10800
G0 X124.547 Y110.394
G0 X125.207 Y103.868
G0 X130.431 Y88.868
G0 X131.608 Y87.878
G0 X133.136 Y87.878
G0 X134.313 Y88.867
G0 X134.473 Y93.120
G0 X138.265 Y91.022
G0 X138.967 Y89.576
G0 F4800 E0.0000
;segType:Loop
G1 X139.037 Y89.768 E0.0030 F600
G1 X139.037 Y90.232 E0.0097
G1 X138.925 Y90.537 E0.0145
G1 X138.896 Y109.383 E0.2887
G1 X139.037 Y109.768 E0.2946
G1 X139.037 Y110.232 E0.3014
G1 X138.877 Y110.671 E0.3082
G1 X138.570 Y111.037 E0.3151
G1 X138.148 Y111.281 E0.3222
G1 X137.662 Y111.366 E0.3294
G1 X137.176 Y111.281 E0.3366
G1 X136.754 Y111.037 E0.3437
G1 X136.447 Y110.671 E0.3506
G1 X136.287 Y110.232 E0.3574
G1 X136.287 Y109.766 E0.3642
G1 X136.424 Y109.381 E0.3702
G1 X136.424 Y90.608 E0.6433
G1 X136.287 Y90.232 E0.6492
G1 X136.287 Y89.768 E0.6559
G1 X136.447 Y89.329 E0.6627
G1 X136.754 Y88.963 E0.6697
G1 X137.176 Y88.719 E0.6767
G1 X137.662 Y88.634 E0.6839
G1 X138.148 Y88.719 E0.6911
G1 X138.570 Y88.963 E0.6982
G1 X138.877 Y89.329 E0.7051
G1 X138.908 Y89.415 E0.7065
G0 F4800 E-0.2935
G0 X138.244 Y88.832 F10800
G0 F4800 E0.7065
;segType:Perimeter
G1 X138.824 Y88.711 E0.7151 F359
G1 X139.181 Y89.135 E0.7232
G1 X139.387 Y89.700 E0.7319
G1 X139.387 Y90.300 E0.7406
G1 X139.275 Y90.606 E0.7454
G1 X139.247 Y109.315 E1.0176
G1 X139.387 Y109.700 E1.0236
G1 X139.387 Y110.300 E1.0323
G1 X139.181 Y110.865 E1.0411
G1 X138.792 Y111.328 E1.0499
G1 X138.264 Y111.633 E1.0587
G1 X137.662 Y111.739 E1.0676
G1 X137.060 Y111.633 E1.0765
G1 X136.532 Y111.328 E1.0854
G1 X136.143 Y110.865 E1.0942
G1 X135.937 Y110.300 E1.1030
G1 X135.937 Y109.699 E1.1117
G1 X136.074 Y109.314 E1.1176
G1 X136.074 Y90.675 E1.3889
G1 X135.937 Y90.300 E1.3947
G1 X135.937 Y89.700 E1.4034
G1 X136.143 Y89.135 E1.4122
G1 X136.532 Y88.672 E1.4210
G1 X137.060 Y88.367 E1.4298
G1 X137.662 Y88.261 E1.4387
G1 X138.264 Y88.367 E1.4476
G1 X138.749 Y88.647 E1.4558
G1 X138.763 Y89.268
G0 X137.948 Y89.116 F10800
G0 X137.337 Y89.130
G0 X136.694 Y89.468
;segType:Loop
G1 X136.712 Y89.421 E1.4565 F600
G1 X136.951 Y89.136 E1.4619
G1 X137.270 Y88.942 E1.4673
G1 X137.638 Y88.868 E1.4728
G1 X138.007 Y88.925 E1.4782
G1 X138.340 Y89.107 E1.4838
G1 X138.603 Y89.406 E1.4895
G1 X138.749 Y89.809 E1.4958
G1 X138.749 Y90.202 E1.5015
G1 X138.506 Y90.871 E1.5119
G1 X136.818 Y90.871 E1.5364
G1 X136.575 Y90.202 E1.5468
G1 X136.575 Y89.798 E1.5527
G1 X136.636 Y89.630 E1.5553
G0 X136.906 Y90.565 F10800
G0 X137.317 Y91.005
;segType:Perimeter
G1 X137.042 Y90.455 E1.5642 F359
G1 X136.925 Y90.134 E1.5692
G1 X136.925 Y89.866 E1.5731
G1 X137.016 Y89.615 E1.5770
G1 X137.176 Y89.424 E1.5806
G1 X137.394 Y89.291 E1.5843
G1 X137.645 Y89.241 E1.5881
G1 X137.898 Y89.280 E1.5918
G1 X138.125 Y89.403 E1.5955
G1 X138.300 Y89.603 E1.5994
G1 X138.399 Y89.877 E1.6036
G1 X138.399 Y90.134 E1.6074
G1 X138.265 Y90.504 E1.6131
G1 X137.108 Y90.504 E1.6299
G1 X136.521 Y90.430
G0 F4800 E0.6299
G0 X136.518 Y107.255 F10800
G0 X136.640 Y109.624
G0 F4800 E1.6299
;segType:Loop
G1 X136.700 Y109.445 E1.6327 F600
G1 X136.945 Y109.140 E1.6384
G1 X137.270 Y108.942 E1.6439
G1 X137.638 Y108.868 E1.6494
G1 X138.007 Y108.925 E1.6548
G1 X138.340 Y109.107 E1.6603
G1 X138.597 Y109.400 E1.6660
G1 X138.743 Y109.772 E1.6718
G1 X138.752 Y110.175 E1.6777
G1 X138.624 Y110.555 E1.6835
G1 X138.379 Y110.860 E1.6892
G1 X138.054 Y111.058 E1.6947
G1 X137.687 Y111.132 E1.7002
G1 X137.317 Y111.075 E1.7056
G1 X136.984 Y110.893 E1.7112
G1 X136.727 Y110.600 E1.7168
G1 X136.581 Y110.228 E1.7226
G1 X136.572 Y109.824 E1.7285
G1 X136.585 Y109.786 E1.7291
G0 X136.875 Y110.465 F10800
G0 X137.295 Y111.165
;segType:Perimeter
G1 X137.166 Y110.558 E1.7381 F359
G1 X137.027 Y110.399 E1.7412
G1 X136.930 Y110.151 E1.7451
G1 X136.924 Y109.883 E1.7490
G1 X137.009 Y109.631 E1.7529
G1 X137.173 Y109.426 E1.7567
G1 X137.394 Y109.291 E1.7604
G1 X137.645 Y109.241 E1.7642
G1 X137.898 Y109.280 E1.7679
G1 X138.125 Y109.403 E1.7716
G1 X138.297 Y109.601 E1.7755
G1 X138.394 Y109.849 E1.7793
G1 X138.400 Y110.117 E1.7832
G1 X138.315 Y110.369 E1.7871
G1 X138.151 Y110.574 E1.7909
G1 X137.930 Y110.709 E1.7947
G1 X137.679 Y110.759 E1.7984
G1 X137.426 Y110.720 E1.8021
G1 X137.243 Y110.620 E1.8052
G1 X136.652 Y110.649
G0 F4800 E0.8052
G0 X136.102 Y110.257 F10800
G0 X137.923 Y93.211
G0 F4800 E1.8052
;segType:HShell
G1 X137.887 Y107.849 E2.0182 F600
G1 X137.616 Y107.807 E2.0222
G1 X137.421 Y107.846 E2.0251
G1 X137.421 Y91.919 E2.2568
G1 X137.926 Y91.919 E2.2642
G1 X137.923 Y93.038 E2.2805
G0 X138.254 Y92.263 F10800
G1 X138.215 Y108.248 E2.5131 F600
G1 X137.623 Y108.157 E2.5218
G1 X137.092 Y108.263 E2.5297
G1 X137.092 Y91.573 E2.7725
G1 X138.256 Y91.573 E2.7895
G1 X138.254 Y92.090 E2.7970
G0 X138.585 Y91.314 F10800
G1 X138.550 Y108.819 E3.0517 F600
G1 X138.113 Y108.581 E3.0589
G1 X137.630 Y108.507 E3.0660
G1 X137.150 Y108.603 E3.0732
G1 X136.764 Y108.839 E3.0798
G1 X136.764 Y91.228 E3.3360
G1 X138.503 Y91.228 E3.3613
G0 F4800 E2.3613
G0 X136.090 Y90.402 F10800
G0 X133.677 Y89.576
G0 F4800 E3.3613
;segType:Loop
G1 X133.747 Y89.768 E3.3643 F600
G1 X133.747 Y90.232 E3.3710
G1 X133.635 Y90.540 E3.3758
G1 X133.635 Y108.101 E3.6314
G1 X133.643 Y109.469 E3.6513
G1 X133.747 Y109.799 E3.6563
G1 X133.747 Y110.232 E3.6626
G1 X133.586 Y110.671 E3.6694
G1 X133.280 Y111.037 E3.6763
G1 X132.858 Y111.281 E3.6834
G1 X132.372 Y111.366 E3.6906
G1 X131.886 Y111.281 E3.6978
G1 X131.464 Y111.037 E3.7049
G1 X131.157 Y110.671 E3.7118
G1 X130.997 Y110.232 E3.7186
G1 X130.997 Y109.768 E3.7254
G1 X131.134 Y109.392 E3.7312
G1 X131.134 Y90.607 E4.0045
G1 X130.997 Y90.232 E4.0104
G1 X130.997 Y89.768 E4.0171
G1 X131.157 Y89.329 E4.0239
G1 X131.464 Y88.963 E4.0309
G1 X131.886 Y88.719 E4.0380
G1 X132.372 Y88.634 E4.0451
G1 X132.858 Y88.719 E4.0523
G1 X133.280 Y88.963 E4.0594
G1 X133.586 Y89.329 E4.0663
G1 X133.618 Y89.415 E4.0677
G0 F4800 E3.0677
G0 X132.954 Y88.832 F10800
G0 F4800 E4.0677
;segType:Perimeter
G1 X133.535 Y88.711 E4.0763 F359
G1 X133.891 Y89.135 E4.0844
G1 X134.097 Y89.700 E4.0931
G1 X134.097 Y90.300 E4.1019
G1 X133.984 Y90.608 E4.1066
G1 X133.985 Y108.100 E4.3612
G1 X133.993 Y109.409 E4.3802
G1 X134.097 Y109.740 E4.3853
G1 X134.097 Y110.300 E4.3934
G1 X133.891 Y110.865 E4.4021
G1 X133.502 Y111.328 E4.4109
G1 X132.974 Y111.633 E4.4198
G1 X132.372 Y111.739 E4.4287
G1 X131.770 Y111.633 E4.4376
G1 X131.242 Y111.328 E4.4465
G1 X130.853 Y110.865 E4.4553
G1 X130.647 Y110.300 E4.4640
G1 X130.647 Y109.700 E4.4728
G1 X130.784 Y109.325 E4.4786
G1 X130.784 Y90.675 E4.7499
G1 X130.647 Y90.300 E4.7558
G1 X130.647 Y89.700 E4.7645
G1 X130.853 Y89.135 E4.7732
G1 X131.242 Y88.672 E4.7820
G1 X131.770 Y88.367 E4.7909
G1 X132.372 Y88.261 E4.7998
G1 X132.974 Y88.367 E4.8087
G1 X133.459 Y88.647 E4.8169
G1 X133.473 Y89.268
G0 X132.678 Y89.121 F10800
G0 X132.065 Y89.121
G0 X131.356 Y89.601
;segType:Loop
G1 X131.422 Y89.421 E4.8196 F600
G1 X131.673 Y89.122 E4.8253
G1 X132.003 Y88.932 E4.8309
G1 X132.372 Y88.866 E4.8363
G1 X132.741 Y88.932 E4.8418
G1 X133.071 Y89.121 E4.8473
G1 X133.322 Y89.421 E4.8530
G1 X133.459 Y89.796 E4.8588
G1 X133.460 Y90.200 E4.8647
G1 X133.323 Y90.578 E4.8705
G1 X133.071 Y90.878 E4.8762
G1 X132.741 Y91.069 E4.8818
G1 X132.372 Y91.134 E4.8872
G1 X132.003 Y91.069 E4.8927
G1 X131.673 Y90.878 E4.8982
G1 X131.422 Y90.578 E4.9039
G1 X131.285 Y90.203 E4.9097
G1 X131.285 Y89.798 E4.9156
G1 X131.298 Y89.762 E4.9162
G0 X131.572 Y90.447 F10800
G0 X131.978 Y91.157
;segType:Perimeter
G1 X131.862 Y90.548 E4.9252 F359
G1 X131.726 Y90.385 E4.9283
G1 X131.635 Y90.134 E4.9322
G1 X131.635 Y89.866 E4.9361
G1 X131.726 Y89.615 E4.9400
G1 X131.895 Y89.413 E4.9438
G1 X132.119 Y89.284 E4.9476
G1 X132.372 Y89.239 E4.9513
G1 X132.624 Y89.284 E4.9550
G1 X132.849 Y89.413 E4.9588
G1 X133.018 Y89.615 E4.9626
G1 X133.109 Y89.864 E4.9665
G1 X133.110 Y90.132 E4.9704
G1 X133.018 Y90.385 E4.9743
G1 X132.849 Y90.587 E4.9782
G1 X132.624 Y90.716 E4.9819
G1 X132.372 Y90.761 E4.9857
G1 X132.119 Y90.716 E4.9894
G1 X131.938 Y90.612 E4.9924
G1 X131.347 Y90.626
G0 F4800 E3.9924
G0 X131.356 Y109.601 F10800
G0 F4800 E4.9924
;segType:Loop
G1 X131.422 Y109.421 E4.9952 F600
G1 X131.661 Y109.136 E5.0006
G1 X131.980 Y108.942 E5.0061
G1 X132.347 Y108.868 E5.0115
G1 X132.717 Y108.925 E5.0170
G1 X133.050 Y109.107 E5.0225
G1 X133.307 Y109.400 E5.0282
G1 X133.453 Y109.772 E5.0340
G1 X133.462 Y110.195 E5.0401
G1 X133.322 Y110.579 E5.0461
G1 X133.071 Y110.879 E5.0518
G1 X132.741 Y111.069 E5.0573
G1 X132.372 Y111.134 E5.0627
G1 X132.003 Y111.069 E5.0682
G1 X131.673 Y110.878 E5.0737
G1 X131.422 Y110.579 E5.0794
G1 X131.285 Y110.202 E5.0853
G1 X131.285 Y109.798 E5.0911
G1 X131.298 Y109.762 E5.0917
G0 X131.572 Y110.447 F10800
G0 X131.978 Y111.157
;segType:Perimeter
G1 X131.863 Y110.548 E5.1007 F359
G1 X131.726 Y110.386 E5.1038
G1 X131.635 Y110.134 E5.1077
G1 X131.635 Y109.866 E5.1116
G1 X131.726 Y109.615 E5.1155
G1 X131.886 Y109.424 E5.1191
G1 X132.104 Y109.291 E5.1228
G1 X132.355 Y109.241 E5.1266
G1 X132.608 Y109.280 E5.1303
G1 X132.834 Y109.403 E5.1340
G1 X133.007 Y109.601 E5.1379
G1 X133.104 Y109.849 E5.1417
G1 X133.110 Y110.132 E5.1458
G1 X133.018 Y110.386 E5.1498
G1 X132.849 Y110.587 E5.1536
G1 X132.624 Y110.716 E5.1574
G1 X132.372 Y110.761 E5.1611
G1 X132.119 Y110.716 E5.1648
G1 X131.938 Y110.612 E5.1679
G1 X131.347 Y110.627
G0 F4800 E4.1679
G0 X130.812 Y110.027 F10800
G0 X132.638 Y93.135
G0 F4800 E5.1679
;segType:HShell
G1 X132.638 Y107.855 E5.3821 F600
G1 X132.325 Y107.807 E5.3867
G1 X132.131 Y107.846 E5.3896
G1 X132.131 Y92.153 E5.6179
G1 X132.372 Y92.195 E5.6215
G1 X132.638 Y92.148 E5.6254
G1 X132.638 Y92.963 E5.6373
G0 X132.967 Y92.186 F10800
G1 X132.967 Y108.104 E5.8689 F600
G1 X132.968 Y108.272 E5.8713
G1 X132.925 Y108.248 E5.8721
G1 X132.333 Y108.157 E5.8808
G1 X131.802 Y108.263 E5.8886
G1 X131.802 Y91.745 E6.1290
G1 X132.372 Y91.845 E6.1374
G1 X132.967 Y91.739 E6.1462
G1 X132.967 Y92.013 E6.1502
G0 X133.295 Y91.237 F10800
G1 X133.296 Y108.103 E6.3956 F600
G1 X133.300 Y108.866 E6.4067
G1 X133.260 Y108.819 E6.4076
G1 X132.822 Y108.581 E6.4149
G1 X132.340 Y108.507 E6.4220
G1 X131.860 Y108.603 E6.4291
G1 X131.473 Y108.838 E6.4357
G1 X131.473 Y91.170 E6.6928
G1 X131.890 Y91.410 E6.6998
G1 X132.372 Y91.495 E6.7069
G1 X132.854 Y91.410 E6.7140
G1 X133.223 Y91.192 E6.7203
G0 F4800 E5.7203
G0 X125.260 Y103.793 F10800
G0 X124.144 Y106.253
G0 X123.029 Y108.712
G0 F4800 E6.7203
G1 X122.788 Y108.581 E6.7243 F600
G1 X122.306 Y108.507 E6.7314
G1 X121.826 Y108.603 E6.7385
G1 X121.601 Y108.740 E6.7423
G1 X121.601 Y106.263 E6.7784
G1 X121.856 Y106.410 E6.7827
G1 X122.338 Y106.495 E6.7898
G1 X122.820 Y106.410 E6.7969
G1 X123.102 Y106.248 E6.8016
G1 X123.102 Y108.666 E6.8368
;segType:Loop
G0 X123.713 Y109.940 F10800
G1 X123.713 Y110.232 E6.8411 F600
G1 X123.552 Y110.671 E6.8479
G1 X123.246 Y111.037 E6.8548
G1 X122.824 Y111.281 E6.8619
G1 X122.338 Y111.366 E6.8691
G1 X121.852 Y111.281 E6.8763
G1 X121.430 Y111.037 E6.8834
G1 X121.123 Y110.671 E6.8903
G1 X120.963 Y110.232 E6.8971
G1 X120.963 Y109.768 E6.9039
G1 X121.123 Y109.328 E6.9107
G1 X121.261 Y109.164 E6.9138
G1 X121.261 Y105.836 E6.9622
G1 X121.123 Y105.671 E6.9653
G1 X120.963 Y105.232 E6.9722
G1 X120.963 Y104.768 E6.9789
G1 X121.123 Y104.329 E6.9857
G1 X121.430 Y103.963 E6.9927
G1 X121.852 Y103.719 E6.9997
G1 X122.338 Y103.634 E7.0069
G1 X122.824 Y103.719 E7.0141
G1 X123.246 Y103.963 E7.0212
G1 X123.552 Y104.329 E7.0281
G1 X123.713 Y104.768 E7.0349
G1 X123.713 Y105.232 E7.0417
G1 X123.552 Y105.673 E7.0485
G1 X123.441 Y105.806 E7.0510
G1 X123.441 Y109.195 E7.1004
G1 X123.552 Y109.328 E7.1029
G1 X123.712 Y109.767 E7.1097
G0 F4800 E6.1097
G0 X123.337 Y108.742 F10800
G0 F4800 E7.1097
;segType:Perimeter
G1 X123.823 Y109.095 E7.1184 F359
G1 X123.857 Y109.135 E7.1192
G1 X124.063 Y109.700 E7.1279
G1 X124.063 Y110.300 E7.1367
G1 X123.857 Y110.865 E7.1454
G1 X123.468 Y111.328 E7.1542
G1 X122.940 Y111.633 E7.1631
G1 X122.338 Y111.739 E7.1720
G1 X121.735 Y111.633 E7.1809
G1 X121.208 Y111.328 E7.1897
G1 X120.819 Y110.865 E7.1986
G1 X120.613 Y110.300 E7.2073
G1 X120.613 Y109.700 E7.2160
G1 X120.819 Y109.135 E7.2248
G1 X120.911 Y109.025 E7.2269
G1 X120.911 Y105.975 E7.2713
G1 X120.819 Y105.865 E7.2733
G1 X120.613 Y105.300 E7.2821
G1 X120.613 Y104.700 E7.2908
G1 X120.819 Y104.135 E7.2996
G1 X121.208 Y103.672 E7.3084
G1 X121.735 Y103.367 E7.3172
G1 X122.338 Y103.261 E7.3261
G1 X122.940 Y103.367 E7.3350
G1 X123.468 Y103.672 E7.3439
G1 X123.857 Y104.135 E7.3527
G1 X124.063 Y104.700 E7.3615
G1 X124.063 Y105.300 E7.3702
G1 X123.857 Y105.865 E7.3789
G1 X123.791 Y105.944 E7.3804
G1 X123.791 Y109.005 E7.4250
G1 X123.647 Y109.607
G0 X122.338 Y110.934 F10800
G0 X121.776 Y110.734
G0 X121.445 Y110.187
G0 X121.316 Y109.624
;segType:Loop
G1 X121.376 Y109.445 E7.4277 F600
G1 X121.621 Y109.140 E7.4334
G1 X121.946 Y108.942 E7.4389
G1 X122.313 Y108.868 E7.4444
G1 X122.683 Y108.925 E7.4498
G1 X123.016 Y109.107 E7.4554
G1 X123.273 Y109.400 E7.4610
G1 X123.419 Y109.773 E7.4668
G1 X123.428 Y110.196 E7.4730
G1 X123.288 Y110.579 E7.4789
G1 X123.037 Y110.878 E7.4846
G1 X122.707 Y111.069 E7.4902
G1 X122.338 Y111.134 E7.4956
G1 X121.987 Y111.072 E7.5008
G1 X121.660 Y110.893 E7.5062
G1 X121.403 Y110.600 E7.5119
G1 X121.257 Y110.228 E7.5177
G1 X121.248 Y109.825 E7.5236
G1 X121.261 Y109.786 E7.5242
G0 X121.551 Y110.465 F10800
G0 X121.971 Y111.165
;segType:Perimeter
G1 X121.842 Y110.558 E7.5332 F359
G1 X121.703 Y110.399 E7.5363
G1 X121.606 Y110.151 E7.5402
G1 X121.600 Y109.883 E7.5440
G1 X121.685 Y109.631 E7.5479
G1 X121.849 Y109.426 E7.5518
G1 X122.070 Y109.291 E7.5555
G1 X122.321 Y109.241 E7.5592
G1 X122.574 Y109.280 E7.5630
G1 X122.800 Y109.403 E7.5667
G1 X122.973 Y109.601 E7.5705
G1 X123.070 Y109.849 E7.5744
G1 X123.076 Y110.132 E7.5785
G1 X122.984 Y110.386 E7.5825
G1 X122.815 Y110.587 E7.5863
G1 X122.591 Y110.716 E7.5900
G1 X122.338 Y110.761 E7.5938
G1 X122.099 Y110.719 E7.5973
G1 X121.919 Y110.620 E7.6003
G1 X121.328 Y110.649
G0 F4800 E6.6003
G0 X120.767 Y110.239 F10800
G0 X121.101 Y107.025
G0 X121.322 Y104.601
G0 F4800 E7.6003
;segType:Loop
G1 X121.387 Y104.421 E7.6031 F600
G1 X121.639 Y104.122 E7.6088
G1 X121.969 Y103.931 E7.6143
G1 X122.338 Y103.866 E7.6198
G1 X122.707 Y103.931 E7.6252
G1 X123.037 Y104.122 E7.6308
G1 X123.286 Y104.418 E7.6364
G1 X123.425 Y104.802 E7.6423
G1 X123.425 Y105.202 E7.6482
G1 X123.288 Y105.579 E7.6540
G1 X123.037 Y105.878 E7.6597
G1 X122.707 Y106.069 E7.6652
G1 X122.338 Y106.134 E7.6707
G1 X121.969 Y106.069 E7.6761
G1 X121.639 Y105.878 E7.6817
G1 X121.387 Y105.579 E7.6874
G1 X121.251 Y105.202 E7.6932
G1 X121.251 Y104.798 E7.6991
G1 X121.264 Y104.762 E7.6996
G0 X121.538 Y105.447 F10800
G0 X121.944 Y106.157
;segType:Perimeter
G1 X121.829 Y105.548 E7.7086 F359
G1 X121.692 Y105.385 E7.7117
G1 X121.601 Y105.134 E7.7156
G1 X121.601 Y104.866 E7.7195
G1 X121.692 Y104.615 E7.7234
G1 X121.861 Y104.413 E7.7272
G1 X122.086 Y104.284 E7.7310
G1 X122.338 Y104.239 E7.7347
G1 X122.591 Y104.284 E7.7385
G1 X122.815 Y104.413 E7.7423
G1 X122.981 Y104.611 E7.7460
G1 X123.075 Y104.870 E7.7500
G1 X123.075 Y105.134 E7.7539
G1 X122.984 Y105.385 E7.7578
G1 X122.815 Y105.587 E7.7616
G1 X122.591 Y105.716 E7.7653
G1 X122.338 Y105.761 E7.7691
G1 X122.086 Y105.716 E7.7728
G1 X121.904 Y105.612 E7.7759
G1 X121.313 Y105.627
G0 F4800 E6.7759
G0 X122.258 Y107.466 F10800
G0 F4800 E7.7759
;segType:HShell
G1 X122.258 Y107.181 E7.7800 F600
G1 X122.444 Y107.176 E7.7827
G1 X122.444 Y107.831 E7.7922
G1 X122.258 Y107.814 E7.7949
G1 X122.258 Y107.638 E7.7975
G0 X122.101 Y108.197 F10800
G1 X121.930 Y108.231 E7.8000 F600
G1 X121.930 Y106.773 E7.8213
G1 X122.338 Y106.845 E7.8273
G1 X122.773 Y106.768 E7.8337
G1 X122.773 Y108.230 E7.8550
G1 X122.299 Y108.157 E7.8620
G1 X122.263 Y108.164 E7.8625
G0 F4800 E6.8625
G0 X127.910 Y108.992 F10800
G0 X128.523 Y109.940
G0 F4800 E7.8625
;segType:Loop
G1 X128.523 Y110.232 E7.8668 F600
G1 X128.363 Y110.671 E7.8736
G1 X128.056 Y111.037 E7.8805
G1 X127.634 Y111.281 E7.8876
G1 X127.148 Y111.366 E7.8948
G1 X126.662 Y111.281 E7.9020
G1 X126.240 Y111.037 E7.9090
G1 X125.934 Y110.671 E7.9160
G1 X125.774 Y110.232 E7.9228
G1 X125.774 Y109.768 E7.9295
G1 X125.934 Y109.328 E7.9364
G1 X126.072 Y109.164 E7.9395
G1 X126.072 Y105.836 E7.9879
G1 X125.934 Y105.671 E7.9910
G1 X125.774 Y105.232 E7.9978
G1 X125.774 Y104.768 E8.0046
G1 X125.934 Y104.329 E8.0114
G1 X126.240 Y103.963 E8.0183
G1 X126.662 Y103.719 E8.0254
G1 X127.148 Y103.634 E8.0326
G1 X127.634 Y103.719 E8.0398
G1 X128.056 Y103.963 E8.0469
G1 X128.363 Y104.329 E8.0538
G1 X128.522 Y104.766 E8.0606
G1 X128.518 Y105.245 E8.0676
G1 X128.360 Y105.675 E8.0742
G1 X128.251 Y105.806 E8.0767
G1 X128.251 Y109.195 E8.1260
G1 X128.363 Y109.328 E8.1285
G1 X128.523 Y109.767 E8.1353
G0 F4800 E7.1353
G0 X128.147 Y108.742 F10800
G0 F4800 E8.1353
;segType:Perimeter
G1 X128.634 Y109.095 E8.1441 F359
G1 X128.667 Y109.135 E8.1449
G1 X128.873 Y109.700 E8.1536
G1 X128.873 Y110.300 E8.1623
G1 X128.667 Y110.865 E8.1711
G1 X128.278 Y111.328 E8.1799
G1 X127.751 Y111.633 E8.1887
G1 X127.148 Y111.739 E8.1976
G1 X126.546 Y111.633 E8.2065
G1 X126.018 Y111.328 E8.2154
G1 X125.629 Y110.865 E8.2242
G1 X125.424 Y110.300 E8.2330
G1 X125.424 Y109.700 E8.2417
G1 X125.629 Y109.135 E8.2504
G1 X125.722 Y109.025 E8.2525
G1 X125.722 Y105.975 E8.2969
G1 X125.629 Y105.865 E8.2990
G1 X125.424 Y105.300 E8.3078
G1 X125.424 Y104.700 E8.3165
G1 X125.629 Y104.135 E8.3252
G1 X126.018 Y103.672 E8.3340
G1 X126.546 Y103.367 E8.3429
G1 X127.148 Y103.261 E8.3518
G1 X127.751 Y103.367 E8.3607
G1 X128.278 Y103.672 E8.3696
G1 X128.667 Y104.135 E8.3784
G1 X128.873 Y104.699 E8.3871
G1 X128.868 Y105.315 E8.3961
G1 X128.665 Y105.868 E8.4046
G1 X128.601 Y105.944 E8.4061
G1 X128.601 Y109.005 E8.4506
G1 X128.458 Y109.607
G0 X127.148 Y110.934 F10800
G0 X126.586 Y110.734
G0 X126.255 Y110.187
G0 X126.126 Y109.624
;segType:Loop
G1 X126.187 Y109.445 E8.4534 F600
G1 X126.431 Y109.140 E8.4590
G1 X126.757 Y108.942 E8.4646
G1 X127.124 Y108.868 E8.4700
G1 X127.493 Y108.925 E8.4755
G1 X127.827 Y109.107 E8.4810
G1 X128.084 Y109.400 E8.4867
G1 X128.229 Y109.772 E8.4925
G1 X128.238 Y110.176 E8.4984
G1 X128.103 Y110.573 E8.5045
G1 X127.847 Y110.879 E8.5103
G1 X127.517 Y111.069 E8.5158
G1 X127.148 Y111.134 E8.5213
G1 X126.797 Y111.072 E8.5264
G1 X126.470 Y110.893 E8.5319
G1 X126.213 Y110.600 E8.5375
G1 X126.067 Y110.228 E8.5434
G1 X126.059 Y109.824 E8.5492
G1 X126.071 Y109.786 E8.5498
G0 X126.361 Y110.465 F10800
G0 X126.781 Y111.165
;segType:Perimeter
G1 X126.652 Y110.558 E8.5588 F359
G1 X126.513 Y110.399 E8.5619
G1 X126.416 Y110.151 E8.5658
G1 X126.410 Y109.883 E8.5697
G1 X126.495 Y109.631 E8.5736
G1 X126.660 Y109.426 E8.5774
G1 X126.881 Y109.291 E8.5812
G1 X127.132 Y109.241 E8.5849
G1 X127.384 Y109.280 E8.5886
G1 X127.611 Y109.403 E8.5924
G1 X127.784 Y109.601 E8.5962
G1 X127.881 Y109.849 E8.6000
G1 X127.887 Y110.117 E8.6039
G1 X127.796 Y110.383 E8.6080
G1 X127.625 Y110.587 E8.6119
G1 X127.401 Y110.716 E8.6157
G1 X127.148 Y110.761 E8.6194
G1 X126.910 Y110.719 E8.6229
G1 X126.730 Y110.620 E8.6259
G1 X126.139 Y110.649
G0 F4800 E7.6259
G0 X125.578 Y110.239 F10800
G0 X125.912 Y107.025
G0 X126.133 Y104.601
G0 F4800 E8.6259
;segType:Loop
G1 X126.198 Y104.421 E8.6287 F600
G1 X126.449 Y104.122 E8.6344
G1 X126.779 Y103.931 E8.6399
G1 X127.148 Y103.866 E8.6454
G1 X127.517 Y103.931 E8.6508
G1 X127.847 Y104.122 E8.6564
G1 X128.099 Y104.421 E8.6621
G1 X128.236 Y104.798 E8.6679
G1 X128.236 Y105.202 E8.6738
G1 X128.099 Y105.579 E8.6796
G1 X127.847 Y105.878 E8.6853
G1 X127.517 Y106.069 E8.6909
G1 X127.148 Y106.134 E8.6963
G1 X126.779 Y106.069 E8.7018
G1 X126.449 Y105.878 E8.7073
G1 X126.198 Y105.579 E8.7130
G1 X126.061 Y105.202 E8.7188
G1 X126.061 Y104.798 E8.7247
G1 X126.074 Y104.762 E8.7253
G0 X126.349 Y105.447 F10800
G0 X126.754 Y106.157
;segType:Perimeter
G1 X126.639 Y105.548 E8.7343 F359
G1 X126.502 Y105.385 E8.7374
G1 X126.411 Y105.134 E8.7413
G1 X126.411 Y104.866 E8.7452
G1 X126.502 Y104.615 E8.7491
G1 X126.672 Y104.413 E8.7529
G1 X126.896 Y104.284 E8.7567
G1 X127.148 Y104.239 E8.7604
G1 X127.401 Y104.284 E8.7641
G1 X127.625 Y104.413 E8.7679
G1 X127.794 Y104.615 E8.7717
G1 X127.886 Y104.866 E8.7756
G1 X127.886 Y105.134 E8.7795
G1 X127.794 Y105.385 E8.7834
G1 X127.625 Y105.587 E8.7872
G1 X127.401 Y105.716 E8.7910
G1 X127.148 Y105.761 E8.7947
G1 X126.896 Y105.716 E8.7985
G1 X126.715 Y105.612 E8.8015
G1 X126.123 Y105.627
G0 F4800 E7.8015
G0 X127.151 Y107.179 F10800
G0 F4800 E8.8015
;segType:HShell
G1 X127.254 Y107.176 E8.8030 F600
G1 X127.254 Y107.831 E8.8125
G1 X127.069 Y107.814 E8.8152
G1 X127.069 Y107.267 E8.8232
G0 X126.740 Y107.797 F10800
G1 X126.740 Y106.773 E8.8381 F600
G1 X127.148 Y106.845 E8.8441
G1 X127.583 Y106.768 E8.8506
G1 X127.583 Y108.230 E8.8718
G1 X127.109 Y108.157 E8.8788
G1 X126.740 Y108.231 E8.8843
G1 X126.740 Y107.970 E8.8881
G0 X126.416 Y108.737 F10800
G1 X126.411 Y108.740 E8.8882 F600
G1 X126.411 Y106.263 E8.9242
G1 X126.666 Y106.410 E8.9285
G1 X127.148 Y106.495 E8.9356
G1 X127.630 Y106.410 E8.9428
G1 X127.912 Y106.247 E8.9475
G1 X127.912 Y108.752 E8.9839
G1 X127.599 Y108.581 E8.9891
G1 X127.116 Y108.507 E8.9962
G1 X126.637 Y108.603 E9.0033
G1 X126.558 Y108.651 E9.0047
; ------------------------------------
; Layer #1
; ------------------------------------
G21 ; mm
G90 ; abs
G92 E0 ; reset extr
M106 S255
G0 F4800 E-1.0000
G0 F300 Z0.200
G0 X124.793 Y108.682 F10800
G0 X123.028 Y108.713
G0 F4800 E0.0000
;segType:HShell
G1 X122.758 Y108.572 E0.0044 F3600
G1 X122.274 Y108.510 E0.0115
G1 X121.797 Y108.617 E0.0186
G1 X121.601 Y108.742 E0.0220
G1 X121.601 Y106.263 E0.0581
G1 X121.856 Y106.410 E0.0624
G1 X122.338 Y106.495 E0.0695
G1 X122.820 Y106.410 E0.0766
G1 X123.102 Y106.248 E0.0814
G1 X123.102 Y108.665 E0.1165
;segType:Loop
G0 X123.713 Y109.940 F10800
G1 X123.713 Y110.232 E0.1208 F3600
G1 X123.552 Y110.671 E0.1276
G1 X123.246 Y111.037 E0.1345
G1 X122.824 Y111.281 E0.1416
G1 X122.338 Y111.366 E0.1488
G1 X121.852 Y111.281 E0.1560
G1 X121.430 Y111.037 E0.1631
G1 X121.123 Y110.671 E0.1700
G1 X120.963 Y110.232 E0.1768
G1 X120.963 Y109.768 E0.1836
G1 X121.123 Y109.328 E0.1904
G1 X121.261 Y109.164 E0.1935
G1 X121.261 Y105.836 E0.2419
G1 X121.123 Y105.671 E0.2451
G1 X120.963 Y105.232 E0.2519
G1 X120.963 Y104.768 E0.2586
G1 X121.123 Y104.329 E0.2654
G1 X121.430 Y103.963 E0.2724
G1 X121.852 Y103.719 E0.2795
G1 X122.338 Y103.634 E0.2866
G1 X122.824 Y103.719 E0.2938
G1 X123.246 Y103.963 E0.3009
G1 X123.552 Y104.329 E0.3079
G1 X123.713 Y104.768 E0.3147
G1 X123.713 Y105.232 E0.3214
G1 X123.552 Y105.673 E0.3282
G1 X123.441 Y105.806 E0.3308
G1 X123.441 Y109.195 E0.3801
G1 X123.552 Y109.328 E0.3826
G1 X123.712 Y109.767 E0.3894
G0 F4800 E-0.6106
G0 X123.337 Y108.742 F10800
G0 F4800 E0.3894
;segType:Perimeter
G1 X123.823 Y109.095 E0.3981 F2159
G1 X123.857 Y109.135 E0.3989
G1 X124.063 Y109.700 E0.4077
G1 X124.063 Y110.300 E0.4164
G1 X123.857 Y110.865 E0.4251
G1 X123.468 Y111.328 E0.4339
G1 X122.940 Y111.633 E0.4428
G1 X122.338 Y111.739 E0.4517
G1 X121.735 Y111.633 E0.4606
G1 X121.208 Y111.328 E0.4695
G1 X120.819 Y110.865 E0.4783
G1 X120.613 Y110.300 E0.4870
G1 X120.613 Y109.700 E0.4957
G1 X120.819 Y109.135 E0.5045
G1 X120.911 Y109.025 E0.5066
G1 X120.911 Y105.975 E0.5510
G1 X120.819 Y105.865 E0.5531
G1 X120.613 Y105.300 E0.5618
G1 X120.613 Y104.700 E0.5705
G1 X120.819 Y104.135 E0.5793
G1 X121.208 Y103.672 E0.5881
G1 X121.735 Y103.367 E0.5970
G1 X122.338 Y103.261 E0.6059
G1 X122.940 Y103.367 E0.6148
G1 X123.468 Y103.672 E0.6236
G1 X123.857 Y104.135 E0.6324
G1 X124.063 Y104.700 E0.6412
G1 X124.063 Y105.300 E0.6499
G1 X123.857 Y105.865 E0.6587
G1 X123.791 Y105.944 E0.6601
G1 X123.791 Y109.005 E0.7047
G1 X123.647 Y109.607
G0 X122.882 Y109.255 F10800
G0 X122.297 Y109.071
G0 X121.492 Y109.303
;segType:Loop
G1 X121.603 Y109.158 E0.7073 F3600
G1 X121.924 Y108.953 E0.7129
G1 X122.289 Y108.871 E0.7183
G1 X122.659 Y108.919 E0.7238
G1 X122.995 Y109.093 E0.7293
G1 X123.258 Y109.379 E0.7349
G1 X123.412 Y109.748 E0.7407
G1 X123.430 Y110.189 E0.7472
G1 X123.288 Y110.579 E0.7532
G1 X123.037 Y110.878 E0.7589
G1 X122.707 Y111.069 E0.7644
G1 X122.338 Y111.134 E0.7699
G1 X122.005 Y111.075 E0.7748
G1 X121.681 Y110.907 E0.7801
G1 X121.418 Y110.622 E0.7858
G1 X121.264 Y110.254 E0.7916
G1 X121.246 Y109.851 E0.7974
G1 X121.365 Y109.469 E0.8032
G1 X121.389 Y109.438 E0.8038
;segType:Perimeter
G0 X121.944 Y106.157 F10800
G1 X121.829 Y105.548 E0.8128 F2159
G1 X121.692 Y105.385 E0.8159
G1 X121.601 Y105.134 E0.8198
G1 X121.601 Y104.866 E0.8237
G1 X121.692 Y104.615 E0.8276
G1 X121.861 Y104.413 E0.8314
G1 X122.086 Y104.284 E0.8352
G1 X122.338 Y104.239 E0.8389
G1 X122.591 Y104.284 E0.8427
G1 X122.815 Y104.413 E0.8465
G1 X122.984 Y104.615 E0.8503
G1 X123.075 Y104.866 E0.8542
G1 X123.075 Y105.134 E0.8581
G1 X122.984 Y105.385 E0.8620
G1 X122.815 Y105.587 E0.8658
G1 X122.591 Y105.716 E0.8696
G1 X122.338 Y105.761 E0.8733
G1 X122.086 Y105.716 E0.8770
G1 X121.904 Y105.612 E0.8801
G1 X121.313 Y105.627
G0 F4800 E-0.1199
G0 X121.322 Y104.601 F10800
G0 F4800 E0.8801
;segType:Loop
G1 X121.387 Y104.421 E0.8828 F3600
G1 X121.639 Y104.122 E0.8885
G1 X121.969 Y103.931 E0.8941
G1 X122.338 Y103.866 E0.8995
G1 X122.707 Y103.931 E0.9050
G1 X123.037 Y104.122 E0.9105
G1 X123.288 Y104.421 E0.9162
G1 X123.425 Y104.798 E0.9220
G1 X123.425 Y105.202 E0.9279
G1 X123.288 Y105.579 E0.9338
G1 X123.037 Y105.878 E0.9394
G1 X122.707 Y106.069 E0.9450
G1 X122.338 Y106.134 E0.9504
G1 X121.969 Y106.069 E0.9559
G1 X121.639 Y105.878 E0.9614
G1 X121.387 Y105.579 E0.9671
G1 X121.251 Y105.202 E0.9730
G1 X121.251 Y104.798 E0.9788
G1 X121.264 Y104.762 E0.9794
G0 X121.504 Y108.600 F10800
G0 X121.631 Y110.984
;segType:Perimeter
G1 X121.693 Y110.366 E0.9884 F2159
G1 X121.611 Y110.169 E0.9916
G1 X121.599 Y109.901 E0.9954
G1 X121.678 Y109.647 E0.9993
G1 X121.837 Y109.438 E1.0031
G1 X122.055 Y109.299 E1.0069
G1 X122.304 Y109.243 E1.0106
G1 X122.557 Y109.276 E1.0143
G1 X122.786 Y109.394 E1.0181
G1 X122.963 Y109.587 E1.0219
G1 X123.065 Y109.832 E1.0257
G1 X123.077 Y110.129 E1.0301
G1 X122.984 Y110.386 E1.0340
G1 X122.815 Y110.587 E1.0379
G1 X122.591 Y110.716 E1.0416
G1 X122.338 Y110.761 E1.0454
G1 X122.114 Y110.721 E1.0487
G1 X121.890 Y110.606 E1.0523
G1 X121.748 Y110.451 E1.0554
G1 X121.179 Y110.277
G0 F4800 E0.0554
G0 X122.093 Y108.197 F10800
G0 F4800 E1.0554
;segType:HShell
G1 X121.930 Y108.234 E1.0578 F3600
G1 X121.930 Y106.773 E1.0791
G1 X122.338 Y106.845 E1.0851
G1 X122.773 Y106.768 E1.0916
G1 X122.773 Y108.227 E1.1128
G1 X122.259 Y108.160 E1.1203
G1 X122.254 Y108.161 E1.1204
G0 X122.258 Y107.460 F10800
G1 X122.258 Y107.181 E1.1245 F3600
G1 X122.444 Y107.176 E1.1272
G1 X122.444 Y107.836 E1.1368
G1 X122.258 Y107.812 E1.1395
G1 X122.258 Y107.633 E1.1421
G0 F4800 E0.1421
G0 X127.887 Y108.976 F10800
G0 X128.523 Y109.940
G0 F4800 E1.1421
;segType:Loop
G1 X128.523 Y110.232 E1.1464 F3600
G1 X128.363 Y110.671 E1.1532
G1 X128.056 Y111.037 E1.1601
G1 X127.634 Y111.281 E1.1672
G1 X127.148 Y111.366 E1.1744
G1 X126.662 Y111.281 E1.1816
G1 X126.240 Y111.037 E1.1887
G1 X125.934 Y110.671 E1.1956
G1 X125.774 Y110.232 E1.2024
G1 X125.774 Y109.768 E1.2092
G1 X125.934 Y109.328 E1.2160
G1 X126.072 Y109.164 E1.2191
G1 X126.072 Y105.836 E1.2675
G1 X125.934 Y105.671 E1.2706
G1 X125.774 Y105.232 E1.2774
G1 X125.774 Y104.768 E1.2842
G1 X125.934 Y104.329 E1.2910
G1 X126.240 Y103.963 E1.2979
G1 X126.662 Y103.719 E1.3050
G1 X127.148 Y103.634 E1.3122
G1 X127.634 Y103.719 E1.3194
G1 X128.056 Y103.963 E1.3265
G1 X128.363 Y104.329 E1.3334
G1 X128.521 Y104.763 E1.3402
G1 X128.513 Y105.258 E1.3474
G1 X128.359 Y105.677 E1.3538
G1 X128.251 Y105.806 E1.3563
G1 X128.251 Y109.195 E1.4056
G1 X128.363 Y109.328 E1.4081
G1 X128.523 Y109.767 E1.4149
G0 F4800 E0.4149
G0 X128.147 Y108.742 F10800
G0 F4800 E1.4149
;segType:Perimeter
G1 X128.634 Y109.095 E1.4237 F2159
G1 X128.667 Y109.135 E1.4244
G1 X128.873 Y109.700 E1.4332
G1 X128.873 Y110.300 E1.4419
G1 X128.667 Y110.865 E1.4507
G1 X128.278 Y111.328 E1.4595
G1 X127.751 Y111.633 E1.4683
G1 X127.148 Y111.739 E1.4772
G1 X126.546 Y111.633 E1.4861
G1 X126.018 Y111.328 E1.4950
G1 X125.629 Y110.865 E1.5038
G1 X125.424 Y110.300 E1.5126
G1 X125.424 Y109.700 E1.5213
G1 X125.629 Y109.135 E1.5300
G1 X125.722 Y109.025 E1.5321
G1 X125.722 Y105.975 E1.5765
G1 X125.629 Y105.865 E1.5786
G1 X125.424 Y105.300 E1.5873
G1 X125.424 Y104.700 E1.5961
G1 X125.629 Y104.135 E1.6048
G1 X126.018 Y103.672 E1.6136
G1 X126.546 Y103.367 E1.6225
G1 X127.148 Y103.261 E1.6314
G1 X127.751 Y103.367 E1.6403
G1 X128.278 Y103.672 E1.6492
G1 X128.667 Y104.135 E1.6580
G1 X128.872 Y104.698 E1.6667
G1 X128.862 Y105.330 E1.6759
G1 X128.663 Y105.870 E1.6842
G1 X128.601 Y105.944 E1.6856
G1 X128.601 Y109.005 E1.7302
G1 X128.458 Y109.607
G0 X127.693 Y109.255 F10800
G0 X127.107 Y109.071
G0 X126.303 Y109.303
;segType:Loop
G1 X126.413 Y109.158 E1.7328 F3600
G1 X126.734 Y108.953 E1.7384
G1 X127.099 Y108.871 E1.7438
G1 X127.469 Y108.919 E1.7493
G1 X127.806 Y109.093 E1.7548
G1 X128.068 Y109.379 E1.7604
G1 X128.222 Y109.746 E1.7662
G1 X128.240 Y110.151 E1.7721
G1 X128.107 Y110.568 E1.7785
G1 X127.847 Y110.879 E1.7844
G1 X127.517 Y111.069 E1.7899
G1 X127.148 Y111.134 E1.7954
G1 X126.815 Y111.075 E1.8003
G1 X126.492 Y110.907 E1.8056
G1 X126.228 Y110.622 E1.8112
G1 X126.075 Y110.254 E1.8170
G1 X126.056 Y109.851 E1.8229
G1 X126.176 Y109.469 E1.8287
G1 X126.200 Y109.438 E1.8293
;segType:Perimeter
G0 X126.754 Y106.157 F10800
G1 X126.639 Y105.548 E1.8383 F2159
G1 X126.502 Y105.385 E1.8414
G1 X126.411 Y105.134 E1.8453
G1 X126.411 Y104.866 E1.8492
G1 X126.502 Y104.615 E1.8531
G1 X126.672 Y104.413 E1.8569
G1 X126.896 Y104.284 E1.8607
G1 X127.148 Y104.239 E1.8644
G1 X127.401 Y104.284 E1.8682
G1 X127.625 Y104.413 E1.8719
G1 X127.794 Y104.615 E1.8758
G1 X127.886 Y104.866 E1.8796
G1 X127.886 Y105.134 E1.8836
G1 X127.794 Y105.385 E1.8874
G1 X127.625 Y105.587 E1.8913
G1 X127.401 Y105.716 E1.8950
G1 X127.148 Y105.761 E1.8988
G1 X126.896 Y105.716 E1.9025
G1 X126.715 Y105.612 E1.9055
G1 X126.123 Y105.627
G0 F4800 E0.9055
G0 X126.133 Y104.601 F10800
G0 F4800 E1.9055
;segType:Loop
G1 X126.198 Y104.421 E1.9083 F3600
G1 X126.449 Y104.122 E1.9140
G1 X126.779 Y103.931 E1.9196
G1 X127.148 Y103.866 E1.9250
G1 X127.517 Y103.931 E1.9305
G1 X127.847 Y104.122 E1.9360
G1 X128.099 Y104.421 E1.9417
G1 X128.236 Y104.798 E1.9475
G1 X128.236 Y105.202 E1.9534
G1 X128.099 Y105.579 E1.9592
G1 X127.847 Y105.878 E1.9649
G1 X127.517 Y106.069 E1.9705
G1 X127.148 Y106.134 E1.9759
G1 X126.779 Y106.069 E1.9814
G1 X126.449 Y105.878 E1.9869
G1 X126.198 Y105.579 E1.9926
G1 X126.061 Y105.202 E1.9984
G1 X126.061 Y104.798 E2.0043
G1 X126.074 Y104.762 E2.0049
G0 X126.314 Y108.600 F10800
G0 X126.442 Y110.984
;segType:Perimeter
G1 X126.504 Y110.366 E2.0139 F2159
G1 X126.421 Y110.168 E2.0170
G1 X126.409 Y109.901 E2.0209
G1 X126.489 Y109.647 E2.0248
G1 X126.648 Y109.438 E2.0286
G1 X126.865 Y109.299 E2.0324
G1 X127.115 Y109.243 E2.0361
G1 X127.368 Y109.276 E2.0398
G1 X127.596 Y109.394 E2.0436
G1 X127.773 Y109.587 E2.0474
G1 X127.875 Y109.831 E2.0512
G1 X127.888 Y110.099 E2.0551
G1 X127.798 Y110.381 E2.0594
G1 X127.625 Y110.587 E2.0633
G1 X127.401 Y110.716 E2.0671
G1 X127.148 Y110.761 E2.0708
G1 X126.924 Y110.721 E2.0741
G1 X126.701 Y110.606 E2.0778
G1 X126.558 Y110.451 E2.0809
G1 X125.990 Y110.277
G0 F4800 E1.0809
G0 X126.846 Y108.563 F10800
G0 F4800 E2.0809
;segType:HShell
G1 X126.607 Y108.617 E2.0844 F3600
G1 X126.411 Y108.742 E2.0878
G1 X126.411 Y106.263 E2.1239
G1 X126.666 Y106.410 E2.1282
G1 X127.148 Y106.495 E2.1353
G1 X127.630 Y106.410 E2.1424
G1 X127.912 Y106.247 E2.1472
G1 X127.912 Y108.751 E2.1836
G1 X127.568 Y108.572 E2.1892
G1 X127.084 Y108.510 E2.1963
G1 X127.007 Y108.527 E2.1975
G0 X126.740 Y108.148 F10800
G1 X126.740 Y106.773 E2.2175 F3600
G1 X127.148 Y106.845 E2.2235
G1 X127.583 Y106.768 E2.2299
G1 X127.583 Y108.227 E2.2512
G1 X127.070 Y108.160 E2.2587
G1 X126.820 Y108.216 E2.2624
G0 X127.069 Y107.198 F10800
G1 X127.069 Y107.181 E2.2627 F3600
G1 X127.254 Y107.176 E2.2654
G1 X127.254 Y107.836 E2.2750
G1 X127.069 Y107.812 E2.2777
G1 X127.069 Y107.371 E2.2841
G0 F4800 E1.2841
G0 X131.608 Y112.122 F10800
G0 X133.136 Y112.122
G0 X134.313 Y111.133
G0 X134.478 Y108.228
G0 X138.494 Y108.786
G0 F4800 E2.2841
G1 X138.082 Y108.572 E2.2909 F3600
G1 X137.598 Y108.510 E2.2980
G1 X137.121 Y108.617 E2.3051
G1 X136.764 Y108.845 E2.3113
G1 X136.764 Y91.228 E2.5676
G1 X138.585 Y91.228 E2.5941
G1 X138.558 Y108.753 E2.8491
;segType:Perimeter
G0 X138.810 Y108.965 F10800
G1 X139.264 Y109.363 E2.8579 F2159
G1 X139.387 Y109.700 E2.8631
G1 X139.387 Y110.300 E2.8719
G1 X139.181 Y110.865 E2.8806
G1 X138.792 Y111.328 E2.8894
G1 X138.264 Y111.633 E2.8983
G1 X137.662 Y111.739 E2.9072
G1 X137.060 Y111.633 E2.9161
G1 X136.532 Y111.328 E2.9249
G1 X136.143 Y110.865 E2.9338
G1 X135.937 Y110.300 E2.9425
G1 X135.937 Y109.699 E2.9512
G1 X136.074 Y109.314 E2.9572
G1 X136.074 Y90.675 E3.2284
G1 X135.937 Y90.300 E3.2342
G1 X135.937 Y89.700 E3.2429
G1 X136.143 Y89.135 E3.2517
G1 X136.532 Y88.672 E3.2605
G1 X137.060 Y88.367 E3.2694
G1 X137.662 Y88.261 E3.2783
G1 X138.264 Y88.367 E3.2872
G1 X138.792 Y88.672 E3.2960
G1 X139.181 Y89.135 E3.3048
G1 X139.387 Y89.700 E3.3136
G1 X139.387 Y90.300 E3.3223
G1 X139.275 Y90.606 E3.3270
G1 X139.247 Y109.263 E3.5985
G1 X138.957 Y109.805
;segType:Loop
G0 X139.035 Y110.237 F10800
G1 X138.877 Y110.671 E3.6053 F3600
G1 X138.570 Y111.037 E3.6122
G1 X138.148 Y111.281 E3.6193
G1 X137.662 Y111.366 E3.6265
G1 X137.176 Y111.281 E3.6337
G1 X136.754 Y111.037 E3.6408
G1 X136.447 Y110.671 E3.6477
G1 X136.287 Y110.232 E3.6545
G1 X136.287 Y109.766 E3.6613
G1 X136.424 Y109.381 E3.6672
G1 X136.424 Y90.608 E3.9404
G1 X136.287 Y90.232 E3.9462
G1 X136.287 Y89.768 E3.9530
G1 X136.447 Y89.329 E3.9598
G1 X136.754 Y88.963 E3.9667
G1 X137.176 Y88.719 E3.9738
G1 X137.662 Y88.634 E3.9810
G1 X138.148 Y88.719 E3.9882
G1 X138.570 Y88.963 E3.9953
G1 X138.877 Y89.329 E4.0022
G1 X139.037 Y89.768 E4.0090
G1 X139.037 Y90.232 E4.0158
G1 X138.925 Y90.537 E4.0205
G1 X138.896 Y109.383 E4.2947
G1 X139.037 Y109.768 E4.3007
G1 X139.037 Y110.065 E4.3050
G0 F4800 E3.3050
G0 X138.502 Y110.331 F10800
G0 X138.549 Y109.792
G0 X138.207 Y109.255
G0 X137.621 Y109.071
G0 X136.816 Y109.303
G0 F4800 E4.3050
G1 X136.927 Y109.158 E4.3077 F3600
G1 X137.248 Y108.953 E4.3132
G1 X137.613 Y108.871 E4.3186
G1 X137.983 Y108.919 E4.3241
G1 X138.319 Y109.093 E4.3296
G1 X138.582 Y109.379 E4.3352
G1 X138.736 Y109.746 E4.3410
G1 X138.754 Y110.149 E4.3469
G1 X138.635 Y110.531 E4.3527
G1 X138.397 Y110.842 E4.3584
G1 X138.076 Y111.047 E4.3640
G1 X137.711 Y111.129 E4.3694
G1 X137.341 Y111.081 E4.3748
G1 X137.005 Y110.907 E4.3803
G1 X136.742 Y110.622 E4.3860
G1 X136.588 Y110.254 E4.3918
G1 X136.570 Y109.851 E4.3977
G1 X136.690 Y109.469 E4.4035
G1 X136.714 Y109.438 E4.4040
G0 X136.771 Y110.177 F10800
G0 X136.955 Y110.984
;segType:Perimeter
G1 X137.017 Y110.366 E4.4131 F2159
G1 X136.935 Y110.168 E4.4162
G1 X136.923 Y109.901 E4.4201
G1 X137.002 Y109.647 E4.4240
G1 X137.161 Y109.438 E4.4278
G1 X137.379 Y109.299 E4.4315
G1 X137.628 Y109.243 E4.4353
G1 X137.881 Y109.276 E4.4390
G1 X138.110 Y109.394 E4.4427
G1 X138.287 Y109.587 E4.4465
G1 X138.389 Y109.831 E4.4504
G1 X138.401 Y110.099 E4.4543
G1 X138.322 Y110.353 E4.4582
G1 X138.163 Y110.562 E4.4620
G1 X137.945 Y110.701 E4.4657
G1 X137.696 Y110.757 E4.4694
G1 X137.443 Y110.724 E4.4732
G1 X137.214 Y110.606 E4.4769
G1 X137.071 Y110.451 E4.4800
G1 X136.503 Y110.277
G0 F4800 E3.4800
G0 X136.575 Y91.790 F10800
G0 X136.694 Y89.468
G0 F4800 E4.4800
;segType:Loop
G1 X136.712 Y89.421 E4.4807 F3600
G1 X136.939 Y89.150 E4.4858
G1 X137.248 Y88.953 E4.4912
G1 X137.613 Y88.871 E4.4966
G1 X137.983 Y88.919 E4.5021
G1 X138.319 Y89.093 E4.5076
G1 X138.592 Y89.389 E4.5134
G1 X138.749 Y89.821 E4.5201
G1 X138.749 Y90.202 E4.5257
G1 X138.506 Y90.871 E4.5360
G1 X136.818 Y90.871 E4.5606
G1 X136.575 Y90.202 E4.5709
G1 X136.575 Y89.798 E4.5768
G1 X136.636 Y89.630 E4.5794
G0 X136.906 Y90.565 F10800
G0 X137.317 Y91.005
;segType:Perimeter
G1 X137.042 Y90.455 E4.5884 F2159
G1 X136.925 Y90.134 E4.5933
G1 X136.925 Y89.866 E4.5973
G1 X137.016 Y89.615 E4.6011
G1 X137.166 Y89.435 E4.6046
G1 X137.379 Y89.299 E4.6082
G1 X137.628 Y89.243 E4.6119
G1 X137.881 Y89.276 E4.6157
G1 X138.110 Y89.394 E4.6194
G1 X138.291 Y89.591 E4.6233
G1 X138.399 Y89.889 E4.6279
G1 X138.399 Y90.134 E4.6315
G1 X138.265 Y90.504 E4.6372
G1 X137.108 Y90.504 E4.6540
G1 X136.521 Y90.430
G0 F4800 E3.6540
G0 X137.421 Y107.757 F10800
G0 F4800 E4.6540
;segType:HShell
G1 X137.421 Y91.919 E4.8845 F3600
G1 X137.927 Y91.919 E4.8919
G1 X137.902 Y107.854 E5.1237
G1 X137.569 Y107.810 E5.1286
G1 X137.501 Y107.825 E5.1296
G0 X137.682 Y108.173 F10800
G1 X137.583 Y108.160 E5.1311 F3600
G1 X137.092 Y108.270 E5.1384
G1 X137.092 Y91.573 E5.3814
G1 X138.256 Y91.573 E5.3983
G1 X138.230 Y108.265 E5.6412
G1 X138.177 Y108.237 E5.6420
G1 X137.845 Y108.194 E5.6469
G0 F4800 E4.6469
G0 X135.542 Y108.501 F10800
G0 X133.239 Y108.808
G0 F4800 E5.6469
G1 X133.232 Y108.801 E5.6470 F3600
G1 X132.791 Y108.572 E5.6543
G1 X132.308 Y108.510 E5.6614
G1 X131.831 Y108.617 E5.6685
G1 X131.473 Y108.845 E5.6747
G1 X131.473 Y91.170 E5.9319
G1 X131.890 Y91.410 E5.9389
G1 X132.372 Y91.495 E5.9460
G1 X132.854 Y91.410 E5.9531
G1 X133.295 Y91.150 E5.9605
G1 X133.296 Y108.783 E6.2171
;segType:Perimeter
G0 X133.548 Y109.045 F10800
G1 X134.003 Y109.443 E6.2259 F2159
G1 X134.097 Y109.700 E6.2299
G1 X134.097 Y110.300 E6.2386
G1 X133.891 Y110.865 E6.2474
G1 X133.502 Y111.328 E6.2562
G1 X132.974 Y111.633 E6.2651
G1 X132.372 Y111.739 E6.2740
G1 X131.770 Y111.633 E6.2829
G1 X131.242 Y111.328 E6.2917
G1 X130.853 Y110.865 E6.3005
G1 X130.647 Y110.300 E6.3093
G1 X130.647 Y109.700 E6.3180
G1 X130.784 Y109.325 E6.3238
G1 X130.784 Y90.675 E6.5952
G1 X130.647 Y90.300 E6.6010
G1 X130.647 Y89.700 E6.6097
G1 X130.853 Y89.135 E6.6185
G1 X131.242 Y88.672 E6.6273
G1 X131.770 Y88.367 E6.6361
G1 X132.372 Y88.261 E6.6450
G1 X132.974 Y88.367 E6.6539
G1 X133.502 Y88.672 E6.6628
G1 X133.891 Y89.135 E6.6716
G1 X134.097 Y89.700 E6.6804
G1 X134.097 Y90.300 E6.6891
G1 X133.984 Y90.608 E6.6939
G1 X133.985 Y109.342 E6.9665
G1 X133.696 Y109.884
;segType:Loop
G0 X133.717 Y110.312 F10800
G1 X133.586 Y110.671 E6.9720 F3600
G1 X133.280 Y111.037 E6.9790
G1 X132.858 Y111.281 E6.9861
G1 X132.372 Y111.366 E6.9933
G1 X131.886 Y111.281 E7.0004
G1 X131.464 Y111.037 E7.0075
G1 X131.157 Y110.671 E7.0145
G1 X130.997 Y110.232 E7.0213
G1 X130.997 Y109.768 E7.0280
G1 X131.134 Y109.392 E7.0338
G1 X131.134 Y90.607 E7.3072
G1 X130.997 Y90.232 E7.3130
G1 X130.997 Y89.768 E7.3198
G1 X131.157 Y89.329 E7.3266
G1 X131.464 Y88.963 E7.3335
G1 X131.886 Y88.719 E7.3406
G1 X132.372 Y88.634 E7.3478
G1 X132.858 Y88.719 E7.3550
G1 X133.280 Y88.963 E7.3620
G1 X133.586 Y89.329 E7.3690
G1 X133.747 Y89.768 E7.3758
G1 X133.747 Y90.232 E7.3825
G1 X133.635 Y90.540 E7.3873
G1 X133.635 Y109.462 E7.6627
G1 X133.747 Y109.768 E7.6674
G1 X133.747 Y110.145 E7.6729
G0 F4800 E6.6729
G0 X133.097 Y110.552 F10800
G0 X132.678 Y110.879
G0 X132.065 Y110.879
G0 X131.585 Y110.475
G0 X131.356 Y109.601
G0 F4800 E7.6729
G1 X131.422 Y109.422 E7.6757 F3600
G1 X131.649 Y109.150 E7.6808
G1 X131.958 Y108.953 E7.6861
G1 X132.323 Y108.871 E7.6916
G1 X132.693 Y108.919 E7.6970
G1 X133.029 Y109.093 E7.7025
G1 X133.292 Y109.379 E7.7082
G1 X133.446 Y109.747 E7.7140
G1 X133.464 Y110.189 E7.7204
G1 X133.322 Y110.579 E7.7265
G1 X133.071 Y110.879 E7.7322
G1 X132.741 Y111.069 E7.7377
G1 X132.372 Y111.134 E7.7431
G1 X132.003 Y111.069 E7.7486
G1 X131.673 Y110.878 E7.7541
G1 X131.422 Y110.579 E7.7598
G1 X131.285 Y110.202 E7.7657
G1 X131.285 Y109.797 E7.7715
G1 X131.298 Y109.762 E7.7721
G0 X131.572 Y110.447 F10800
G0 X131.978 Y111.157
;segType:Perimeter
G1 X131.863 Y110.548 E7.7811 F2159
G1 X131.726 Y110.386 E7.7842
G1 X131.635 Y110.134 E7.7881
G1 X131.635 Y109.866 E7.7920
G1 X131.726 Y109.615 E7.7959
G1 X131.876 Y109.435 E7.7993
G1 X132.089 Y109.299 E7.8030
G1 X132.338 Y109.243 E7.8067
G1 X132.591 Y109.276 E7.8104
G1 X132.820 Y109.394 E7.8142
G1 X132.997 Y109.587 E7.8180
G1 X133.099 Y109.832 E7.8218
G1 X133.111 Y110.129 E7.8262
G1 X133.018 Y110.386 E7.8301
G1 X132.849 Y110.587 E7.8340
G1 X132.624 Y110.716 E7.8377
G1 X132.372 Y110.761 E7.8415
G1 X132.119 Y110.716 E7.8452
G1 X131.938 Y110.612 E7.8482
G1 X131.347 Y110.627
G0 F4800 E6.8482
G0 X130.625 Y108.616 F10800
G0 X131.356 Y89.601
G0 F4800 E7.8482
;segType:Loop
G1 X131.422 Y89.421 E7.8510 F3600
G1 X131.673 Y89.122 E7.8567
G1 X132.003 Y88.932 E7.8622
G1 X132.372 Y88.866 E7.8677
G1 X132.741 Y88.932 E7.8731
G1 X133.071 Y89.121 E7.8787
G1 X133.322 Y89.421 E7.8844
G1 X133.458 Y89.794 E7.8901
G1 X133.460 Y90.196 E7.8960
G1 X133.324 Y90.577 E7.9019
G1 X133.071 Y90.878 E7.9076
G1 X132.741 Y91.069 E7.9131
G1 X132.372 Y91.134 E7.9186
G1 X132.003 Y91.069 E7.9241
G1 X131.673 Y90.878 E7.9296
G1 X131.422 Y90.578 E7.9353
G1 X131.285 Y90.203 E7.9411
G1 X131.285 Y89.798 E7.9470
G1 X131.298 Y89.762 E7.9476
G0 X131.572 Y90.447 F10800
G0 X131.978 Y91.157
;segType:Perimeter
G1 X131.862 Y90.548 E7.9566 F2159
G1 X131.726 Y90.385 E7.9597
G1 X131.635 Y90.134 E7.9636
G1 X131.635 Y89.866 E7.9675
G1 X131.726 Y89.615 E7.9714
G1 X131.895 Y89.413 E7.9752
G1 X132.119 Y89.284 E7.9789
G1 X132.372 Y89.239 E7.9827
G1 X132.624 Y89.284 E7.9864
G1 X132.849 Y89.413 E7.9902
G1 X133.018 Y89.615 E7.9940
G1 X133.108 Y89.862 E7.9978
G1 X133.110 Y90.130 E8.0017
G1 X133.018 Y90.385 E8.0057
G1 X132.849 Y90.587 E8.0095
G1 X132.624 Y90.716 E8.0133
G1 X132.372 Y90.761 E8.0170
G1 X132.119 Y90.716 E8.0208
G1 X131.938 Y90.612 E8.0238
G1 X131.347 Y90.626
G0 F4800 E7.0238
G0 X132.131 Y107.757 F10800
G0 F4800 E8.0238
;segType:HShell
G1 X132.131 Y92.153 E8.2509 F3600
G1 X132.372 Y92.195 E8.2544
G1 X132.638 Y92.148 E8.2584
G1 X132.638 Y107.857 E8.4869
G1 X132.279 Y107.810 E8.4922
G1 X132.211 Y107.825 E8.4932
G0 X132.432 Y108.178 F10800
G1 X132.293 Y108.160 E8.4952 F3600
G1 X131.802 Y108.270 E8.5026
G1 X131.802 Y91.745 E8.7430
G1 X132.372 Y91.845 E8.7515
G1 X132.967 Y91.739 E8.7602
G1 X132.967 Y108.279 E9.0009
G1 X132.887 Y108.237 E9.0022
G1 X132.595 Y108.199 E9.0065
; ------------------------------------
; Layer #2
; ------------------------------------
G21 ; mm
G90 ; abs
G92 E0 ; reset extr
M106 S255
G0 F4800 E-1.0000
G0 F300 Z0.300
G0 X134.783 Y109.681 F10800
G0 X136.971 Y111.163
G0 F4800 E0.0000
;segType:Loop
G1 X136.754 Y111.037 E0.0037 F3600
G1 X136.447 Y110.671 E0.0106
G1 X136.287 Y110.232 E0.0174
G1 X136.287 Y109.766 E0.0242
G1 X136.424 Y109.381 E0.0301
G1 X136.424 Y90.608 E0.3033
G1 X136.287 Y90.232 E0.3091
G1 X136.287 Y89.768 E0.3159
G1 X136.447 Y89.329 E0.3227
G1 X136.754 Y88.963 E0.3296
G1 X137.176 Y88.719 E0.3367
G1 X137.662 Y88.634 E0.3439
G1 X138.148 Y88.719 E0.3511
G1 X138.570 Y88.963 E0.3582
G1 X138.877 Y89.329 E0.3651
G1 X139.037 Y89.768 E0.3719
G1 X139.037 Y90.232 E0.3787
G1 X138.925 Y90.537 E0.3834
G1 X138.896 Y109.383 E0.6576
G1 X139.037 Y109.768 E0.6636
G1 X139.037 Y110.232 E0.6703
G1 X138.877 Y110.671 E0.6771
G1 X138.570 Y111.037 E0.6841
G1 X138.148 Y111.281 E0.6912
G1 X137.662 Y111.366 E0.6984
G1 X137.176 Y111.281 E0.7055
G1 X137.115 Y111.246 E0.7066
G0 F4800 E-0.2934
G0 X137.996 Y111.256 F10800
G0 F4800 E0.7066
;segType:Perimeter
G1 X137.613 Y111.731 E0.7154 F2159
G1 X137.060 Y111.633 E0.7236
G1 X136.532 Y111.328 E0.7325
G1 X136.143 Y110.865 E0.7413
G1 X135.937 Y110.300 E0.7500
G1 X135.937 Y109.699 E0.7588
G1 X136.074 Y109.314 E0.7647
G1 X136.074 Y90.675 E1.0359
G1 X135.937 Y90.300 E1.0417
G1 X135.937 Y89.700 E1.0505
G1 X136.143 Y89.135 E1.0592
G1 X136.532 Y88.672 E1.0680
G1 X137.060 Y88.367 E1.0769
G1 X137.662 Y88.261 E1.0858
G1 X138.264 Y88.367 E1.0947
G1 X138.792 Y88.672 E1.1036
G1 X139.181 Y89.135 E1.1124
G1 X139.387 Y89.700 E1.1211
G1 X139.387 Y90.300 E1.1298
G1 X139.275 Y90.606 E1.1346
G1 X139.247 Y109.315 E1.4068
G1 X139.387 Y109.700 E1.4128
G1 X139.387 Y110.300 E1.4215
G1 X139.181 Y110.865 E1.4303
G1 X138.792 Y111.328 E1.4391
G1 X138.264 Y111.633 E1.4479
G1 X137.711 Y111.731 E1.4561
G1 X137.328 Y111.256
G0 X138.025 Y110.852 F10800
G0 X138.475 Y110.415
G0 X138.743 Y109.936
;segType:Loop
G1 X138.756 Y110.122 E1.4588 F3600
G1 X138.645 Y110.507 E1.4647
G1 X138.415 Y110.823 E1.4703
G1 X138.099 Y111.036 E1.4759
G1 X137.736 Y111.126 E1.4813
G1 X137.365 Y111.087 E1.4868
G1 X137.027 Y110.921 E1.4922
G1 X136.757 Y110.643 E1.4979
G1 X136.596 Y110.279 E1.5037
G1 X136.568 Y109.878 E1.5095
G1 X136.679 Y109.493 E1.5153
G1 X136.909 Y109.177 E1.5210
G1 X137.225 Y108.964 E1.5266
G1 X137.588 Y108.874 E1.5320
G1 X137.959 Y108.913 E1.5375
G1 X138.297 Y109.079 E1.5429
G1 X138.567 Y109.357 E1.5486
G1 X138.728 Y109.721 E1.5544
G1 X138.731 Y109.763 E1.5550
G0 X138.210 Y109.262 F10800
G0 X137.575 Y108.782
;segType:Perimeter
G1 X137.909 Y109.294 E1.5639 F2159
G1 X138.095 Y109.385 E1.5669
G1 X138.276 Y109.573 E1.5707
G1 X138.384 Y109.815 E1.5745
G1 X138.402 Y110.081 E1.5784
G1 X138.329 Y110.337 E1.5823
G1 X138.174 Y110.549 E1.5861
G1 X137.960 Y110.693 E1.5899
G1 X137.713 Y110.754 E1.5936
G1 X137.460 Y110.727 E1.5973
G1 X137.229 Y110.615 E1.6010
G1 X137.048 Y110.427 E1.6048
G1 X136.941 Y110.185 E1.6087
G1 X136.922 Y109.919 E1.6126
G1 X136.995 Y109.664 E1.6164
G1 X137.150 Y109.451 E1.6202
G1 X137.364 Y109.307 E1.6240
G1 X137.611 Y109.246 E1.6277
G1 X137.816 Y109.267 E1.6307
G1 X138.352 Y109.006
;segType:Loop
G0 X136.694 Y89.468 F10800
G1 X136.712 Y89.421 E1.6314 F3600
G1 X136.927 Y89.165 E1.6363
G1 X137.225 Y88.964 E1.6415
G1 X137.588 Y88.874 E1.6470
G1 X137.959 Y88.913 E1.6524
G1 X138.297 Y89.079 E1.6579
G1 X138.583 Y89.374 E1.6638
G1 X138.749 Y89.833 E1.6710
G1 X138.749 Y90.202 E1.6763
G1 X138.506 Y90.871 E1.6867
G1 X136.818 Y90.871 E1.7112
G1 X136.575 Y90.202 E1.7216
G1 X136.575 Y89.798 E1.7275
G1 X136.636 Y89.630 E1.7301
G0 X136.906 Y90.565 F10800
G0 X137.317 Y91.005
;segType:Perimeter
G1 X137.042 Y90.455 E1.7391 F2159
G1 X136.925 Y90.134 E1.7440
G1 X136.925 Y89.866 E1.7479
G1 X137.016 Y89.615 E1.7518
G1 X137.157 Y89.447 E1.7550
G1 X137.364 Y89.307 E1.7586
G1 X137.611 Y89.246 E1.7624
G1 X137.865 Y89.273 E1.7661
G1 X138.095 Y89.385 E1.7698
G1 X138.283 Y89.579 E1.7737
G1 X138.399 Y89.901 E1.7787
G1 X138.399 Y90.134 E1.7821
G1 X138.265 Y90.504 E1.7878
G1 X137.108 Y90.504 E1.8046
G1 X136.521 Y90.430
G0 F4800 E0.8046
G0 X137.421 Y106.867 F10800
G0 F4800 E1.8046
;segType:HShell
G1 X137.421 Y91.919 E2.0222 F3600
G1 X137.927 Y91.919 E2.0295
G1 X137.902 Y107.855 E2.2614
G1 X137.521 Y107.814 E2.2670
G1 X137.421 Y107.839 E2.2685
G1 X137.421 Y107.039 E2.2801
G0 X137.092 Y107.816 F10800
G1 X137.092 Y91.573 E2.5165 F3600
G1 X138.256 Y91.573 E2.5334
G1 X138.230 Y108.272 E2.7764
G1 X138.138 Y108.227 E2.7779
G1 X137.543 Y108.164 E2.7866
G1 X137.092 Y108.276 E2.7934
G1 X137.092 Y107.989 E2.7975
G0 X136.764 Y108.765 F10800
G1 X136.764 Y91.228 E3.0527 F3600
G1 X138.585 Y91.228 E3.0792
G1 X138.558 Y108.848 E3.3356
G1 X138.494 Y108.781 E3.3370
G1 X138.050 Y108.564 E3.3442
G1 X137.565 Y108.513 E3.3513
G1 X137.091 Y108.631 E3.3584
G1 X136.833 Y108.805 E3.3629
G0 F4800 E2.3629
G0 X135.116 Y109.591 F10800
G0 X133.398 Y110.377
G0 X131.681 Y111.162
G0 F4800 E3.3629
;segType:Loop
G1 X131.464 Y111.037 E3.3665 F3600
G1 X131.157 Y110.671 E3.3735
G1 X130.997 Y110.232 E3.3803
G1 X130.997 Y109.768 E3.3870
G1 X131.134 Y109.392 E3.3929
G1 X131.134 Y90.607 E3.6662
G1 X130.997 Y90.232 E3.6720
G1 X130.997 Y89.768 E3.6788
G1 X131.157 Y89.329 E3.6856
G1 X131.464 Y88.963 E3.6925
G1 X131.886 Y88.719 E3.6996
G1 X132.372 Y88.634 E3.7068
G1 X132.858 Y88.719 E3.7140
G1 X133.280 Y88.963 E3.7211
G1 X133.586 Y89.329 E3.7280
G1 X133.747 Y89.768 E3.7348
G1 X133.747 Y90.232 E3.7416
G1 X133.635 Y90.540 E3.7463
G1 X133.635 Y109.462 E4.0217
G1 X133.747 Y109.768 E4.0264
G1 X133.747 Y110.232 E4.0332
G1 X133.586 Y110.671 E4.0400
G1 X133.280 Y111.037 E4.0469
G1 X132.858 Y111.281 E4.0540
G1 X132.372 Y111.366 E4.0612
G1 X131.886 Y111.281 E4.0684
G1 X131.825 Y111.245 E4.0694
G0 F4800 E3.0694
G0 X132.705 Y111.256 F10800
G0 F4800 E4.0694
;segType:Perimeter
G1 X132.323 Y111.731 E4.0783 F2159
G1 X131.770 Y111.633 E4.0864
G1 X131.242 Y111.328 E4.0953
G1 X130.853 Y110.865 E4.1041
G1 X130.647 Y110.300 E4.1129
G1 X130.647 Y109.700 E4.1216
G1 X130.784 Y109.325 E4.1274
G1 X130.784 Y90.675 E4.3988
G1 X130.647 Y90.300 E4.4046
G1 X130.647 Y89.700 E4.4133
G1 X130.853 Y89.135 E4.4221
G1 X131.242 Y88.672 E4.4309
G1 X131.770 Y88.367 E4.4397
G1 X132.372 Y88.261 E4.4486
G1 X132.974 Y88.367 E4.4575
G1 X133.502 Y88.672 E4.4664
G1 X133.891 Y89.135 E4.4752
G1 X134.097 Y89.700 E4.4839
G1 X134.097 Y90.300 E4.4927
G1 X133.984 Y90.608 E4.4974
G1 X133.985 Y109.394 E4.7708
G1 X134.097 Y109.700 E4.7755
G1 X134.097 Y110.300 E4.7843
G1 X133.891 Y110.865 E4.7930
G1 X133.502 Y111.328 E4.8018
G1 X132.974 Y111.633 E4.8107
G1 X132.420 Y111.731 E4.8189
G1 X132.038 Y111.256
G0 X132.678 Y110.879 F10800
G0 X133.159 Y110.475
G0 X133.393 Y109.617
;segType:Loop
G1 X133.459 Y109.797 E4.8217 F3600
G1 X133.459 Y110.202 E4.8276
G1 X133.322 Y110.579 E4.8334
G1 X133.071 Y110.879 E4.8391
G1 X132.741 Y111.069 E4.8446
G1 X132.372 Y111.134 E4.8501
G1 X132.003 Y111.069 E4.8555
G1 X131.673 Y110.878 E4.8611
G1 X131.422 Y110.579 E4.8668
G1 X131.285 Y110.202 E4.8726
G1 X131.285 Y109.797 E4.8785
G1 X131.422 Y109.422 E4.8843
G1 X131.673 Y109.122 E4.8900
G1 X132.003 Y108.931 E4.8955
G1 X132.372 Y108.866 E4.9010
G1 X132.741 Y108.931 E4.9064
G1 X133.071 Y109.122 E4.9120
G1 X133.322 Y109.422 E4.9177
G1 X133.335 Y109.456 E4.9182
G0 X132.972 Y109.299 F10800
G0 X131.969 Y108.846
;segType:Perimeter
G1 X132.420 Y109.248 E4.9270 F2159
G1 X132.624 Y109.284 E4.9300
G1 X132.849 Y109.413 E4.9338
G1 X133.018 Y109.615 E4.9376
G1 X133.109 Y109.866 E4.9415
G1 X133.109 Y110.134 E4.9454
G1 X133.018 Y110.386 E4.9493
G1 X132.849 Y110.587 E4.9531
G1 X132.624 Y110.716 E4.9569
G1 X132.372 Y110.761 E4.9606
G1 X132.119 Y110.716 E4.9644
G1 X131.895 Y110.587 E4.9681
G1 X131.726 Y110.386 E4.9720
G1 X131.635 Y110.134 E4.9758
G1 X131.635 Y109.866 E4.9798
G1 X131.726 Y109.615 E4.9836
G1 X131.895 Y109.413 E4.9875
G1 X132.119 Y109.284 E4.9912
G1 X132.323 Y109.248 E4.9942
G1 X132.775 Y108.846
;segType:Loop
G0 X133.394 Y89.617 F10800
G1 X133.459 Y89.798 E4.9970 F3600
G1 X133.459 Y90.203 E5.0029
G1 X133.322 Y90.578 E5.0088
G1 X133.071 Y90.878 E5.0145
G1 X132.741 Y91.069 E5.0200
G1 X132.372 Y91.134 E5.0254
G1 X132.003 Y91.069 E5.0309
G1 X131.673 Y90.878 E5.0364
G1 X131.422 Y90.578 E5.0421
G1 X131.285 Y90.203 E5.0480
G1 X131.285 Y89.798 E5.0538
G1 X131.422 Y89.421 E5.0597
G1 X131.673 Y89.122 E5.0654
G1 X132.003 Y88.932 E5.0709
G1 X132.372 Y88.866 E5.0764
G1 X132.741 Y88.932 E5.0818
G1 X133.071 Y89.121 E5.0874
G1 X133.322 Y89.421 E5.0930
G1 X133.335 Y89.456 E5.0936
G0 X132.782 Y89.178 F10800
G0 X131.969 Y88.846
;segType:Perimeter
G1 X132.420 Y89.248 E5.1024 F2159
G1 X132.624 Y89.284 E5.1054
G1 X132.849 Y89.413 E5.1092
G1 X133.018 Y89.615 E5.1130
G1 X133.109 Y89.866 E5.1169
G1 X133.109 Y90.134 E5.1208
G1 X133.018 Y90.385 E5.1247
G1 X132.849 Y90.587 E5.1285
G1 X132.624 Y90.716 E5.1323
G1 X132.372 Y90.761 E5.1360
G1 X132.119 Y90.716 E5.1397
G1 X131.895 Y90.587 E5.1435
G1 X131.726 Y90.385 E5.1473
G1 X131.635 Y90.134 E5.1512
G1 X131.635 Y89.866 E5.1551
G1 X131.726 Y89.615 E5.1590
G1 X131.895 Y89.413 E5.1628
G1 X132.119 Y89.284 E5.1666
G1 X132.323 Y89.248 E5.1696
G1 X132.775 Y88.846
G0 F4800 E4.1696
G0 X133.274 Y90.134 F10800
G0 X132.131 Y106.845
G0 F4800 E5.1696
;segType:HShell
G1 X132.131 Y92.153 E5.3834 F3600
G1 X132.372 Y92.195 E5.3870
G1 X132.637 Y92.148 E5.3909
G1 X132.629 Y107.850 E5.6194
G1 X132.372 Y107.805 E5.6232
G1 X132.131 Y107.847 E5.6268
G1 X132.131 Y107.018 E5.6388
G0 X131.802 Y107.795 F10800
G1 X131.802 Y91.745 E5.8724 F3600
G1 X132.372 Y91.845 E5.8808
G1 X132.966 Y91.740 E5.8896
G1 X132.958 Y108.258 E6.1299
G1 X132.372 Y108.155 E6.1386
G1 X131.802 Y108.255 E6.1470
G1 X131.802 Y107.967 E6.1512
G0 X131.473 Y108.744 F10800
G1 X131.473 Y91.170 E6.4069 F3600
G1 X131.890 Y91.410 E6.4139
G1 X132.372 Y91.495 E6.4211
G1 X132.854 Y91.410 E6.4282
G1 X133.295 Y91.150 E6.4356
G1 X133.286 Y108.839 E6.6930
G1 X132.854 Y108.590 E6.7003
G1 X132.372 Y108.505 E6.7074
G1 X131.890 Y108.590 E6.7145
G1 X131.545 Y108.789 E6.7203
G0 F4800 E5.7203
G0 X129.691 Y108.750 F10800
G0 X127.837 Y108.712
G0 F4800 E6.7203
G1 X127.536 Y108.564 E6.7252 F3600
G1 X127.051 Y108.513 E6.7323
G1 X126.577 Y108.631 E6.7394
G1 X126.411 Y108.743 E6.7423
G1 X126.411 Y106.263 E6.7784
G1 X126.666 Y106.410 E6.7827
G1 X127.148 Y106.495 E6.7898
G1 X127.630 Y106.410 E6.7969
G1 X127.912 Y106.247 E6.8017
G1 X127.912 Y108.662 E6.8368
;segType:Loop
G0 X128.229 Y109.936 F10800
G1 X128.242 Y110.126 E6.8396 F3600
G1 X128.111 Y110.564 E6.8462
G1 X127.847 Y110.879 E6.8522
G1 X127.517 Y111.069 E6.8577
G1 X127.148 Y111.134 E6.8632
G1 X126.834 Y111.078 E6.8678
G1 X126.513 Y110.922 E6.8730
G1 X126.243 Y110.643 E6.8787
G1 X126.082 Y110.279 E6.8845
G1 X126.054 Y109.878 E6.8903
G1 X126.165 Y109.493 E6.8961
G1 X126.395 Y109.177 E6.9018
G1 X126.712 Y108.964 E6.9074
G1 X127.074 Y108.874 E6.9128
G1 X127.445 Y108.913 E6.9182
G1 X127.784 Y109.079 E6.9237
G1 X128.053 Y109.357 E6.9294
G1 X128.214 Y109.721 E6.9352
G1 X128.217 Y109.763 E6.9358
;segType:Perimeter
G0 X128.147 Y108.742 F10800
G1 X128.634 Y109.095 E6.9445 F2159
G1 X128.667 Y109.135 E6.9453
G1 X128.873 Y109.700 E6.9540
G1 X128.873 Y110.300 E6.9628
G1 X128.667 Y110.865 E6.9715
G1 X128.278 Y111.328 E6.9803
G1 X127.751 Y111.633 E6.9892
G1 X127.148 Y111.739 E6.9981
G1 X126.546 Y111.633 E7.0070
G1 X126.018 Y111.328 E7.0159
G1 X125.629 Y110.865 E7.0247
G1 X125.424 Y110.300 E7.0334
G1 X125.424 Y109.700 E7.0421
G1 X125.629 Y109.135 E7.0509
G1 X125.722 Y109.025 E7.0530
G1 X125.722 Y105.975 E7.0974
G1 X125.629 Y105.865 E7.0995
G1 X125.424 Y105.300 E7.1082
G1 X125.424 Y104.700 E7.1169
G1 X125.629 Y104.135 E7.1257
G1 X126.018 Y103.672 E7.1345
G1 X126.546 Y103.367 E7.1433
G1 X127.148 Y103.261 E7.1522
G1 X127.751 Y103.367 E7.1611
G1 X128.278 Y103.672 E7.1700
G1 X128.667 Y104.135 E7.1788
G1 X128.873 Y104.700 E7.1876
G1 X128.873 Y105.299 E7.1963
G1 X128.661 Y105.873 E7.2052
G1 X128.601 Y105.944 E7.2065
G1 X128.601 Y109.005 E7.2511
G1 X128.458 Y109.607
;segType:Loop
G0 X128.523 Y109.940 F10800
G1 X128.523 Y110.232 E7.2553 F3600
G1 X128.363 Y110.671 E7.2621
G1 X128.056 Y111.037 E7.2691
G1 X127.634 Y111.281 E7.2762
G1 X127.148 Y111.366 E7.2833
G1 X126.662 Y111.281 E7.2905
G1 X126.240 Y111.037 E7.2976
G1 X125.934 Y110.671 E7.3046
G1 X125.774 Y110.232 E7.3114
G1 X125.774 Y109.768 E7.3181
G1 X125.934 Y109.328 E7.3249
G1 X126.072 Y109.164 E7.3280
G1 X126.072 Y105.836 E7.3765
G1 X125.934 Y105.671 E7.3796
G1 X125.774 Y105.232 E7.3864
G1 X125.774 Y104.768 E7.3931
G1 X125.934 Y104.329 E7.3999
G1 X126.240 Y103.963 E7.4069
G1 X126.662 Y103.719 E7.4140
G1 X127.148 Y103.634 E7.4212
G1 X127.634 Y103.719 E7.4283
G1 X128.056 Y103.963 E7.4354
G1 X128.363 Y104.329 E7.4424
G1 X128.523 Y104.768 E7.4492
G1 X128.523 Y105.230 E7.4559
G1 X128.357 Y105.679 E7.4629
G1 X128.251 Y105.806 E7.4653
G1 X128.251 Y109.195 E7.5146
G1 X128.363 Y109.328 E7.5171
G1 X128.523 Y109.767 E7.5239
G0 F4800 E6.5239
G0 X127.061 Y108.782 F10800
G0 F4800 E7.5239
;segType:Perimeter
G1 X127.396 Y109.294 E7.5328 F2159
G1 X127.581 Y109.385 E7.5358
G1 X127.763 Y109.573 E7.5396
G1 X127.870 Y109.815 E7.5435
G1 X127.888 Y110.082 E7.5474
G1 X127.799 Y110.379 E7.5519
G1 X127.625 Y110.587 E7.5558
G1 X127.401 Y110.716 E7.5596
G1 X127.148 Y110.761 E7.5633
G1 X126.938 Y110.724 E7.5664
G1 X126.715 Y110.615 E7.5700
G1 X126.534 Y110.427 E7.5738
G1 X126.427 Y110.185 E7.5777
G1 X126.408 Y109.919 E7.5816
G1 X126.482 Y109.664 E7.5854
G1 X126.636 Y109.451 E7.5893
G1 X126.850 Y109.307 E7.5930
G1 X127.098 Y109.246 E7.5967
G1 X127.302 Y109.267 E7.5997
G1 X127.839 Y109.006
;segType:Loop
G0 X128.236 Y105.009 F10800
G1 X128.236 Y105.202 E7.6025 F3600
G1 X128.099 Y105.579 E7.6084
G1 X127.847 Y105.878 E7.6141
G1 X127.517 Y106.069 E7.6196
G1 X127.148 Y106.134 E7.6251
G1 X126.779 Y106.069 E7.6305
G1 X126.449 Y105.878 E7.6360
G1 X126.198 Y105.579 E7.6417
G1 X126.061 Y105.202 E7.6476
G1 X126.061 Y104.798 E7.6535
G1 X126.198 Y104.421 E7.6593
G1 X126.449 Y104.122 E7.6650
G1 X126.779 Y103.931 E7.6705
G1 X127.148 Y103.866 E7.6760
G1 X127.517 Y103.931 E7.6814
G1 X127.847 Y104.122 E7.6870
G1 X128.099 Y104.421 E7.6927
G1 X128.236 Y104.798 E7.6985
G1 X128.236 Y104.836 E7.6990
G0 X127.748 Y104.299 F10800
G0 X127.142 Y103.774
;segType:Perimeter
G1 X127.444 Y104.309 E7.7080 F2159
G1 X127.625 Y104.413 E7.7110
G1 X127.794 Y104.615 E7.7148
G1 X127.886 Y104.866 E7.7187
G1 X127.886 Y105.134 E7.7226
G1 X127.794 Y105.385 E7.7265
G1 X127.625 Y105.587 E7.7304
G1 X127.401 Y105.716 E7.7341
G1 X127.148 Y105.761 E7.7379
G1 X126.896 Y105.716 E7.7416
G1 X126.672 Y105.587 E7.7454
G1 X126.502 Y105.385 E7.7492
G1 X126.411 Y105.134 E7.7531
G1 X126.411 Y104.866 E7.7570
G1 X126.502 Y104.615 E7.7609
G1 X126.672 Y104.413 E7.7647
G1 X126.896 Y104.284 E7.7685
G1 X127.148 Y104.239 E7.7722
G1 X127.352 Y104.275 E7.7752
G1 X127.904 Y104.052
G0 F4800 E6.7752
G0 X127.811 Y105.353 F10800
G0 X127.069 Y107.287
G0 F4800 E7.7752
;segType:HShell
G1 X127.069 Y107.181 E7.7767 F3600
G1 X127.254 Y107.176 E7.7794
G1 X127.254 Y107.841 E7.7891
G1 X127.069 Y107.821 E7.7918
G1 X127.069 Y107.459 E7.7971
G0 X126.740 Y108.236 F10800
G1 X126.740 Y108.236 F3600
G1 X126.740 Y106.773 E7.8184
G1 X127.148 Y106.845 E7.8244
G1 X127.583 Y106.768 E7.8308
G1 X127.583 Y108.222 E7.8520
G1 X127.029 Y108.164 E7.8601
G0 F4800 E6.8601
G0 X125.028 Y108.438 F10800
G0 X123.027 Y108.712
G0 F4800 E7.8601
G1 X122.726 Y108.564 E7.8650 F3600
G1 X122.242 Y108.513 E7.8721
G1 X121.766 Y108.631 E7.8792
G1 X121.601 Y108.743 E7.8821
G1 X121.601 Y106.263 E7.9182
G1 X121.856 Y106.410 E7.9225
G1 X122.338 Y106.495 E7.9296
G1 X122.820 Y106.410 E7.9367
G1 X123.102 Y106.248 E7.9415
G1 X123.102 Y108.662 E7.9766
;segType:Loop
G0 X123.418 Y109.940 F10800
G1 X123.432 Y110.184 E7.9801 F3600
G1 X123.288 Y110.579 E7.9863
G1 X123.037 Y110.878 E7.9919
G1 X122.707 Y111.069 E7.9975
G1 X122.338 Y111.134 E8.0029
G1 X122.023 Y111.078 E8.0076
G1 X121.703 Y110.922 E8.0128
G1 X121.433 Y110.643 E8.0184
G1 X121.272 Y110.279 E8.0242
G1 X121.244 Y109.878 E8.0301
G1 X121.355 Y109.493 E8.0359
G1 X121.585 Y109.177 E8.0416
G1 X121.901 Y108.964 E8.0471
G1 X122.264 Y108.874 E8.0526
G1 X122.635 Y108.913 E8.0580
G1 X122.973 Y109.079 E8.0635
G1 X123.243 Y109.357 E8.0691
G1 X123.406 Y109.724 E8.0750
G1 X123.408 Y109.768 E8.0756
;segType:Perimeter
G0 X123.337 Y108.742 F10800
G1 X123.823 Y109.095 E8.0843 F2159
G1 X123.857 Y109.135 E8.0851
G1 X124.063 Y109.700 E8.0939
G1 X124.063 Y110.300 E8.1026
G1 X123.857 Y110.865 E8.1113
G1 X123.468 Y111.328 E8.1201
G1 X122.940 Y111.633 E8.1290
G1 X122.338 Y111.739 E8.1379
G1 X121.735 Y111.633 E8.1468
G1 X121.208 Y111.328 E8.1557
G1 X120.819 Y110.865 E8.1645
G1 X120.613 Y110.300 E8.1732
G1 X120.613 Y109.700 E8.1819
G1 X120.819 Y109.135 E8.1907
G1 X120.911 Y109.025 E8.1928
G1 X120.911 Y105.975 E8.2372
G1 X120.819 Y105.865 E8.2393
G1 X120.613 Y105.300 E8.2480
G1 X120.613 Y104.700 E8.2567
G1 X120.819 Y104.135 E8.2655
G1 X121.208 Y103.672 E8.2743
G1 X121.735 Y103.367 E8.2832
G1 X122.338 Y103.261 E8.2921
G1 X122.940 Y103.367 E8.3010
G1 X123.468 Y103.672 E8.3098
G1 X123.857 Y104.135 E8.3186
G1 X124.063 Y104.700 E8.3274
G1 X124.063 Y105.300 E8.3361
G1 X123.857 Y105.865 E8.3449
G1 X123.791 Y105.944 E8.3464
G1 X123.791 Y109.005 E8.3909
G1 X123.647 Y109.607
;segType:Loop
G0 X123.713 Y109.940 F10800
G1 X123.713 Y110.232 E8.3951 F3600
G1 X123.552 Y110.671 E8.4019
G1 X123.246 Y111.037 E8.4089
G1 X122.824 Y111.281 E8.4160
G1 X122.338 Y111.366 E8.4232
G1 X121.852 Y111.281 E8.4303
G1 X121.430 Y111.037 E8.4374
G1 X121.123 Y110.671 E8.4444
G1 X120.963 Y110.232 E8.4512
G1 X120.963 Y109.768 E8.4579
G1 X121.123 Y109.328 E8.4647
G1 X121.261 Y109.164 E8.4679
G1 X121.261 Y105.836 E8.5163
G1 X121.123 Y105.671 E8.5194
G1 X120.963 Y105.232 E8.5262
G1 X120.963 Y104.768 E8.5330
G1 X121.123 Y104.329 E8.5398
G1 X121.430 Y103.963 E8.5467
G1 X121.852 Y103.719 E8.5538
G1 X122.338 Y103.634 E8.5610
G1 X122.824 Y103.719 E8.5682
G1 X123.246 Y103.963 E8.5753
G1 X123.552 Y104.329 E8.5822
G1 X123.713 Y104.768 E8.5890
G1 X123.713 Y105.232 E8.5957
G1 X123.552 Y105.673 E8.6026
G1 X123.441 Y105.806 E8.6051
G1 X123.441 Y109.195 E8.6544
G1 X123.552 Y109.328 E8.6569
G1 X123.712 Y109.767 E8.6637
G0 F4800 E7.6637
G0 X122.251 Y108.782 F10800
G0 F4800 E8.6637
;segType:Perimeter
G1 X122.585 Y109.294 E8.6726 F2159
G1 X122.771 Y109.385 E8.6757
G1 X122.952 Y109.573 E8.6795
G1 X123.060 Y109.816 E8.6833
G1 X123.078 Y110.127 E8.6879
G1 X122.984 Y110.386 E8.6919
G1 X122.815 Y110.587 E8.6957
G1 X122.591 Y110.716 E8.6995
G1 X122.338 Y110.761 E8.7032
G1 X122.128 Y110.724 E8.7063
G1 X121.905 Y110.615 E8.7099
G1 X121.724 Y110.427 E8.7137
G1 X121.616 Y110.185 E8.7175
G1 X121.598 Y109.919 E8.7214
G1 X121.671 Y109.663 E8.7253
G1 X121.826 Y109.451 E8.7291
G1 X122.040 Y109.307 E8.7329
G1 X122.288 Y109.246 E8.7366
G1 X122.491 Y109.267 E8.7396
G1 X123.028 Y109.006
;segType:Loop
G0 X123.425 Y105.009 F10800
G1 X123.425 Y105.202 E8.7424 F3600
G1 X123.288 Y105.579 E8.7482
G1 X123.037 Y105.878 E8.7539
G1 X122.707 Y106.069 E8.7594
G1 X122.338 Y106.134 E8.7649
G1 X121.969 Y106.069 E8.7703
G1 X121.639 Y105.878 E8.7759
G1 X121.387 Y105.579 E8.7816
G1 X121.251 Y105.202 E8.7874
G1 X121.251 Y104.798 E8.7933
G1 X121.387 Y104.421 E8.7991
G1 X121.639 Y104.122 E8.8048
G1 X121.969 Y103.931 E8.8104
G1 X122.338 Y103.866 E8.8158
G1 X122.707 Y103.931 E8.8213
G1 X123.037 Y104.122 E8.8268
G1 X123.288 Y104.421 E8.8325
G1 X123.425 Y104.798 E8.8383
G1 X123.425 Y104.836 E8.8389
G0 X122.938 Y104.299 F10800
G0 X122.332 Y103.774
;segType:Perimeter
G1 X122.634 Y104.309 E8.8478 F2159
G1 X122.815 Y104.413 E8.8509
G1 X122.984 Y104.615 E8.8547
G1 X123.075 Y104.866 E8.8586
G1 X123.075 Y105.134 E8.8625
G1 X122.984 Y105.385 E8.8664
G1 X122.815 Y105.587 E8.8702
G1 X122.591 Y105.716 E8.8740
G1 X122.338 Y105.761 E8.8777
G1 X122.086 Y105.716 E8.8814
G1 X121.861 Y105.587 E8.8852
G1 X121.692 Y105.385 E8.8890
G1 X121.601 Y105.134 E8.8929
G1 X121.601 Y104.866 E8.8968
G1 X121.692 Y104.615 E8.9007
G1 X121.861 Y104.413 E8.9045
G1 X122.086 Y104.284 E8.9083
G1 X122.338 Y104.239 E8.9120
G1 X122.542 Y104.275 E8.9151
G1 X123.094 Y104.052
G0 F4800 E7.9151
G0 X123.001 Y105.354 F10800
G0 X122.258 Y107.287
G0 F4800 E8.9151
;segType:HShell
G1 X122.258 Y107.181 E8.9166 F3600
G1 X122.444 Y107.176 E8.9193
G1 X122.444 Y107.840 E8.9290
G1 X122.258 Y107.821 E8.9317
G1 X122.258 Y107.459 E8.9369
G0 X121.930 Y108.236 F10800
G1 X121.930 Y108.236 F3600
G1 X121.930 Y106.773 E8.9582
G1 X122.338 Y106.845 E8.9643
G1 X122.773 Y106.768 E8.9707
G1 X122.773 Y108.222 E8.9918
G1 X122.220 Y108.164 E8.9999
; ------------------------------------
; Layer #3
; ------------------------------------
G21 ; mm
G90 ; abs
G92 E0 ; reset extr
M106 S255
;segType:HShell
G0 F4800 E-1.0000
G0 F300 Z0.400
G0 X121.673 Y106.304 F10800
G0 F4800 E0.0000
G1 X121.856 Y106.410 E0.0031 F3600
G1 X122.338 Y106.495 E0.0102
G1 X122.820 Y106.410 E0.0173
G1 X123.102 Y106.248 E0.0221
G1 X123.102 Y108.745 E0.0584
G1 X122.694 Y108.557 E0.0649
G1 X122.209 Y108.517 E0.0720
G1 X121.737 Y108.646 E0.0791
G1 X121.601 Y108.742 E0.0815
G1 X121.601 Y106.349 E0.1164
;segType:Loop
G0 X120.963 Y105.146 F10800
G1 X120.963 Y104.768 E0.1219 F3600
G1 X121.123 Y104.329 E0.1287
G1 X121.430 Y103.963 E0.1356
G1 X121.852 Y103.719 E0.1427
G1 X122.338 Y103.634 E0.1499
G1 X122.824 Y103.719 E0.1571
G1 X123.246 Y103.963 E0.1642
G1 X123.552 Y104.329 E0.1711
G1 X123.713 Y104.768 E0.1779
G1 X123.713 Y105.232 E0.1846
G1 X123.552 Y105.673 E0.1915
G1 X123.441 Y105.806 E0.1940
G1 X123.441 Y109.195 E0.2433
G1 X123.552 Y109.328 E0.2458
G1 X123.713 Y109.768 E0.2527
G1 X123.713 Y110.232 E0.2594
G1 X123.552 Y110.671 E0.2662
G1 X123.246 Y111.037 E0.2732
G1 X122.824 Y111.281 E0.2802
G1 X122.338 Y111.366 E0.2874
G1 X121.852 Y111.281 E0.2946
G1 X121.430 Y111.037 E0.3017
G1 X121.123 Y110.671 E0.3086
G1 X120.963 Y110.232 E0.3154
G1 X120.963 Y109.768 E0.3222
G1 X121.123 Y109.328 E0.3290
G1 X121.261 Y109.164 E0.3321
G1 X121.261 Y105.836 E0.3805
G1 X121.123 Y105.671 E0.3837
G1 X120.993 Y105.312 E0.3892
G0 F4800 E-0.6108
G0 X121.365 Y106.290 F10800
G0 F4800 E0.3892
;segType:Perimeter
G1 X120.879 Y105.936 E0.3980 F2159
G1 X120.819 Y105.865 E0.3993
G1 X120.613 Y105.300 E0.4081
G1 X120.613 Y104.700 E0.4168
G1 X120.819 Y104.135 E0.4256
G1 X121.208 Y103.672 E0.4344
G1 X121.735 Y103.367 E0.4432
G1 X122.338 Y103.261 E0.4521
G1 X122.940 Y103.367 E0.4610
G1 X123.468 Y103.672 E0.4699
G1 X123.857 Y104.135 E0.4787
G1 X124.063 Y104.700 E0.4875
G1 X124.063 Y105.300 E0.4962
G1 X123.857 Y105.865 E0.5049
G1 X123.791 Y105.944 E0.5064
G1 X123.791 Y109.056 E0.5517
G1 X123.857 Y109.135 E0.5532
G1 X124.063 Y109.700 E0.5620
G1 X124.063 Y110.300 E0.5707
G1 X123.857 Y110.865 E0.5794
G1 X123.468 Y111.328 E0.5882
G1 X122.940 Y111.633 E0.5971
G1 X122.338 Y111.739 E0.6060
G1 X121.735 Y111.633 E0.6149
G1 X121.208 Y111.328 E0.6238
G1 X120.819 Y110.865 E0.6326
G1 X120.613 Y110.300 E0.6413
G1 X120.613 Y109.700 E0.6501
G1 X120.819 Y109.135 E0.6588
G1 X120.911 Y109.025 E0.6609
G1 X120.911 Y106.027 E0.7045
G1 X121.054 Y105.424
G0 X121.758 Y105.722 F10800
G0 X122.338 Y105.933
G0 X122.918 Y105.722
G0 X123.352 Y105.404
;segType:Loop
G1 X123.288 Y105.579 E0.7072 F3600
G1 X123.037 Y105.878 E0.7129
G1 X122.707 Y106.069 E0.7185
G1 X122.338 Y106.134 E0.7239
G1 X121.969 Y106.069 E0.7294
G1 X121.639 Y105.878 E0.7349
G1 X121.387 Y105.579 E0.7406
G1 X121.251 Y105.202 E0.7464
G1 X121.251 Y104.798 E0.7523
G1 X121.387 Y104.421 E0.7581
G1 X121.639 Y104.122 E0.7638
G1 X121.969 Y103.931 E0.7694
G1 X122.338 Y103.866 E0.7748
G1 X122.707 Y103.931 E0.7803
G1 X123.046 Y104.127 E0.7860
G1 X123.298 Y104.447 E0.7919
G1 X123.425 Y104.798 E0.7973
G1 X123.425 Y105.202 E0.8032
G1 X123.410 Y105.243 E0.8038
G0 X123.145 Y104.573 F10800
G0 X122.739 Y103.845
;segType:Perimeter
G1 X122.850 Y104.455 E0.8129 F2159
G1 X122.991 Y104.635 E0.8162
G1 X123.075 Y104.866 E0.8198
G1 X123.075 Y105.134 E0.8237
G1 X122.984 Y105.385 E0.8276
G1 X122.815 Y105.587 E0.8314
G1 X122.591 Y105.716 E0.8352
G1 X122.338 Y105.761 E0.8389
G1 X122.086 Y105.716 E0.8426
G1 X121.861 Y105.587 E0.8464
G1 X121.692 Y105.385 E0.8502
G1 X121.601 Y105.134 E0.8541
G1 X121.601 Y104.866 E0.8580
G1 X121.692 Y104.615 E0.8619
G1 X121.861 Y104.413 E0.8657
G1 X122.086 Y104.284 E0.8695
G1 X122.338 Y104.239 E0.8732
G1 X122.591 Y104.284 E0.8770
G1 X122.775 Y104.390 E0.8801
G1 X123.367 Y104.391
G0 F4800 E-0.1199
G0 X123.898 Y105.003 F10800
G0 X123.848 Y105.406
G0 X123.632 Y107.658
G0 X123.416 Y109.911
G0 F4800 E0.8801
;segType:Loop
G1 X123.433 Y110.095 E0.8828 F3600
G1 X123.331 Y110.482 E0.8886
G1 X123.092 Y110.828 E0.8947
G1 X122.616 Y111.103 E0.9027
G1 X122.088 Y111.103 E0.9104
G1 X121.724 Y110.936 E0.9162
G1 X121.449 Y110.664 E0.9218
G1 X121.280 Y110.305 E0.9276
G1 X121.243 Y109.905 E0.9335
G1 X121.345 Y109.518 E0.9393
G1 X121.567 Y109.196 E0.9450
G1 X121.879 Y108.976 E0.9505
G1 X122.239 Y108.877 E0.9560
G1 X122.610 Y108.908 E0.9614
G1 X122.952 Y109.065 E0.9669
G1 X123.227 Y109.337 E0.9725
G1 X123.396 Y109.695 E0.9782
G1 X123.400 Y109.739 E0.9789
G0 X122.869 Y109.250 F10800
G0 X122.224 Y108.785
;segType:Perimeter
G1 X122.569 Y109.290 E0.9878 F2159
G1 X122.756 Y109.376 E0.9908
G1 X122.941 Y109.559 E0.9946
G1 X123.054 Y109.798 E0.9984
G1 X123.079 Y110.063 E1.0023
G1 X123.011 Y110.320 E1.0062
G1 X122.855 Y110.545 E1.0102
G1 X122.526 Y110.735 E1.0157
G1 X122.161 Y110.735 E1.0210
G1 X121.920 Y110.624 E1.0249
G1 X121.735 Y110.441 E1.0286
G1 X121.622 Y110.203 E1.0325
G1 X121.597 Y109.937 E1.0364
G1 X121.665 Y109.680 E1.0402
G1 X121.814 Y109.464 E1.0440
G1 X122.025 Y109.315 E1.0478
G1 X122.270 Y109.248 E1.0515
G1 X122.475 Y109.265 E1.0545
G1 X123.006 Y108.991
;segType:HShell
G0 X122.444 Y107.529 F10800
G1 X122.444 Y107.844 E1.0591 F3600
G1 X122.258 Y107.828 E1.0618
G1 X122.258 Y107.181 E1.0712
G1 X122.444 Y107.176 E1.0739
G1 X122.444 Y107.356 E1.0765
G0 X122.596 Y106.800 F10800
G1 X122.773 Y106.768 E1.0791 F3600
G1 X122.773 Y108.218 E1.1002
G1 X122.180 Y108.168 E1.1089
G1 X121.930 Y108.236 E1.1127
G1 X121.930 Y106.773 E1.1340
G1 X122.338 Y106.845 E1.1400
G1 X122.433 Y106.828 E1.1414
;segType:Loop
G0 F4800 E0.1414
G0 X125.774 Y105.146 F10800
G0 F4800 E1.1414
G1 X125.774 Y104.768 E1.1469 F3600
G1 X125.934 Y104.329 E1.1537
G1 X126.240 Y103.963 E1.1607
G1 X126.662 Y103.719 E1.1677
G1 X127.148 Y103.634 E1.1749
G1 X127.634 Y103.719 E1.1821
G1 X128.056 Y103.963 E1.1892
G1 X128.363 Y104.329 E1.1961
G1 X128.523 Y104.768 E1.2029
G1 X128.523 Y105.230 E1.2097
G1 X128.280 Y105.883 E1.2198
G1 X128.251 Y106.810 E1.2333
G1 X128.261 Y109.107 E1.2667
G1 X128.395 Y109.416 E1.2716
G1 X128.523 Y109.768 E1.2771
G1 X128.523 Y110.232 E1.2838
G1 X128.363 Y110.671 E1.2906
G1 X128.056 Y111.037 E1.2976
G1 X127.634 Y111.281 E1.3047
G1 X127.148 Y111.366 E1.3118
G1 X126.662 Y111.281 E1.3190
G1 X126.240 Y111.037 E1.3261
G1 X125.934 Y110.671 E1.3331
G1 X125.774 Y110.232 E1.3399
G1 X125.774 Y109.768 E1.3466
G1 X125.934 Y109.328 E1.3534
G1 X126.072 Y109.164 E1.3566
G1 X126.072 Y105.836 E1.4050
G1 X125.934 Y105.671 E1.4081
G1 X125.803 Y105.312 E1.4137
G0 F4800 E0.4137
G0 X126.176 Y106.290 F10800
G0 F4800 E1.4137
;segType:Perimeter
G1 X125.689 Y105.936 E1.4224 F2159
G1 X125.629 Y105.865 E1.4238
G1 X125.424 Y105.300 E1.4325
G1 X125.424 Y104.700 E1.4412
G1 X125.629 Y104.135 E1.4500
G1 X126.018 Y103.672 E1.4588
G1 X126.546 Y103.367 E1.4677
G1 X127.148 Y103.261 E1.4766
G1 X127.751 Y103.367 E1.4855
G1 X128.278 Y103.672 E1.4943
G1 X128.667 Y104.135 E1.5031
G1 X128.873 Y104.700 E1.5119
G1 X128.873 Y105.299 E1.5206
G1 X128.628 Y105.958 E1.5308
G1 X128.601 Y106.816 E1.5433
G1 X128.611 Y109.026 E1.5755
G1 X128.718 Y109.274 E1.5794
G1 X128.873 Y109.700 E1.5860
G1 X128.873 Y110.300 E1.5947
G1 X128.667 Y110.865 E1.6035
G1 X128.278 Y111.328 E1.6123
G1 X127.751 Y111.633 E1.6211
G1 X127.148 Y111.739 E1.6300
G1 X126.546 Y111.633 E1.6389
G1 X126.018 Y111.328 E1.6478
G1 X125.629 Y110.865 E1.6566
G1 X125.424 Y110.300 E1.6654
G1 X125.424 Y109.700 E1.6741
G1 X125.629 Y109.135 E1.6828
G1 X125.722 Y109.025 E1.6849
G1 X125.722 Y106.027 E1.7286
G1 X125.865 Y105.424
G0 X127.148 Y104.067 F10800
G0 X127.728 Y104.278
G0 X128.236 Y105.009
;segType:Loop
G1 X128.236 Y105.202 E1.7314 F3600
G1 X128.099 Y105.579 E1.7372
G1 X127.847 Y105.878 E1.7429
G1 X127.517 Y106.069 E1.7484
G1 X127.148 Y106.134 E1.7539
G1 X126.779 Y106.069 E1.7593
G1 X126.449 Y105.878 E1.7649
G1 X126.198 Y105.579 E1.7706
G1 X126.061 Y105.202 E1.7764
G1 X126.061 Y104.798 E1.7823
G1 X126.198 Y104.421 E1.7881
G1 X126.449 Y104.122 E1.7938
G1 X126.779 Y103.931 E1.7994
G1 X127.148 Y103.866 E1.8048
G1 X127.517 Y103.931 E1.8103
G1 X127.847 Y104.122 E1.8158
G1 X128.099 Y104.421 E1.8215
G1 X128.236 Y104.798 E1.8273
G1 X128.236 Y104.836 E1.8279
G0 X127.748 Y104.299 F10800
G0 X127.142 Y103.774
;segType:Perimeter
G1 X127.444 Y104.309 E1.8368 F2159
G1 X127.625 Y104.413 E1.8399
G1 X127.794 Y104.615 E1.8437
G1 X127.886 Y104.866 E1.8476
G1 X127.886 Y105.134 E1.8515
G1 X127.794 Y105.385 E1.8554
G1 X127.625 Y105.587 E1.8592
G1 X127.401 Y105.716 E1.8630
G1 X127.148 Y105.761 E1.8667
G1 X126.896 Y105.716 E1.8704
G1 X126.672 Y105.587 E1.8742
G1 X126.502 Y105.385 E1.8780
G1 X126.411 Y105.134 E1.8819
G1 X126.411 Y104.866 E1.8858
G1 X126.502 Y104.615 E1.8897
G1 X126.672 Y104.413 E1.8935
G1 X126.896 Y104.284 E1.8973
G1 X127.148 Y104.239 E1.9010
G1 X127.352 Y104.275 E1.9040
G1 X127.904 Y104.052
G0 F4800 E0.9040
G0 X128.226 Y109.911 F10800
G0 F4800 E1.9040
;segType:Loop
G1 X128.244 Y110.095 E1.9067 F3600
G1 X128.142 Y110.482 E1.9126
G1 X127.902 Y110.828 E1.9187
G1 X127.426 Y111.103 E1.9267
G1 X126.899 Y111.103 E1.9344
G1 X126.534 Y110.936 E1.9402
G1 X126.260 Y110.664 E1.9458
G1 X126.090 Y110.305 E1.9516
G1 X126.053 Y109.905 E1.9574
G1 X126.155 Y109.518 E1.9633
G1 X126.378 Y109.196 E1.9690
G1 X126.689 Y108.976 E1.9745
G1 X127.049 Y108.877 E1.9799
G1 X127.421 Y108.908 E1.9854
G1 X127.762 Y109.065 E1.9908
G1 X128.037 Y109.337 E1.9965
G1 X128.206 Y109.695 E2.0022
G1 X128.210 Y109.739 E2.0029
G0 X127.679 Y109.250 F10800
G0 X127.034 Y108.785
;segType:Perimeter
G1 X127.379 Y109.290 E2.0118 F2159
G1 X127.567 Y109.376 E2.0148
G1 X127.751 Y109.559 E2.0186
G1 X127.864 Y109.798 E2.0224
G1 X127.889 Y110.063 E2.0263
G1 X127.821 Y110.320 E2.0301
G1 X127.665 Y110.545 E2.0341
G1 X127.337 Y110.735 E2.0397
G1 X126.972 Y110.735 E2.0450
G1 X126.730 Y110.624 E2.0488
G1 X126.545 Y110.441 E2.0526
G1 X126.432 Y110.203 E2.0565
G1 X126.408 Y109.937 E2.0603
G1 X126.475 Y109.680 E2.0642
G1 X126.625 Y109.464 E2.0680
G1 X126.835 Y109.315 E2.0718
G1 X127.081 Y109.248 E2.0755
G1 X127.285 Y109.265 E2.0785
G1 X127.816 Y108.991
;segType:HShell
G0 X127.845 Y108.714 F10800
G1 X127.504 Y108.557 E2.0839 F3600
G1 X127.019 Y108.517 E2.0910
G1 X126.547 Y108.646 E2.0981
G1 X126.411 Y108.742 E2.1005
G1 X126.411 Y106.263 E2.1366
G1 X126.666 Y106.410 E2.1409
G1 X127.148 Y106.495 E2.1480
G1 X127.630 Y106.410 E2.1552
G1 X127.930 Y106.237 E2.1602
G1 X127.912 Y106.805 E2.1685
G1 X127.920 Y108.662 E2.1955
G0 X126.740 Y108.236 F10800
G1 X126.740 Y108.236 F3600
G1 X126.740 Y106.773 E2.2168
G1 X127.148 Y106.845 E2.2228
G1 X127.583 Y106.801 E2.2292
G1 X127.586 Y108.218 E2.2498
G1 X126.990 Y108.168 E2.2585
G0 X127.069 Y107.287 F10800
G1 X127.069 Y107.181 E2.2600 F3600
G1 X127.255 Y107.181 E2.2627
G1 X127.256 Y107.844 E2.2724
G1 X127.069 Y107.828 E2.2751
G1 X127.069 Y107.460 E2.2805
G0 F4800 E1.2805
G0 X131.608 Y112.122 F10800
G0 X133.136 Y112.122
G0 X134.313 Y111.133
G0 X136.424 Y108.365
G0 F4800 E2.2805
;segType:Loop
G1 X136.424 Y90.608 E2.5389 F3600
G1 X136.287 Y90.232 E2.5447
G1 X136.287 Y89.768 E2.5514
G1 X136.447 Y89.329 E2.5582
G1 X136.754 Y88.963 E2.5652
G1 X137.176 Y88.719 E2.5723
G1 X137.662 Y88.634 E2.5795
G1 X138.148 Y88.719 E2.5866
G1 X138.570 Y88.963 E2.5937
G1 X138.877 Y89.329 E2.6007
G1 X139.037 Y89.768 E2.6075
G1 X139.037 Y90.232 E2.6142
G1 X138.925 Y90.537 E2.6190
G1 X138.896 Y109.383 E2.8932
G1 X139.037 Y109.768 E2.8992
G1 X139.037 Y110.232 E2.9059
G1 X138.877 Y110.671 E2.9127
G1 X138.570 Y111.037 E2.9197
G1 X138.148 Y111.281 E2.9267
G1 X137.662 Y111.366 E2.9339
G1 X137.176 Y111.281 E2.9411
G1 X136.754 Y111.037 E2.9482
G1 X136.447 Y110.671 E2.9551
G1 X136.287 Y110.232 E2.9619
G1 X136.287 Y109.766 E2.9687
G1 X136.424 Y109.381 E2.9747
G1 X136.424 Y108.537 E2.9869
;segType:Perimeter
G0 X136.367 Y109.802 F10800
G1 X136.074 Y109.262 E2.9959 F2159
G1 X136.074 Y90.675 E3.2663
G1 X135.937 Y90.300 E3.2722
G1 X135.937 Y89.700 E3.2809
G1 X136.143 Y89.135 E3.2896
G1 X136.532 Y88.672 E3.2984
G1 X137.060 Y88.367 E3.3073
G1 X137.662 Y88.261 E3.3162
G1 X138.264 Y88.367 E3.3251
G1 X138.792 Y88.672 E3.3340
G1 X139.181 Y89.135 E3.3428
G1 X139.387 Y89.700 E3.3515
G1 X139.387 Y90.300 E3.3603
G1 X139.275 Y90.606 E3.3650
G1 X139.247 Y109.315 E3.6372
G1 X139.387 Y109.700 E3.6432
G1 X139.387 Y110.300 E3.6519
G1 X139.181 Y110.865 E3.6607
G1 X138.792 Y111.328 E3.6695
G1 X138.264 Y111.633 E3.6783
G1 X137.662 Y111.739 E3.6872
G1 X137.060 Y111.633 E3.6961
G1 X136.532 Y111.328 E3.7050
G1 X136.143 Y110.865 E3.7138
G1 X135.937 Y110.300 E3.7226
G1 X135.937 Y109.699 E3.7313
G1 X136.057 Y109.363 E3.7365
G1 X136.511 Y108.964
;segType:Loop
G0 X138.749 Y110.009 F10800
G1 X138.749 Y110.202 E3.7393 F3600
G1 X138.613 Y110.579 E3.7452
G1 X138.361 Y110.879 E3.7508
G1 X138.031 Y111.069 E3.7564
G1 X137.662 Y111.134 E3.7618
G1 X137.293 Y111.069 E3.7673
G1 X136.963 Y110.878 E3.7728
G1 X136.712 Y110.579 E3.7785
G1 X136.575 Y110.202 E3.7844
G1 X136.575 Y109.797 E3.7902
G1 X136.712 Y109.422 E3.7961
G1 X136.963 Y109.122 E3.8018
G1 X137.293 Y108.931 E3.8073
G1 X137.662 Y108.866 E3.8128
G1 X138.031 Y108.931 E3.8182
G1 X138.361 Y109.122 E3.8237
G1 X138.613 Y109.422 E3.8294
G1 X138.749 Y109.797 E3.8353
G1 X138.749 Y109.836 E3.8358
G0 X138.262 Y109.299 F10800
G0 X137.656 Y108.774
;segType:Perimeter
G1 X137.958 Y109.309 E3.8448 F2159
G1 X138.139 Y109.413 E3.8478
G1 X138.308 Y109.615 E3.8516
G1 X138.399 Y109.866 E3.8555
G1 X138.399 Y110.134 E3.8594
G1 X138.308 Y110.386 E3.8633
G1 X138.139 Y110.587 E3.8671
G1 X137.914 Y110.716 E3.8709
G1 X137.662 Y110.761 E3.8746
G1 X137.409 Y110.716 E3.8784
G1 X137.185 Y110.587 E3.8821
G1 X137.016 Y110.386 E3.8860
G1 X136.925 Y110.134 E3.8899
G1 X136.925 Y109.866 E3.8938
G1 X137.016 Y109.615 E3.8977
G1 X137.185 Y109.413 E3.9015
G1 X137.409 Y109.284 E3.9052
G1 X137.662 Y109.239 E3.9090
G1 X137.866 Y109.275 E3.9120
G1 X138.418 Y109.052
;segType:Loop
G0 X136.694 Y89.468 F10800
G1 X136.712 Y89.421 E3.9127 F3600
G1 X136.963 Y89.122 E3.9184
G1 X137.293 Y88.932 E3.9240
G1 X137.662 Y88.866 E3.9294
G1 X138.031 Y88.932 E3.9349
G1 X138.361 Y89.121 E3.9404
G1 X138.613 Y89.421 E3.9461
G1 X138.749 Y89.798 E3.9519
G1 X138.749 Y90.202 E3.9578
G1 X138.506 Y90.871 E3.9682
G1 X136.818 Y90.871 E3.9927
G1 X136.575 Y90.202 E4.0031
G1 X136.575 Y89.798 E4.0090
G1 X136.636 Y89.630 E4.0116
G0 X136.906 Y90.565 F10800
G0 X137.317 Y91.005
;segType:Perimeter
G1 X137.042 Y90.455 E4.0205 F2159
G1 X136.925 Y90.134 E4.0255
G1 X136.925 Y89.866 E4.0294
G1 X137.016 Y89.615 E4.0333
G1 X137.185 Y89.413 E4.0371
G1 X137.409 Y89.284 E4.0409
G1 X137.662 Y89.239 E4.0446
G1 X137.914 Y89.284 E4.0484
G1 X138.139 Y89.413 E4.0521
G1 X138.308 Y89.615 E4.0560
G1 X138.399 Y89.866 E4.0598
G1 X138.399 Y90.134 E4.0638
G1 X138.265 Y90.504 E4.0695
G1 X137.108 Y90.504 E4.0863
G1 X136.521 Y90.430
G0 F4800 E3.0863
G0 X137.421 Y107.220 F10800
G0 F4800 E4.0863
;segType:HShell
G1 X137.421 Y91.919 E4.3090 F3600
G1 X137.927 Y91.919 E4.3163
G1 X137.902 Y107.847 E4.5481
G1 X137.662 Y107.805 E4.5516
G1 X137.421 Y107.847 E4.5552
G1 X137.421 Y107.392 E4.5618
G0 X137.092 Y108.169 F10800
G1 X137.092 Y91.573 E4.8033 F3600
G1 X138.256 Y91.573 E4.8203
G1 X138.230 Y108.255 E5.0630
G1 X137.662 Y108.155 E5.0714
G1 X137.173 Y108.241 E5.0786
G0 X136.965 Y108.714 F10800
G1 X136.764 Y108.830 E5.0820 F3600
G1 X136.764 Y91.228 E5.3381
G1 X138.585 Y91.228 E5.3646
G1 X138.558 Y108.829 E5.6207
G1 X138.144 Y108.590 E5.6277
G1 X137.662 Y108.505 E5.6348
G1 X137.180 Y108.590 E5.6419
G1 X137.109 Y108.631 E5.6431
G0 F4800 E4.6431
G0 X135.117 Y108.546 F10800
G0 X133.126 Y108.461
G0 X131.134 Y108.375
G0 F4800 E5.6431
;segType:Loop
G1 X131.134 Y90.607 E5.9017 F3600
G1 X130.997 Y90.232 E5.9075
G1 X130.997 Y89.768 E5.9143
G1 X131.157 Y89.329 E5.9211
G1 X131.464 Y88.963 E5.9280
G1 X131.886 Y88.719 E5.9351
G1 X132.372 Y88.634 E5.9423
G1 X132.858 Y88.719 E5.9495
G1 X133.280 Y88.963 E5.9565
G1 X133.586 Y89.329 E5.9635
G1 X133.747 Y89.768 E5.9703
G1 X133.747 Y90.232 E5.9770
G1 X133.635 Y90.541 E5.9818
G1 X133.635 Y109.462 E6.2572
G1 X133.747 Y109.768 E6.2619
G1 X133.747 Y110.232 E6.2686
G1 X133.586 Y110.671 E6.2754
G1 X133.280 Y111.037 E6.2824
G1 X132.858 Y111.281 E6.2895
G1 X132.372 Y111.366 E6.2967
G1 X131.886 Y111.281 E6.3038
G1 X131.464 Y111.037 E6.3109
G1 X131.157 Y110.671 E6.3179
G1 X130.997 Y110.232 E6.3247
G1 X130.997 Y109.768 E6.3314
G1 X131.134 Y109.392 E6.3372
G1 X131.134 Y108.548 E6.3495
;segType:Perimeter
G0 X131.074 Y109.815 F10800
G1 X130.784 Y109.273 E6.3585 F2159
G1 X130.784 Y90.675 E6.6291
G1 X130.647 Y90.300 E6.6349
G1 X130.647 Y89.700 E6.6436
G1 X130.853 Y89.135 E6.6524
G1 X131.242 Y88.672 E6.6612
G1 X131.770 Y88.367 E6.6701
G1 X132.372 Y88.261 E6.6790
G1 X132.974 Y88.367 E6.6879
G1 X133.502 Y88.672 E6.6967
G1 X133.891 Y89.135 E6.7055
G1 X134.097 Y89.700 E6.7143
G1 X134.097 Y90.300 E6.7230
G1 X133.985 Y90.608 E6.7278
G1 X133.985 Y109.394 E7.0011
G1 X134.097 Y109.700 E7.0059
G1 X134.097 Y110.300 E7.0146
G1 X133.891 Y110.865 E7.0233
G1 X133.502 Y111.328 E7.0322
G1 X132.974 Y111.633 E7.0410
G1 X132.372 Y111.739 E7.0499
G1 X131.770 Y111.633 E7.0588
G1 X131.242 Y111.328 E7.0677
G1 X130.853 Y110.865 E7.0765
G1 X130.647 Y110.300 E7.0852
G1 X130.647 Y109.700 E7.0940
G1 X130.766 Y109.373 E7.0990
G1 X131.221 Y108.975
;segType:HShell
G0 X131.670 Y108.717 F10800
G1 X131.473 Y108.830 E7.1023 F3600
G1 X131.473 Y91.170 E7.3593
G1 X131.890 Y91.410 E7.3663
G1 X132.372 Y91.495 E7.3734
G1 X132.854 Y91.410 E7.3806
G1 X133.296 Y91.149 E7.3880
G1 X133.286 Y108.839 E7.6454
G1 X132.854 Y108.590 E7.6527
G1 X132.372 Y108.505 E7.6598
G1 X131.890 Y108.590 E7.6669
G1 X131.814 Y108.634 E7.6682
;segType:Perimeter
G0 X131.969 Y108.846 F10800
G1 X132.420 Y109.248 E7.6770 F2159
G1 X132.624 Y109.284 E7.6800
G1 X132.849 Y109.413 E7.6838
G1 X133.018 Y109.615 E7.6876
G1 X133.109 Y109.866 E7.6915
G1 X133.109 Y110.134 E7.6954
G1 X133.018 Y110.386 E7.6993
G1 X132.849 Y110.587 E7.7031
G1 X132.624 Y110.716 E7.7069
G1 X132.372 Y110.761 E7.7106
G1 X132.119 Y110.716 E7.7144
G1 X131.895 Y110.587 E7.7181
G1 X131.726 Y110.386 E7.7220
G1 X131.635 Y110.134 E7.7258
G1 X131.635 Y109.866 E7.7298
G1 X131.726 Y109.615 E7.7336
G1 X131.895 Y109.413 E7.7375
G1 X132.119 Y109.284 E7.7412
G1 X132.323 Y109.248 E7.7443
G1 X132.775 Y108.846
;segType:Loop
G0 X133.393 Y109.617 F10800
G1 X133.459 Y109.797 E7.7471 F3600
G1 X133.459 Y110.202 E7.7529
G1 X133.322 Y110.579 E7.7588
G1 X133.071 Y110.879 E7.7645
G1 X132.741 Y111.069 E7.7700
G1 X132.372 Y111.134 E7.7755
G1 X132.003 Y111.069 E7.7809
G1 X131.673 Y110.878 E7.7864
G1 X131.422 Y110.579 E7.7921
G1 X131.285 Y110.202 E7.7980
G1 X131.285 Y109.797 E7.8039
G1 X131.422 Y109.422 E7.8097
G1 X131.673 Y109.122 E7.8154
G1 X132.003 Y108.931 E7.8209
G1 X132.372 Y108.866 E7.8264
G1 X132.741 Y108.931 E7.8318
G1 X133.071 Y109.122 E7.8374
G1 X133.322 Y109.422 E7.8431
G1 X133.335 Y109.456 E7.8436
G0 X133.875 Y107.858 F10800
G0 X133.394 Y89.617
G1 X133.459 Y89.798 E7.8464 F3600
G1 X133.459 Y90.203 E7.8523
G1 X133.322 Y90.578 E7.8581
G1 X133.071 Y90.878 E7.8638
G1 X132.741 Y91.069 E7.8693
G1 X132.372 Y91.134 E7.8748
G1 X132.003 Y91.069 E7.8802
G1 X131.673 Y90.878 E7.8858
G1 X131.422 Y90.578 E7.8915
G1 X131.285 Y90.203 E7.8973
G1 X131.285 Y89.798 E7.9032
G1 X131.422 Y89.421 E7.9090
G1 X131.673 Y89.122 E7.9147
G1 X132.003 Y88.932 E7.9202
G1 X132.372 Y88.866 E7.9257
G1 X132.741 Y88.932 E7.9311
G1 X133.071 Y89.121 E7.9367
G1 X133.322 Y89.421 E7.9424
G1 X133.335 Y89.456 E7.9429
G0 X132.782 Y89.178 F10800
G0 X131.969 Y88.846
;segType:Perimeter
G1 X132.420 Y89.248 E7.9517 F2159
G1 X132.624 Y89.284 E7.9547
G1 X132.849 Y89.413 E7.9585
G1 X133.018 Y89.615 E7.9623
G1 X133.109 Y89.866 E7.9662
G1 X133.109 Y90.134 E7.9701
G1 X133.018 Y90.385 E7.9740
G1 X132.849 Y90.587 E7.9778
G1 X132.624 Y90.716 E7.9816
G1 X132.372 Y90.761 E7.9853
G1 X132.119 Y90.716 E7.9891
G1 X131.895 Y90.587 E7.9928
G1 X131.726 Y90.385 E7.9967
G1 X131.635 Y90.134 E8.0005
G1 X131.635 Y89.866 E8.0045
G1 X131.726 Y89.615 E8.0083
G1 X131.895 Y89.413 E8.0122
G1 X132.119 Y89.284 E8.0159
G1 X132.323 Y89.248 E8.0190
G1 X132.775 Y88.846
G0 F4800 E7.0190
G0 X133.274 Y90.134 F10800
G0 X132.131 Y107.220
G0 F4800 E8.0190
;segType:HShell
G1 X132.131 Y92.153 E8.2382 F3600
G1 X132.372 Y92.195 E8.2418
G1 X132.638 Y92.148 E8.2457
G1 X132.629 Y107.850 E8.4742
G1 X132.372 Y107.805 E8.4780
G1 X132.131 Y107.847 E8.4815
G1 X132.131 Y107.392 E8.4882
G0 X131.802 Y108.169 F10800
G1 X131.802 Y91.745 E8.7272 F3600
G1 X132.372 Y91.845 E8.7356
G1 X132.967 Y91.739 E8.7444
G1 X132.958 Y108.258 E8.9847
G1 X132.372 Y108.155 E8.9934
G1 X131.883 Y108.241 E9.0006
; ------------------------------------
; Layer #4
; ------------------------------------
G21 ; mm
G90 ; abs
G92 E0 ; reset extr
M106 S255
G0 F4800 E-1.0000
G0 F300 Z0.500
G0 X133.562 Y109.096 F10800
G0 X135.240 Y109.951
G0 X136.918 Y110.806
G0 F4800 E0.0000
;segType:Loop
G1 X136.789 Y110.684 E0.0026 F3600
G1 X136.612 Y110.331 E0.0083
G1 X136.566 Y109.932 E0.0142
G1 X136.658 Y109.543 E0.0200
G1 X136.874 Y109.215 E0.0257
G1 X137.180 Y108.987 E0.0313
G1 X137.539 Y108.880 E0.0367
G1 X137.909 Y108.902 E0.0421
G1 X138.254 Y109.051 E0.0476
G1 X138.535 Y109.316 E0.0532
G1 X138.712 Y109.669 E0.0589
G1 X138.758 Y110.068 E0.0648
G1 X138.666 Y110.457 E0.0706
G1 X138.451 Y110.785 E0.0763
G1 X138.144 Y111.013 E0.0819
G1 X137.786 Y111.120 E0.0873
G1 X137.415 Y111.098 E0.0927
G1 X137.069 Y110.949 E0.0982
G1 X137.040 Y110.922 E0.0988
;segType:Perimeter
G0 X138.516 Y110.847 F10800
G1 X137.943 Y110.691 E0.1074 F2159
G1 X137.746 Y110.749 E0.1104
G1 X137.493 Y110.734 E0.1141
G1 X137.258 Y110.633 E0.1178
G1 X137.070 Y110.455 E0.1216
G1 X136.952 Y110.219 E0.1254
G1 X136.921 Y109.955 E0.1293
G1 X136.982 Y109.697 E0.1332
G1 X137.126 Y109.478 E0.1370
G1 X137.334 Y109.324 E0.1407
G1 X137.578 Y109.251 E0.1444
G1 X137.831 Y109.266 E0.1481
G1 X138.066 Y109.367 E0.1518
G1 X138.254 Y109.545 E0.1556
G1 X138.372 Y109.781 E0.1595
G1 X138.403 Y110.045 E0.1633
G1 X138.342 Y110.303 E0.1672
G1 X138.198 Y110.522 E0.1710
G1 X138.031 Y110.647 E0.1740
G1 X137.787 Y111.213
G0 F4800 E-0.8260
G0 X137.091 Y110.707 F10800
G0 X136.795 Y110.271
G0 X136.424 Y108.365
G0 F4800 E0.1740
;segType:Loop
G1 X136.424 Y90.608 E0.4324 F3600
G1 X136.287 Y90.232 E0.4382
G1 X136.287 Y89.768 E0.4450
G1 X136.447 Y89.329 E0.4518
G1 X136.754 Y88.963 E0.4587
G1 X137.176 Y88.719 E0.4658
G1 X137.662 Y88.634 E0.4730
G1 X138.148 Y88.719 E0.4802
G1 X138.570 Y88.963 E0.4873
G1 X138.877 Y89.329 E0.4942
G1 X139.037 Y89.768 E0.5010
G1 X139.037 Y90.232 E0.5078
G1 X138.925 Y90.537 E0.5125
G1 X138.896 Y109.383 E0.7867
G1 X139.037 Y109.768 E0.7927
G1 X139.037 Y110.232 E0.7994
G1 X138.877 Y110.671 E0.8063
G1 X138.570 Y111.037 E0.8132
G1 X138.148 Y111.281 E0.8203
G1 X137.662 Y111.366 E0.8275
G1 X137.176 Y111.281 E0.8347
G1 X136.754 Y111.037 E0.8417
G1 X136.447 Y110.671 E0.8487
G1 X136.287 Y110.232 E0.8555
G1 X136.287 Y109.766 E0.8623
G1 X136.424 Y109.381 E0.8682
G1 X136.424 Y108.537 E0.8805
;segType:Perimeter
G0 X136.367 Y109.802 F10800
G1 X136.074 Y109.262 E0.8894 F2159
G1 X136.074 Y90.675 E1.1599
G1 X135.937 Y90.300 E1.1657
G1 X135.937 Y89.700 E1.1744
G1 X136.143 Y89.135 E1.1832
G1 X136.532 Y88.672 E1.1920
G1 X137.060 Y88.367 E1.2009
G1 X137.662 Y88.261 E1.2098
G1 X138.264 Y88.367 E1.2187
G1 X138.792 Y88.672 E1.2275
G1 X139.181 Y89.135 E1.2363
G1 X139.387 Y89.700 E1.2451
G1 X139.387 Y90.300 E1.2538
G1 X139.275 Y90.606 E1.2585
G1 X139.247 Y109.315 E1.5308
G1 X139.387 Y109.700 E1.5367
G1 X139.387 Y110.300 E1.5455
G1 X139.181 Y110.865 E1.5542
G1 X138.792 Y111.328 E1.5630
G1 X138.264 Y111.633 E1.5719
G1 X137.662 Y111.739 E1.5808
G1 X137.060 Y111.633 E1.5897
G1 X136.532 Y111.328 E1.5986
G1 X136.143 Y110.865 E1.6074
G1 X135.937 Y110.300 E1.6161
G1 X135.937 Y109.699 E1.6249
G1 X136.057 Y109.363 E1.6301
G1 X136.511 Y108.964
;segType:Loop
G0 X136.694 Y89.468 F10800
G1 X136.712 Y89.421 E1.6308 F3600
G1 X136.963 Y89.122 E1.6365
G1 X137.293 Y88.932 E1.6420
G1 X137.662 Y88.866 E1.6475
G1 X138.031 Y88.932 E1.6529
G1 X138.361 Y89.121 E1.6585
G1 X138.613 Y89.421 E1.6641
G1 X138.749 Y89.798 E1.6700
G1 X138.749 Y90.202 E1.6759
G1 X138.506 Y90.871 E1.6862
G1 X136.818 Y90.871 E1.7108
G1 X136.575 Y90.202 E1.7211
G1 X136.575 Y89.798 E1.7270
G1 X136.636 Y89.630 E1.7296
G0 X136.906 Y90.565 F10800
G0 X137.317 Y91.005
;segType:Perimeter
G1 X137.042 Y90.455 E1.7386 F2159
G1 X136.925 Y90.134 E1.7436
G1 X136.925 Y89.866 E1.7475
G1 X137.016 Y89.615 E1.7514
G1 X137.185 Y89.413 E1.7552
G1 X137.409 Y89.284 E1.7589
G1 X137.662 Y89.239 E1.7627
G1 X137.914 Y89.284 E1.7664
G1 X138.139 Y89.413 E1.7702
G1 X138.308 Y89.615 E1.7740
G1 X138.399 Y89.866 E1.7779
G1 X138.399 Y90.134 E1.7818
G1 X138.265 Y90.504 E1.7875
G1 X137.108 Y90.504 E1.8044
G1 X136.521 Y90.430
G0 F4800 E0.8044
G0 X137.421 Y107.248 F10800
G0 F4800 E1.8044
;segType:HShell
G1 X137.421 Y91.919 E2.0274 F3600
G1 X137.927 Y91.919 E2.0348
G1 X137.902 Y107.853 E2.2667
G1 X137.421 Y107.827 E2.2737
G1 X137.421 Y107.421 E2.2796
G0 X137.092 Y108.198 F10800
G1 X137.092 Y91.573 E2.5215 F3600
G1 X138.256 Y91.573 E2.5384
G1 X138.230 Y108.282 E2.7815
G1 X138.059 Y108.208 E2.7843
G1 X137.464 Y108.173 E2.7929
G1 X137.171 Y108.260 E2.7974
G0 X136.964 Y108.711 F10800
G1 X136.764 Y108.860 E2.8010 F3600
G1 X136.764 Y91.228 E3.0576
G1 X138.585 Y91.228 E3.0841
G1 X138.558 Y108.858 E3.3406
G1 X138.438 Y108.744 E3.3430
G1 X137.985 Y108.550 E3.3502
G1 X137.501 Y108.521 E3.3573
G1 X137.110 Y108.637 E3.3632
G0 F4800 E2.3632
G0 X135.209 Y109.731 F10800
G0 X133.307 Y110.824
G0 X132.454 Y111.271
G0 X131.832 Y110.970
G0 F4800 E3.3632
;segType:Loop
G1 X131.673 Y110.878 E3.3659 F3600
G1 X131.422 Y110.579 E3.3716
G1 X131.285 Y110.202 E3.3774
G1 X131.285 Y109.797 E3.3833
G1 X131.422 Y109.422 E3.3891
G1 X131.673 Y109.122 E3.3948
G1 X132.003 Y108.931 E3.4003
G1 X132.372 Y108.866 E3.4058
G1 X132.741 Y108.931 E3.4112
G1 X133.071 Y109.122 E3.4168
G1 X133.322 Y109.422 E3.4225
G1 X133.459 Y109.797 E3.4283
G1 X133.459 Y110.202 E3.4342
G1 X133.322 Y110.579 E3.4400
G1 X133.071 Y110.879 E3.4457
G1 X132.741 Y111.069 E3.4513
G1 X132.372 Y111.134 E3.4567
G1 X132.003 Y111.069 E3.4622
G1 X131.976 Y111.053 E3.4626
;segType:Perimeter
G0 X133.397 Y110.627 F10800
G1 X132.806 Y110.612 E3.4712 F2159
G1 X132.624 Y110.716 E3.4743
G1 X132.372 Y110.761 E3.4780
G1 X132.119 Y110.716 E3.4817
G1 X131.895 Y110.587 E3.4855
G1 X131.726 Y110.386 E3.4893
G1 X131.635 Y110.134 E3.4932
G1 X131.635 Y109.866 E3.4971
G1 X131.726 Y109.615 E3.5010
G1 X131.895 Y109.413 E3.5048
G1 X132.119 Y109.284 E3.5086
G1 X132.372 Y109.239 E3.5123
G1 X132.624 Y109.284 E3.5161
G1 X132.849 Y109.413 E3.5198
G1 X133.018 Y109.615 E3.5237
G1 X133.109 Y109.866 E3.5275
G1 X133.109 Y110.134 E3.5315
G1 X133.018 Y110.386 E3.5353
G1 X132.881 Y110.548 E3.5384
G1 X132.765 Y111.158
G0 F4800 E2.5384
G0 X132.256 Y110.915 F10800
G0 X131.792 Y110.722
G0 X131.473 Y110.166
G0 X131.134 Y108.375
G0 F4800 E3.5384
;segType:Loop
G1 X131.134 Y90.607 E3.7970 F3600
G1 X130.997 Y90.232 E3.8028
G1 X130.997 Y89.768 E3.8096
G1 X131.157 Y89.329 E3.8164
G1 X131.464 Y88.963 E3.8233
G1 X131.886 Y88.719 E3.8304
G1 X132.372 Y88.634 E3.8376
G1 X132.858 Y88.719 E3.8448
G1 X133.280 Y88.963 E3.8518
G1 X133.586 Y89.329 E3.8588
G1 X133.747 Y89.768 E3.8656
G1 X133.747 Y90.232 E3.8724
G1 X133.635 Y90.541 E3.8771
G1 X133.635 Y109.462 E4.1525
G1 X133.747 Y109.768 E4.1572
G1 X133.747 Y110.232 E4.1639
G1 X133.586 Y110.671 E4.1707
G1 X133.280 Y111.037 E4.1777
G1 X132.858 Y111.281 E4.1848
G1 X132.372 Y111.366 E4.1920
G1 X131.886 Y111.281 E4.1991
G1 X131.464 Y111.037 E4.2062
G1 X131.157 Y110.671 E4.2132
G1 X130.997 Y110.232 E4.2200
G1 X130.997 Y109.768 E4.2267
G1 X131.134 Y109.392 E4.2326
G1 X131.134 Y108.548 E4.2448
;segType:Perimeter
G0 X131.074 Y109.815 F10800
G1 X130.784 Y109.273 E4.2538 F2159
G1 X130.784 Y90.675 E4.5244
G1 X130.647 Y90.300 E4.5302
G1 X130.647 Y89.700 E4.5389
G1 X130.853 Y89.135 E4.5477
G1 X131.242 Y88.672 E4.5565
G1 X131.770 Y88.367 E4.5654
G1 X132.372 Y88.261 E4.5743
G1 X132.974 Y88.367 E4.5832
G1 X133.502 Y88.672 E4.5920
G1 X133.891 Y89.135 E4.6008
G1 X134.097 Y89.700 E4.6096
G1 X134.097 Y90.300 E4.6183
G1 X133.985 Y90.608 E4.6231
G1 X133.985 Y109.394 E4.8964
G1 X134.097 Y109.700 E4.9012
G1 X134.097 Y110.300 E4.9099
G1 X133.891 Y110.865 E4.9186
G1 X133.502 Y111.328 E4.9275
G1 X132.974 Y111.633 E4.9363
G1 X132.372 Y111.739 E4.9452
G1 X131.770 Y111.633 E4.9541
G1 X131.242 Y111.328 E4.9630
G1 X130.853 Y110.865 E4.9718
G1 X130.647 Y110.300 E4.9805
G1 X130.647 Y109.700 E4.9893
G1 X130.766 Y109.373 E4.9943
G1 X131.221 Y108.975
;segType:Loop
G0 X131.832 Y90.970 F10800
G1 X131.673 Y90.878 E4.9970 F3600
G1 X131.422 Y90.578 E5.0027
G1 X131.285 Y90.203 E5.0085
G1 X131.285 Y89.798 E5.0144
G1 X131.422 Y89.421 E5.0202
G1 X131.673 Y89.122 E5.0259
G1 X132.003 Y88.932 E5.0315
G1 X132.372 Y88.866 E5.0369
G1 X132.741 Y88.932 E5.0424
G1 X133.071 Y89.121 E5.0479
G1 X133.322 Y89.421 E5.0536
G1 X133.459 Y89.798 E5.0594
G1 X133.459 Y90.203 E5.0653
G1 X133.322 Y90.578 E5.0711
G1 X133.071 Y90.878 E5.0768
G1 X132.741 Y91.069 E5.0824
G1 X132.372 Y91.134 E5.0878
G1 X132.003 Y91.069 E5.0933
G1 X131.976 Y91.053 E5.0937
;segType:Perimeter
G0 X133.397 Y90.626 F10800
G1 X132.806 Y90.612 E5.1024 F2159
G1 X132.624 Y90.716 E5.1054
G1 X132.372 Y90.761 E5.1091
G1 X132.119 Y90.716 E5.1129
G1 X131.895 Y90.587 E5.1166
G1 X131.726 Y90.385 E5.1205
G1 X131.635 Y90.134 E5.1243
G1 X131.635 Y89.866 E5.1283
G1 X131.726 Y89.615 E5.1321
G1 X131.895 Y89.413 E5.1360
G1 X132.119 Y89.284 E5.1397
G1 X132.372 Y89.239 E5.1435
G1 X132.624 Y89.284 E5.1472
G1 X132.849 Y89.413 E5.1510
G1 X133.018 Y89.615 E5.1548
G1 X133.109 Y89.866 E5.1587
G1 X133.109 Y90.134 E5.1626
G1 X133.018 Y90.385 E5.1665
G1 X132.881 Y90.548 E5.1696
G1 X132.766 Y91.157
;segType:HShell
G0 X132.131 Y107.220 F10800
G1 X132.131 Y92.153 E5.3888 F3600
G1 X132.372 Y92.195 E5.3924
G1 X132.638 Y92.148 E5.3963
G1 X132.629 Y107.850 E5.6248
G1 X132.372 Y107.805 E5.6286
G1 X132.131 Y107.847 E5.6322
G1 X132.131 Y107.392 E5.6388
G0 X131.802 Y108.169 F10800
G1 X131.802 Y91.745 E5.8778 F3600
G1 X132.372 Y91.845 E5.8862
G1 X132.967 Y91.739 E5.8950
G1 X132.958 Y108.258 E6.1354
G1 X132.372 Y108.155 E6.1440
G1 X131.883 Y108.241 E6.1512
G0 X131.670 Y108.717 F10800
G1 X131.473 Y108.830 E6.1545 F3600
G1 X131.473 Y91.170 E6.4115
G1 X131.890 Y91.410 E6.4185
G1 X132.372 Y91.495 E6.4256
G1 X132.854 Y91.410 E6.4328
G1 X133.296 Y91.149 E6.4402
G1 X133.286 Y108.839 E6.6976
G1 X132.854 Y108.590 E6.7049
G1 X132.372 Y108.505 E6.7120
G1 X131.890 Y108.590 E6.7192
G1 X131.814 Y108.634 E6.7204
G0 F4800 E5.7204
G0 X127.912 Y112.122 F10800
G0 X126.384 Y112.122
G0 X125.207 Y111.133
G0 X124.939 Y109.606
G0 X125.229 Y107.234
G0 X123.451 Y106.769
G0 X121.673 Y106.304
G0 F4800 E6.7204
G1 X121.856 Y106.410 E6.7235 F3600
G1 X122.338 Y106.495 E6.7306
G1 X122.820 Y106.410 E6.7377
G1 X123.102 Y106.248 E6.7425
G1 X123.102 Y108.739 E6.7787
G1 X122.661 Y108.550 E6.7857
G1 X122.177 Y108.521 E6.7928
G1 X121.707 Y108.661 E6.7999
G1 X121.601 Y108.740 E6.8018
G1 X121.601 Y106.349 E6.8366
;segType:Loop
G0 X120.963 Y105.146 F10800
G1 X120.963 Y104.768 E6.8421 F3600
G1 X121.123 Y104.329 E6.8489
G1 X121.430 Y103.963 E6.8559
G1 X121.852 Y103.719 E6.8630
G1 X122.338 Y103.634 E6.8701
G1 X122.824 Y103.719 E6.8773
G1 X123.246 Y103.963 E6.8844
G1 X123.552 Y104.329 E6.8914
G1 X123.713 Y104.768 E6.8982
G1 X123.713 Y105.232 E6.9049
G1 X123.552 Y105.673 E6.9117
G1 X123.441 Y105.806 E6.9143
G1 X123.441 Y109.195 E6.9636
G1 X123.552 Y109.328 E6.9661
G1 X123.713 Y109.768 E6.9729
G1 X123.713 Y110.232 E6.9797
G1 X123.552 Y110.671 E6.9865
G1 X123.246 Y111.037 E6.9934
G1 X122.824 Y111.281 E7.0005
G1 X122.338 Y111.366 E7.0077
G1 X121.852 Y111.281 E7.0149
G1 X121.430 Y111.037 E7.0219
G1 X121.123 Y110.671 E7.0289
G1 X120.963 Y110.232 E7.0357
G1 X120.963 Y109.768 E7.0424
G1 X121.123 Y109.328 E7.0493
G1 X121.261 Y109.164 E7.0524
G1 X121.261 Y105.836 E7.1008
G1 X121.123 Y105.671 E7.1039
G1 X120.993 Y105.312 E7.1095
G0 F4800 E6.1095
G0 X121.365 Y106.290 F10800
G0 F4800 E7.1095
;segType:Perimeter
G1 X120.879 Y105.936 E7.1182 F2159
G1 X120.819 Y105.865 E7.1196
G1 X120.613 Y105.300 E7.1284
G1 X120.613 Y104.700 E7.1371
G1 X120.819 Y104.135 E7.1458
G1 X121.208 Y103.672 E7.1546
G1 X121.735 Y103.367 E7.1635
G1 X122.338 Y103.261 E7.1724
G1 X122.940 Y103.367 E7.1813
G1 X123.468 Y103.672 E7.1902
G1 X123.857 Y104.135 E7.1990
G1 X124.063 Y104.700 E7.2077
G1 X124.063 Y105.300 E7.2164
G1 X123.857 Y105.865 E7.2252
G1 X123.791 Y105.944 E7.2267
G1 X123.791 Y109.056 E7.2720
G1 X123.857 Y109.135 E7.2735
G1 X124.063 Y109.700 E7.2822
G1 X124.063 Y110.300 E7.2909
G1 X123.857 Y110.865 E7.2997
G1 X123.468 Y111.328 E7.3085
G1 X122.940 Y111.633 E7.3174
G1 X122.338 Y111.739 E7.3263
G1 X121.735 Y111.633 E7.3352
G1 X121.208 Y111.328 E7.3440
G1 X120.819 Y110.865 E7.3528
G1 X120.613 Y110.300 E7.3616
G1 X120.613 Y109.700 E7.3703
G1 X120.819 Y109.135 E7.3791
G1 X120.911 Y109.025 E7.3812
G1 X120.911 Y106.027 E7.4248
G1 X121.054 Y105.424
G0 X121.758 Y105.722 F10800
G0 X122.338 Y105.933
G0 X122.918 Y105.722
G0 X123.351 Y105.405
;segType:Loop
G1 X123.288 Y105.579 E7.4275 F3600
G1 X123.037 Y105.878 E7.4331
G1 X122.707 Y106.069 E7.4387
G1 X122.338 Y106.134 E7.4441
G1 X121.969 Y106.069 E7.4496
G1 X121.639 Y105.878 E7.4551
G1 X121.387 Y105.579 E7.4608
G1 X121.251 Y105.202 E7.4667
G1 X121.251 Y104.798 E7.4725
G1 X121.387 Y104.421 E7.4784
G1 X121.639 Y104.122 E7.4841
G1 X121.969 Y103.931 E7.4896
G1 X122.338 Y103.866 E7.4951
G1 X122.707 Y103.931 E7.5005
G1 X123.048 Y104.128 E7.5062
G1 X123.300 Y104.454 E7.5122
G1 X123.425 Y104.798 E7.5176
G1 X123.425 Y105.202 E7.5234
G1 X123.410 Y105.244 E7.5241
G0 X123.147 Y104.578 F10800
G0 X122.741 Y103.845
;segType:Perimeter
G1 X122.850 Y104.456 E7.5331 F2159
G1 X122.993 Y104.640 E7.5365
G1 X123.075 Y104.866 E7.5400
G1 X123.075 Y105.134 E7.5439
G1 X122.984 Y105.385 E7.5478
G1 X122.815 Y105.587 E7.5516
G1 X122.591 Y105.716 E7.5554
G1 X122.338 Y105.761 E7.5591
G1 X122.086 Y105.716 E7.5629
G1 X121.861 Y105.587 E7.5666
G1 X121.692 Y105.385 E7.5705
G1 X121.601 Y105.134 E7.5743
G1 X121.601 Y104.866 E7.5783
G1 X121.692 Y104.615 E7.5821
G1 X121.861 Y104.413 E7.5860
G1 X122.086 Y104.284 E7.5897
G1 X122.338 Y104.239 E7.5935
G1 X122.591 Y104.284 E7.5972
G1 X122.776 Y104.391 E7.6003
G1 X123.368 Y104.394
G0 F4800 E6.6003
G0 X123.092 Y106.601 F10800
G0 X121.433 Y109.945
G0 X121.474 Y110.693
G0 F4800 E7.6003
;segType:Loop
